/* XPM */
static char *coin[] = {
/* columns rows colors chars-per-pixel */
"80 80 158 2 ",
"   c #3D2F52",
".  c #3F3155",
"X  c #413355",
"o  c #453956",
"O  c #44365C",
"+  c #47385E",
"@  c #493C5F",
"#  c #473861",
"$  c #4B3D64",
"%  c #4E3F69",
"&  c #503F6B",
"*  c #4D425B",
"=  c #504559",
"-  c #544B5E",
";  c #5C535F",
":  c #775F4B",
">  c #6F5A52",
",  c #66565F",
"<  c #6A555A",
"1  c #6E5A5F",
"2  c #715B54",
"3  c #715C5A",
"4  c #7E6545",
"5  c #7F6A41",
"6  c #77604D",
"7  c #776351",
"8  c #7A6550",
"9  c #72635E",
"0  c #7E7254",
"q  c #7F745C",
"w  c #4E4164",
"e  c #4F4069",
"r  c #514564",
"t  c #554A65",
"y  c #5A4E65",
"u  c #52426C",
"i  c #574A6B",
"p  c #594B6C",
"a  c #5D5465",
"s  c #5D526C",
"d  c #564571",
"f  c #584774",
"g  c #574872",
"h  c #5A4976",
"j  c #5D4C7A",
"k  c #5F5174",
"l  c #6B5766",
"z  c #625A66",
"x  c #6D5864",
"c  c #60566D",
"v  c #645C6B",
"b  c #6B5D6E",
"n  c #705C6C",
"m  c #604F7E",
"M  c #625473",
"N  c #6A5771",
"B  c #665B73",
"V  c #695D74",
"C  c #62517E",
"Z  c #66587B",
"A  c #6A5C7A",
"S  c #67606C",
"D  c #6A656B",
"F  c #6E696D",
"G  c #766A62",
"H  c #72656B",
"J  c #716C6C",
"K  c #7F7660",
"L  c #7F7867",
"P  c #75716F",
"I  c #7B7469",
"U  c #7F7B6B",
"Y  c #6B6372",
"T  c #6F6971",
"R  c #6D627B",
"E  c #726C73",
"W  c #70647D",
"Q  c #746C7C",
"!  c #767272",
"~  c #797673",
"^  c #7E7D75",
"/  c #77707B",
"(  c #7A747A",
")  c #7E7A79",
"_  c #886C37",
"`  c #856B3C",
"'  c #8A6E39",
"]  c #8D723C",
"[  c #92753D",
"{  c #96783F",
"}  c #997A3F",
"|  c #A17F3F",
" . c #846C42",
".. c #816D49",
"X. c #877144",
"o. c #8B7243",
"O. c #85724C",
"+. c #8A754B",
"@. c #8E794D",
"#. c #917745",
"$. c #967A43",
"%. c #9B7C43",
"&. c #947C4C",
"*. c #9A7E4A",
"=. c #806F56",
"-. c #837454",
";. c #887754",
":. c #8C7A53",
">. c #83765A",
",. c #86795B",
"<. c #8B7C5A",
"1. c #927D53",
"2. c #907F5A",
"3. c #A07F42",
"4. c #847B63",
"5. c #8A7E63",
"6. c #837D6B",
"7. c #887F68",
"8. c #807F74",
"9. c #7F8076",
"0. c #7F8078",
"q. c #9D8047",
"w. c #9D814C",
"e. c #8F805E",
"r. c #968056",
"t. c #9A8354",
"y. c #92815D",
"u. c #9A855A",
"i. c #A38345",
"p. c #A98747",
"a. c #AD8946",
"s. c #A3864C",
"d. c #A88749",
"f. c #AA894A",
"g. c #A18752",
"h. c #8E8164",
"j. c #86806D",
"k. c #89816A",
"l. c #908363",
"z. c #818074",
"x. c #614F81",
"c. c #645283",
"v. c #685687",
"b. c #6B5B84",
"n. c #675488",
"m. c #695689",
"M. c #6C598D",
"N. c #725E8C",
"B. c #6F5B90",
"V. c #715D93",
"C. c #736283",
"Z. c #746982",
"A. c #786A86",
"S. c #75618A",
"D. c #746096",
"F. c #786397",
"G. c #766299",
"H. c #79649B",
/* pixels */
"8.8.8.8.8.8.8.z.^ z.8.8.8.8.8.8.8.8.8.8.8.8.^ z.8.8.8.8.8.8.8.8.8.8.8.8.8.8.8.8.8.8.8.8.8.8.8.8.8.^ ^ ) 0.^ 4.O.' [ [ ] ] ` ` O.L 9.9.9.9.9.z.9.9.z.9.9.8.8.8.^ ",
"8.8.8.8.8.8.8.8.8.8.8.8.8.8.8.8.8.8.8.8.8.8.z.z.8.8.8.8.8.8.8.8.8.8.8.8.8.8.8.8.8.8.8.8.8.8.^ 8.6.6.6.6.j.j.,.+.' [ [ [ ] ] ] X.,.j.z.9.9.j.9.U z.U ^ z.8.8.8.z.",
"8.8.8.8.8.8.8.8.^ 8.8.8.8.8.8.8.8.8.8.8.8.8.8.^ 8.8.8.8.z.8.^ 8.8.8.8.8.8.8.8.8.8.8.8.8.8.8.8.6.,.;.:.:.:.r.&.{ [ { [ [ ] [ [ %.t.y.k.9.9.9.9.9.8.8.z.^ 8.8.8.8.",
"8.8.8.8.8.8.8.8.z.8.8.8.8.8.8.8.8.8.8.8.8.8.8.8.8.8.8.8.^ z.z.8.8.8.^ z.^ z.^ z.8.8.8.8.8.8.8.5.+.o.] #.*.q.q.*.%.$.$.$.%.%.q.s.p.w.e.j.^ U 9.9.8.8.8.z.8.8.8.8.",
"8.8.8.8.8.8.8.8.8.8.8.8.9.^ z.9.9.8.8.8.z.z.8.9.^ z.9.9.9.9.9.9.9.^ 9.9.9.9.^ 9.8.5.<.2.2.2.2.:.#.[ ] [ #.r.y.2.<.<.<.<.<.<.y.t.d.d.t.e.>.>.4.U z.^ 8.8.8.8.8.8.",
"8.8.8.8.8.8.8.z.8.8.8.z.8.8.8.8.9.9.8.8.^ ^ 8.z.^ z.9.9.U 9.z.z.z.8.8.^ z.6.9.9.6.2.&.*.*.*.*.*.$.[ ] ] ;.6.z.j.j.j.6.6.9.6.j.l.g.p.i.&.o.X.-.6.9.z.8.8.8.8.8.8.",
"8.8.8.8.8.8.8.^ 8.8.z.6.5.5.5.6.j.^ ^ 9.z.9.9.9.6.4.4.,.4.4.4.,.,.h.5.h.h.h.h.h.2.*.3.3.3.3.&.1.:.1.+.;.,.^ 9.^ 9.9.9.9.9.9.9.h.w.i.i.} [ ] O.4.8.9.z.8.8.8.8.z.",
"8.8.8.8.8.8.8.8.8.z.z.5.&.&.&.:.6.9.z.9.z.^ 9.z.6.>.O.X.+.X.+.+.&.&.t.w.w.s.g.g.s.d.3.3.3.2.5.6.6.4.6.6.6.^ 9.z.9.^ 9.9.^ 9.^ j.r.} } } [ [ ;.4.^ z.^ z.8.8.8.^ ",
"z.^ 9.6.j.^ ^ 9.8.U 4.:.$.} [ #.,.4.6.6.6.4.6.4.,.+.] ] ' ' ' [ { %.*.w.t.s.s.f.a.a.p.i.&.2.8.8.^ 9.^ 8.9.8.8.8.9.9.9.9.z.9.9.4.@.$.{ $.} %.r.k.^ z.z.^ 8.8.8.8.",
"^ 9.9.9.^ z.z.9.U q 5 X.] ] [ ] +.+.@.@.:.@.:.@.@.[ ] ] _ _ _ ' [ $.1.5.h.h.u.f.a.a.d.r.5.6.8.8.z.9.z.9.8.8.8.8.9.U U 9.9.9.z.4.+.] { } %.i.t.k.9.^ 8.z.8.8.8.8.",
"z.z.z.9.9.9.9.9.L 0 5 ` ] o.o.X.o.o.o.#.#.#.#.#.$.o.o.o.X.] ` X.o.@.4.j.z.z.k.g.f.p.s.y.8.8.8.8.9.8.8.8.8.8.8.8.9.9.^ 9.9.^ 6.4.+.[ { } i.p.t.k.9.^ ^ z.8.8.8.8.",
"j.^ 9.9.U 9.9.^ U K 0 >.>.>.>.,.>.,.<.,.<.<.<.,.<.<.<.,.>.>.>.>.<.,.6.^ ) 8.j.l.u.s.s.l.8.8.8.8.8.8.8.8.8.8.8.8.9.j.9.9.^ U q O.X.[ } %.| i.t.k.z.9.8.8.8.8.8.8.",
"^ 9.U 9.U 9.z.j.9.^ j.U 9.U 9.U 6.6.9.6.z.U j.^ 9.6.^ j.8.8.6.8.z.6.z.8.z.8.^ 8.h.t.*.2.8.8.8.8.8.8.8.8.8.8.8.8.z.^ ) z.6.>.0 ` ] { %.%.i.q.r.k.^ ^ z.^ z.z.^ 8.",
"9.9.9.z.9.9.9.9.9.9.9.9.9.9.9.9.9.^ 9.9.9.9.9.9.9.9.9.9.z.^ ^ 9.9.9.^ 8.z.z.6.L >.&.*.<.8.8.8.8.8.8.8.8.8.8.8.8.9.z.z.8.^ q  .` [ } } %.*.r.h.j.z.9.z.z.^ 8.z.8.",
"j.z.9.z.^ 9.z.9.9.9.9.^ 9.z.z.9.z.z.z.z.9.9.9.6.9.9.^ 9.8.z.z.^ 9.^ z.z.^ ^ 4.0 ..X.#.5.8.8.8.8.z.^ 8.8.^ z.8.8.8.8.8.z.8.q 4 ` ] $.} *.:.h.j.^ z.^ ^ z.8.8.8.8.",
"^ ^ z.^ 9.j.^ 9.z.U 9.^ j.^ z.9.^ z.^ ^ z.^ 9.z.9.U 9.9.z.^ z.8.z.z.z.^ ^ P G 7 4 `  .=.4.~ 8.8.z.z.z.z.8.z.8.8.8.8.8.8.8.K 0 O.+.&.&.1.5.^ 9.^ 8.z.z.^ 8.8.8.8.",
"9.9.j.^ 9.U 9.9.8.8.8.z.^ z.8.8.8.8.8.8.8.8.8.8.9.9.j.^ 9.9.8.z.8.8.8.8.J l x 2 : 4 4 7 9 J ^ 9.z.z.z.z.9.^ z.8.8.8.z.z.^ 6.L 4.6.4.7.7.6.8.8.8.8.8.8.8.8.8.8.8.",
"9.^ 9.9.9.9.z.9.8.8.^ z.8.8.8.8.8.8.8.z.8.8.8.8.9.9.9.9.9.U ^ ) 8.~ 8.~ Y p y < 2 : 7 2 1 H ~ ) ~ ~ ~ ~ ^ ^ z.8.8.8.^ z.z.^ ^ 9.0.z.z.8.8.8.8.8.8.8.8.8.8.8.8.8.",
"9.9.9.9.9.9.9.^ 8.8.8.8.8.8.8.8.8.z.8.^ 8.8.z.z.9.9.z.9.z.~ Q R R A W W A m N l 3 3 3 l N W A.Z.R V c v F ^ z.z.z.z.6.9.9.9.z.9.) z.8.8.8.8.8.8.8.8.8.8.8.8.8.8.",
"j.^ U 9.9.^ 9.j.8.8.8.8.8.8.8.8.8.^ 8.z.z.^ ^ ^ U ^ ^ 9.^ Q b.v.c.x.C c.v.b.b.n n n n N b.N.V.B.j u e r v ~ ^ ^ ^ ^ ^ 9.9.6.9.9.8.8.8.8.8.8.8.8.8.8.8.8.8.8.8.8.",
"9.9.^ z.U z.9.^ 8.8.8.8.8.z.8.8.9.^ 9.9.z.z.~ D v S S Y Y A v.x.m x.n.m.V.V.V.S.N.N.W N.B.D.V.m.h e % e s Y T Y T ^ z.z.z.z.z.z.8.8.8.8.8.8.8.8.8.8.8.8.8.z.8.8.",
"^ 6.z.z.z.9.z.z.8.8.8.8.8.^ 8.8.9.9.j.9.z.U F t w e p g g j x.c.m c.m.V.V.H.H.H.F.F.F.F.H.G.B.n.f u e u g h h g s E ^ z.^ ^ ^ 8.8.8.8.8.8.8.8.8.8.8.8.8.z.^ 8.8.",
"z.9.9.^ U 9.^ j.8.8.8.8.8.8.8.8.9.9.9.9.I F a * # $ d d j x.c.c.m m x.m.N.V.V.V.V.V.V.V.B.B.B.c.j d u u d f f % p V E E E ! U z.8.8.8.8.8.8.8.8.8.8.8.8.^ 8.8.8.",
"z.^ z.9.9.9.9.^ 8.8.8.8.8.8.8.8.U j.z.^ D t @ o $ u x.x.c.v.n.c.j h h m m c.c.c.x.c.c.v.m.M.m.M.m.c.h u d h f d u C Z k s S ^ z.z.8.8.8.8.8.8.8.8.8.8.8.z.8.8.8.",
"z.^ 9.9.8.8.^ ^ z.8.8.8.8.8.8.8.9.^ ^ P s * . O % g x.n.M.B.B.n.m h m h h h h h h j j c.c.m.B.B.N.M.C f g j f u u j j f d B T ^ ^ 8.8.8.8.8.8.8.8.8.8.8.8.8.8.8.",
"^ j.U 9.8.8.z.z.8.8.8.8.8.8.8.z.9.^ T B d % $ $ e d x.m.D.G.D.B.v.x.c.x.m m h d d h j c.m.M.B.B.V.V.m.C h g u u u h h h h j k Y ~ 8.8.8.8.8.8.8.8.z.^ 8.8.8.8.8.",
"z.^ 9.z.8.8.8.8.8.8.8.8.z.8.z.^ ^ ~ V j d e e $ e g j M.G.H.H.D.M.n.n.v.c.m h d f h j v.m.M.B.D.D.V.M.c.j g u u u d f h h h g M ! 8.z.8.8.8.8.8.8.8.8.8.8.8.8.8.",
"^ z.9.9.8.8.8.8.8.8.8.8.^ z.z.^ / R b.x.h d e $ e g j m.V.G.G.D.M.n.m.m.v.c.c.m j j j j c.v.M.B.V.V.m.c.m j j h g u u u u u d M ! z.z.8.8.8.8.8.^ z.8.8.8.8.8.8.",
"z.6.j.9.^ 9.8.8.8.8.^ z.8.z.^ ( C.m.m.m.x.g e e e g j v.m.B.B.B.v.m c.n.n.M.m.M.v.j j h h c.m.M.M.m.c.j m c.c.j h u % # # $ d k E ^ 8.8.z.^ 8.8.z.8.8.8.8.8.8.8.",
"9.9.^ 8.9.9.8.8.z.^ z.^ 8.^ ( Z.b.m.v.v.j f d u d g j v.m.m.n.c.m m m c.m.M.M.M.v.c.j h h j c.n.c.x.j h j c.c.C j h u % $ $ u g v E ~ z.z.z.8.8.8.8.8.8.8.8.8.8.",
"9.z.^ 8.U z.^ 8.8.9.9.z.^ ( C.M.m.v.c.j j d f h h j j c.m.v.j f & d m m c.b.m.m.v.C j h h h j j j f d d h j m c.c.C j f r u u u i s F ^ z.z.8.8.8.8.8.8.8.8.8.8.",
"^ z.z.8.z.9.z.9.z.6.^ ^ ( Z.M.m.m.c.j j d d f j x.j j c.c.j h d d & h m c.c.b.C c.j j j j j j h f d d u h j j m C x.m f u u w u % u v E ^ ^ z.z.^ 8.8.8.8.z.^ 8.",
"8.9.9.U 9.9.9.j.9.9.0./ C.M.m.n.n.x.j f d u f c.v.c.j h f h h h h h h m m m m j j j j j c.j j j h h h j j m m j j h h g u % # $ % u i c E ^ z.8.8.8.8.8.8.8.8.8.",
"8.9.z.9.U 9.^ 9.9.9.^ R j c.v.n.x.x.h d e e f c.m.j j d d f j j m m m m h m f d h h j C c.c.j j m j m j c.c.c.j h h f d u % @ @ % u & u B E ^ ^ 8.8.8.8.8.8.8.8.",
"8.8.9.9.9.9.9.9.9.z.^ S g d h h j h f d d e f c.c.j g d h j j x.m m x.x.m h d u u u j m c.c.j m c.v.c.v.M.V.m.c.j j h d u $ # @ % w u d h Y E ^ 8.z.8.8.8.8.8.8.",
"8.8.6.9.9.z.U 9.9.9.! s w w e u d f d d d u f x.j f d f j c.c.c.m m n.v.C j d % u d h m C j j m v.m.m.m.V.G.V.m.c.j j g u & # # # $ u d f h V ! z.8.8.8.8.8.8.8.",
"8.8.8.8.9.9.9.9.U F z t $ # e e % % u u d % f j j u e f j v.c.c.x.m.B.V.m.m h d u f j j m j f m v.M.M.m.V.H.V.m.m m m j f u $ $ $ $ u d f h Z ~ z.z.8.8.8.8.8.8.",
"8.8.8.8.9.^ j.9.P a * @ # % e e % % % & % % d h h e $ f c.c.c.c.m.B.V.H.N.c.m j j m m j f g u h c.B.B.m.V.V.M.x.m m m m j d & r $ % u u f j A ~ 8.z.8.8.8.8.8.8.",
"^ z.8.8.j.9.9.9.P t # # % % % % $ % % & % % e f d $ $ d c.c.c.c.m.B.V.V.N.n.m m m c.c.m j u u f c.M.M.B.V.V.M.x.j j m m j f u % % % u f f j Z Y ! ^ 8.z.8.8.8.8.",
"z.^ z.8.9.9.z.9.! s $ $ % % % % % % % % % $ e d d $ $ e j j j c.m.m.M.B.m.c.x.m c.n.c.m j d & d x.m.M.B.V.V.m.j g j m j h u u u % % d f h j j j V E ^ z.8.8.8.8.",
"8.8.8.8.8.8.z.z.! s w $ $ e % % % % % % $ $ % u u # $ u f j j c.c.c.m.m.c.m m m c.n.c.c.j f u u j m n.M.V.N.n.h g g f f f d & & % u u f h j h f M E 8.z.8.8.8.8.",
"8.8.8.8.8.8.z.z.! s e $ $ $ % % % % % % $ # $ % % # @ # u g j c.x.x.x.m m j j j m m m m j f d d u h m n.m.m.n.m f d d d d d u & % u u f h h h d k E 8.z.8.8.8.8.",
"8.8.8.8.8.z.z.z.! s % $ $ $ e e & & u u $ # $ % % # @ # $ u j m j j j j j f f j j j j j j h f d & u h x.n.c.x.m f u u u g u & % w u u d d h d u p E 8.z.8.8.8.8.",
"8.8.8.8.^ z.z.z.~ s $ $ e e e u u d d u % $ $ $ % % # + + r h j h f j j j j f f g u d g j f f & & u g m m m m h f g d g f d & r % & u u d u u % i J ^ z.8.8.8.8.",
"9.9.9.9.z.z.6.^ ! a % $ % e e d f h j h d % $ % & % % @ + r f j f g h j j j h d u & & f j h f d u u g j j h f g f g f h j g & & % & u u u % $ # r F ^ z.8.8.8.8.",
"9.U 9.^ z.^ U F z t $ % e u d h j x.c.x.h d e u & & % # + $ d f d d f f j j h d u u d f j m h d u d j x.m m j j h f j j j g u & u u u u % $ + X * D 8.z.8.z.8.8.",
"j.9.9.j.z.9.F ; * @ $ % u d h x.v.m.m.c.x.h f f d & % $ + $ u u u u d d h j h f u d d h x.x.m j f f x.M.m.n.x.m j j j j j g u u u d u u % # o   = D ^ z.z.^ 8.8.",
"9.^ 9.z.z.9.D = X o $ % u f h c.m.M.B.m.c.x.h d & % $ # $ $ u u d g d d f f f d g d f m c.n.c.m f f m m.m.n.c.m j j j j j g u % u u u % % + X . * D z.z.z.^ 8.8.",
"9.9.9.z.z.9.D *     + $ d h x.n.m.M.B.m.m.x.j & % $ @ # $ u u j j j h u d d u u u d f x.m.M.v.x.h f f j j x.c.c.m j j m m j u % $ $ e e $ + + o w D 9.z.8.8.8.8.",
"9.U 9.9.z.U F - o X o $ d h x.m.M.V.V.M.M.m.j u $ # # # $ u j m c.c.h u u u u u u u f x.v.m.m.c.j f & d d h j m c.C m C c.h u $ # $ $ e % $ # # t F z.z.8.8.8.8.",
"z.9.6.9.z.9.I D ; * o $ f j c.m.V.V.G.G.V.M.x.f u u u $ @ u j C c.x.h g d g d d d d f j x.v.m.v.m f d & u u d j c.m.m.m.C h e $ $ # $ e w $ $ $ p F ^ z.8.8.8.8.",
"9.U 9.9.9.9.z.8.P y # $ d j c.M.V.V.G.G.V.V.c.j g u u % $ u m m x.j j h h g g d d d f h j c.m.v.x.j d u % % u f j m.M.c.j u % $ $ $ % e e e % % p F z.z.8.8.8.9.",
"9.8.z.^ z.8.z.z.! a # $ d h x.m.B.V.V.M.n.x.x.j j d u % r g m c.x.j j j j f d u u d h x.c.n.v.m.n.m j u d d d d j j j j d u $ $ $ @ $ e e % % $ t F 6.z.9.9.^ z.",
"8.8.^ z.8.8.z.z.E a % $ % d x.n.B.V.n.m f d d j j u % & d j x.x.x.c.c.c.j g u e e g j c.m.m.m.m.m.n.x.j j j h u e e d u u w $ $ + $ % w e w % $ t F ^ z.z.9.z.9.",
"8.8.8.8.8.8.z.z.! c & % & d j n.V.V.B.x.f % d h g & % % d m c.m.v.v.v.v.j g e % e g x.c.B.B.M.M.V.V.m.x.m m h d e e $ e d d u u e % u u u d u p v P ^ z.^ z.^ z.",
"8.8.8.8.8.8.z.z.! c u & & d j x.V.H.V.m.x.& $ d & $ # % u m m.V.B.M.M.c.j u e $ e u x.n.B.B.B.D.G.V.N.c.m f f j d w $ u j c.j j d u d g f h M T P ^ 9.z.z.8.z.U ",
"z.^ 8.8.8.8.z.8.! c u u u d h c.B.V.V.M.j d e d % % # % u j m.V.M.M.b.c.j d e e u f x.m.B.D.B.D.H.G.M.v.h d g h f e $ d j j j j d d d h f h V ~ z.z.8.8.8.8.8.8.",
"8.8.8.8.8.8.z.z.! M u % u u f j v.M.m.c.h e e e u e % % e f x.c.v.c.j g g g f g f h x.m.B.V.B.D.G.V.m.j u e e h h d e d d d u d u u u u u d B ! z.z.8.8.8.8.8.8.",
"8.8.8.8.8.8.z.z.! v d u u u d f x.x.j h f e % e u u u u u u h h h h d d d f g j j x.x.n.B.B.V.D.G.V.n.h e $ e f j h d e $ e w e u u u u d d M ! z.z.8.8.8.8.8.8.",
"8.8.8.8.8.8.z.8.^ E b s u u u d f h h f d $ % % u h h h d d d d u r e e e f f g d g h x.M.B.D.G.H.G.M.x.d $ e h j j f e e $ e e d f h j h h B ( z.z.8.8.8.8.8.8.",
"8.8.8.8.8.8.8.8.z.^ ~ v d & u u d u d f d e e e u m c.m h d u r % $ $ % d d u e e e d x.c.B.G.H.H.G.V.m.h e e j j j f u e e d h m m C c.c.c.R ~ z.^ z.8.^ z.8.8.",
"8.8.8.8.8.8.8.8.z.z.^ b d u & r e u f h h f d d h m c.C j h u u $ $ % % e d u e % % e f x.m.B.D.G.V.B.M.h e e h h f d d u d h x.C c.c.b.b.R Q ^ z.z.8.8.8.8.8.8.",
"8.8.8.8.8.8.8.8.z.z.~ V i % & & e u h x.c.j j j j j j C m h u u u e e d e u e e e e e g j c.v.M.B.B.M.v.j e w d d e d e d h x.x.c.b.m.M.Z.( ^ ^ 8.8.^ z.8.8.8.8.",
"8.8.8.8.8.8.8.8.z.z.~ v r % % % e d j c.m.m.v.c.C j j j C j u u u u % d u u e e e e u g h x.v.M.m.m.v.c.h e $ e e e $ e d h j v.c.m.m.m.Z.^ z.z.8.z.^ z.8.8.8.z.",
"8.8.z.z.^ 8.8.8.z.z.~ c w + $ e e h x.m.M.m.m.n.c.j h x.x.h d u u d u e u u e u e e u d j c.m.m.m.m.c.j f u e u e $ $ $ d f j c.c.v.c.v.W ^ z.9.8.8.8.8.8.^ z.^ ",
"8.8.^ 8.z.8.8.8.8.z.U v t w $ e d h v.M.B.B.B.m.v.j h h x.f u u d f d u u u u u u % & d h c.m.M.m.m.c.j f u u u e $ # $ e d h j j C v.A Q ^ z.9.8.8.8.8.8.z.8.8.",
"8.8.8.8.8.8.8.8.z.z.^ P S y w e u j v.m.B.B.B.B.v.j h h h d $ % d f f f d g d u u & u d j c.m.M.m.m.x.h h g g d u $ # $ % u d h h j A Q ^ ^ z.^ 8.8.8.8.8.8.8.8.",
"8.8.8.8.8.8.8.8.8.8.^ z.U D t e d h v.B.B.B.B.B.c.h d d d % $ % d j j h h h g d u % % d j c.m.m.m.m.x.j j h f d u $ $ $ $ $ e u f M E ) 8.^ 8.z.8.8.8.8.8.8.8.8.",
"8.8.^ z.8.8.8.8.8.8.8.z.z.P S s f h c.m.B.V.B.B.n.h u e & $ $ & h x.x.j x.j h f u % % d h j c.m.m.v.c.j j h g u $ $ $ $ $ $ $ u c Y ~ z.8.8.8.8.z.z.^ 8.8.8.8.8.",
"8.8.z.8.8.8.z.^ 8.8.8.z.8.^ ^ E k f j m.B.B.B.B.n.f e % $ % % d j c.v.v.m.n.c.h d u % u f j j j c.v.c.j j j d % # # # $ $ # $ t T ^ 8.8.8.8.8.8.^ 8.z.8.8.8.8.z.",
"8.8.8.8.8.8.8.8.8.8.8.8.8.z.z.~ Y k k j c.n.m.n.x.u $ $ % % % f j c.v.m.M.M.c.j d % % d h h x.c.v.v.c.c.c.j d # + + + + # w t v ! z.z.8.8.8.8.8.8.8.8.8.8.8.z.^ ",
"^ 8.8.8.8.8.8.8.8.8.8.8.8.z.z.^ ^ T M g h x.x.h d $ # % % & d f j c.c.m.M.B.M.j f u u d h x.c.v.v.m.m.m.c.j d + . o O O @ y F I ^ 8.8.8.8.8.8.8.8.8.8.8.8.8.z.^ ",
"z.8.8.8.8.8.^ ^ z.8.8.8.8.8.8.z.9.^ Y s k Z k i u $ # $ e e d f j x.v.m.M.B.m.x.f u & f j c.v.m.m.M.M.m.m.m d + . O # $ t z ^ z.z.8.8.8.8.8.8.8.8.8.8.8.8.8.8.8.",
"8.8.8.8.8.8.z.z.8.8.8.8.8.8.8.z.z.^ ! J T T B i $ # # $ w e e g j c.c.v.M.m.v.j f & d h m c.c.m.B.B.V.V.m.m u # X # % a D P ^ z.8.8.8.8.8.8.8.8.8.8.8.8.8.8.8.8.",
"8.8.8.8.8.8.8.8.8.8.8.8.8.8.8.8.^ 8.z.9.9.9.F s e e e w $ % e u j x.c.v.m.v.j h d u d h c.c.c.n.M.V.V.V.v.j f r w r p D ^ 8.z.8.8.8.8.8.8.8.8.8.8.8.8.8.8.8.8.8.",
"8.8.8.8.8.8.8.8.8.8.8.8.8.8.8.8.^ z.z.z.z.9.~ F S S S t O O # e h c.v.v.v.c.j h & d f j x.j j j c.c.m.m.c.h k c v v T ! 8.z.8.8.8.8.8.8.8.8.8.8.8.8.8.8.8.8.8.8.",
"8.8.8.8.8.8.8.8.8.8.8.8.8.8.^ z.z.8.8.8.9.9.U U U 9.P a # o @ w j c.v.v.c.c.j h f f h C c.m j h f j j j j j B E ^ ^ ^ ^ U z.8.8.8.8.8.8.8.8.8.8.8.8.8.8.8.8.8.8.",
"8.8.8.8.^ 8.8.8.8.8.z.^ 8.8.8.8.8.8.z.^ U 9.z.z.9.z.9.J a a a s R R Z C Z R R Y V V Y R R R V c f d g f k V E ^ z.z.z.z.z.^ 8.8.8.8.8.8.8.8.8.8.8.8.8.8.8.8.8.8.",
"8.8.8.8.z.z.8.8.8.8.8.z.8.8.8.8.8.8.8.8.9.9.9.j.9.9.9.U ~ ~ ~ ~ ~ ! B f V ! ^ ~ ~ ~ ~ ~ ^ ^ ~ T s u & g v E ^ ^ z.z.z.8.9.z.8.z.8.8.8.8.8.8.8.8.8.8.8.8.8.8.8.8.",
"8.8.8.8.z.^ 8.8.^ z.8.8.8.8.8.8.8.8.8.8.9.9.9.9.9.9.9.9.9.z.z.z.z.~ c i v ^ z.z.z.z.z.z.z.z.z.P s u & u b ^ z.z.z.^ 8.8.z.^ 8.^ 8.8.8.8.8.8.8.8.8.8.8.8.8.8.8.8."
};
