/* XPM */
static char *exit[] = {
/* columns rows colors chars-per-pixel */
"80 80 50 1 ",
"  c #5A3F2C",
". c #5B402D",
"X c #5C4635",
"o c #5E4837",
"O c #5C4738",
"+ c #5D4A3B",
"@ c #604835",
"# c #624E3D",
"$ c #65503E",
"% c #68513F",
"& c #5E4E41",
"* c #5F5043",
"= c #614F40",
"- c #645343",
"; c #695645",
": c #6B5847",
"> c #645649",
", c #67594B",
"< c #6B5C4C",
"1 c #715F4E",
"2 c #675F53",
"3 c #6B5F51",
"4 c #705F50",
"5 c #71604F",
"6 c #6D6254",
"7 c #6E6659",
"8 c #6F685C",
"9 c #726455",
"0 c #776857",
"q c #726759",
"w c #746A5D",
"e c #796D5E",
"r c #756E61",
"t c #796F61",
"y c #767165",
"u c #7B7265",
"i c #777368",
"p c #7C7669",
"a c #7D796D",
"s c #7F7D71",
"d c #807566",
"f c #817768",
"g c #817A6D",
"h c #807F73",
"j c #848175",
"k c #888376",
"l c #868478",
"z c #898679",
"x c #8C897D",
"c c #8F8C81",
/* pixels */
"hsjshhhhhhhhhhhhhhhhhhhhhhhhhp00eeeetuttedtte050uhhhhhhjhhhhhhhhhhhhhhhhhhhhhhhh",
"hhhhhhhhhlhhhhhhlhhhhhhhhhhlsp07erteuutdeeut0050fhjhhhhhhhhhhhhhhhhhhhhhhhhhhhhh",
"hhhhhhhhhhhhhhhhhhhhhhhhhhhhspweuppdddut0dddd000ajjhhhhhhhhhhhhhhhhhhhhhhhhhhhhh",
"hhhhhhhhhhhhhhhhhhhhhhhhlhhhhgrufjjjjdtdddjjje0eahhhhhhhhhhhhhhhhhhhhhhhhhhhhhhh",
"hhhhhhhhhhhhhhhhhhhhhhhshhhhhaufjkkkjdd0djjkkdttahhhhhhhhhhhhhhhhhhhhhhhhhhhhhhh",
"hhhhhhhhhhhhhhhhhhhhhhsassissiuajzxkjddtejkkkjdeiiaappgshhhhhhhhhhhhhhhhhhhhhhhh",
"hhhhhhhhhhhhhhhhhhhhjhauiyyiiyuakkkkjduudkkkkje0wwrrrrusllhhhhhhhhhhhhhhhhhhhhhh",
"hhhhhhhhhhhhhhhhhhhhhhpe888yryupjkkjjgdujkxkkdd0997w8wrahhhhhlhhhhhhhhhhhhhhhhhh",
"hhhhhhhhhhhhhhhhapaassdw000ettudjkkkjggahzxxkje0997w77wasiyahhhhhhhhhhhhhhhhhhhh",
"hhhhhhhhhhhhhlhhrwrugguw00eedtedjkzzkjjjkzxxkkj000eew0rai85rhhhhhhhhhhhhhhhhhhhh",
"hhhhhhhhhhhhhhhsw5weuddewwtdddedkzxxxxxxzxxxzjfduuurewupi>*8shhhhhhhhhhhhhhhhhhh",
"hhhhhhhhhhhhhhhiw90eeduerutdddedkzxxxxxxxxxxxjgupppfuuupy2*7asashhhhhhhhhhhhhhhh",
"hhhhhhhhhhhhhsiieee0eetedfjjjuddkkxxxxxxxxxxxjpufjggffffe1:0parpsshhhhhhhhhhhhhh",
"hhhhhhhhhhhhhsisjdue0etdgjjjjjdjkkzxxxxxxxxxxjppgjkjkjjgu09wyrwrshhhhhhhhhhhhhhh",
"hhhhhhhhhhhhsisijjdterejjkjjjduujjkjkjkjklkzzhpysjlzkkjjdeeeeeweihhhhhhhhhhhhhhh",
"hhhhhhhhhhhsssssffappfdjjkkjfu00ujjuggaaggjkkgupsjkjkjjjjfdrwweeshhhhhhhhhhhhhhh",
"hhhhhhhhhhhggggfuuggjjjjjzkju9<3tpywrrwrruujjatyjjjjkkjjsjje0wtutdshhhhhhhhhhhhh",
"hhhhhhhhahhhgafutdgjjjkkkkjue1$;9wq6226669wuaiwedjjjkzjjjjju0eyutufhhhhhhhhhhhhh",
"hhhhhhhsighgppdddfhjllkkjgpr9,@@:<:;;;::::59w95qugjjjkjjsjgputttyufhhhhhhhhhhhhh",
"hhhhhsiiephapttughjjllkkspw73$@@#$$$##$$%%;<3<<5ruagjjjsjjjasuwrupasshhhhhlhhhhh",
"hhhhhhsiedgguuuujlllljjai862>$oo@$$$%%%;:%:,3,;<0uppsjjjjajgsuretpfggshhhhhhhhhh",
"hhhhhhiiupapuudajllljjat72>*$$$$;:;;:::565363,>:9eryypggjjjjjaptyuafgashhhhhhhhh",
"hhhhhhsidupuufhkjkzlhpw6>*+$$%%13659900wwee762,,5096qrpjjjjjjssutrdfauashhhhhhhh",
"hhhhhisiduuiugkzzzzlay7**++$%<19qwwweryyyuyr86<3976698rpaajjjjhgu0eduuupsshhhhhh",
"hhhhpwwee0wwugkzxxzjy6>****,<59qwrrwrypuiipy8867ww88768wujjjjjjad000tt0qwphhhhhh",
"hhhhw1<90960egkxccla7-+#*><697qwrrrwryiuiyyrrrrrwwwrw767qujkkkjaue090t0:<yhjhhhh",
"hhhhw<<90660ufhzxzgy<++*>3778r88rrwwriyyyrrrrryyyryyw7669isjjjjaut090t0::rshhhhh",
"ihhhp99wtwwtufghjgu6;#+><6798888888788yrrw798r8ywyyyy8769wiajjgffut0uue99ussshhh",
"iihhhipappppappipu6:$--<779w8762777677w8q966778ryyyyyy8767wyuddfggaaagfudafgfgsh",
"iihllhhhjasaapyyyw<$#-<689q7776622677788763698888wywyyyw766wudffghgjhgjghhgffghh",
"iishlhhhgshshappuw:+#>67www76666777877w88797888w8wwryyyy9639udfjgjjgjjjjkjjfffsh",
"iishlhhhgjgjhgagat,o-6778ww62277778rwwwrrw88ryyr888wttyiw<,0ajggghjjjjjjkkjfuash",
"tpgjjggggjgjhggjsr,#:6888r8622888wyyrw8yyrryiiiy878rrripr3:wshsjjsjjjgjkkkjfuahh",
"uagjggaafgjjjjhggr2-,8r8r8832688rryyyryyiyyyiipr868rryiir75wpssjjkkjjffsjjkjdfsh",
"upgjgaaufjjjghjgpe6,28r8r882,68yyyyiiyyiiyiyippr8q8rryipy88rufgjklkjgfdfjjjdffgf",
"upgjgauufgjjgjjgp0626ryrr88226yyiiiiiyiiiiiiyyirw8wryyiiirrrtdgjlzkkgfddjjjjdfjd",
"udgjgauufjkkjjjge06388yrrr8626yyiiipiiiiipipiiyyw8wrryyiyyretdhjzzkkadtd0kj0jjjj",
"udgjjgapagkkkkkgt93<8yyrrrr828ryppppiuupippiiiyyw8wrrryiyyrredjlkzzksudfjkjjj0j0",
"tdjzljggfjkkkkzgr9:28yyyyyr828yipppppuippppiiiiy87wrrryyyyrredjkkklksfdgjkkj0jjj",
"dajzljjggjkkzxzgr62<8yyyyyy828ypippppuppppppiipyw8wyyyyyyyr0edjllzzljggjjkkjkdjj",
"dpkzzzkjllkzzzzje9228yppiiyr88yippaaaiiipppipppiw8riiiryryyrethjzzzxzjkkzxzgdphh",
"dfkxxzzllzzzzzzgr5268rppapi88rypiaasaiaappppppaiwwriiiirrwwredsjkzzxxzxzxxzhppsh",
"dfkxxzzzzzljjjjge9128ypsapy88ryyipaaaaaiaiappaaprwrppiirw8q0etfgjgjkzzxzzxzgppsh",
"edkxxzzzzljjgfgur9:<8ypsaair8rypppapiaaaapaaapairrippiirw739eeddffdgjzzzlzlguphh",
"edjxxkkkjjgppupur03:8pasapyr8rypppppaaaaaaaaaapirruppiir83<9tttdtttufjjhhjhdtdsh",
"0wfjkfgfpuupffpppw668paaaapr8rypppppaaaaaaaaaaaiyrupppyr8330tduuduewtffpdfdrwysh",
"<6rutreew80ugggaapww8paasppr8rpppapaaaaaaasaaaairyuippyww98rdffffuw60w888rrq68sh",
";::666766::tgzjjsapuuyaassay8rpappaaaaaaaaaaaiiiyripppyww8rufsshgdw33976763:>8sh",
"#**><8886::wgjjjjjfdddpaaaarrrpppppppapppppppppyryuppurqwrpagjhgau066qw8q3:$$6ph",
"@@+$<rurw65qugjjjjjgssduupapuruuyyuuyippyurrrrruuuppueqqwuaggjjgywq0wypfr:+@+5pj",
"@XX+3psair8qwujjjjjjjjgurpaauuutyuyuyyypyy888rryuuupr0qqrahjhjja860rdsjjp,+X@6al",
"*;*-qphjauwq0rgjzjjljjgurupyuuuuyyuypyyyyrrr8rrtrrrur0wrysjjjhhu758ugjjji6$$-7ah",
"87888pagsau86wpjzzlllzjgpurrruupppppppppppyyryurewwrrdpfgjlljhpw338fjljpy887qrsh",
"apaiiyushapq5qugzzzlzzzjguwwwrpapppppppaapppuppyw00wugjjjllljgr6,,8ajjaw8yaaaahh",
"hhlhiwrahgpw<6rugjzllzzzjduwwruuppppppppppppuputwwwrajjzllljspq:;,wgjjp35ihhjhhh",
"hhlhr<9phhpw6<6qugjlzzxzjgdpurrtrrruuuuuuuyrtrrrudffjjzzzljsp8<:::wpjjr;;rhjhhhh",
"hhhs0:1uhguw6,:37uajzzzzkkjgpu000reteeeeeereewwrajjjlzzzzljpw6;$>28isaw$2ihlhhhh",
"hhhsw::rpppr85:,68pjzzzzkkkjgue0wrtduueuttrrrw8rajzzzzzzljar7:;;288yyr6$2shlhhhh",
"hhjsuq67wugpyr8765tgjzzzxkkjhpeeufggfdfffapauuruhjzxxxzzjpr7<33788ii83<62ihhhhhh",
"hhssspr3qrshaaur550pgjzzxkkkjgddgjjkkkgkgjgggaupjlzzxxzjgr9:::wwii88<*:8iihhhhhh",
"hhhhhhi83egjjjsu070rpgjjjkkkkgffkzxxxkkkjkjkjgpfjkkkljjar83:,7raiii2222ihhhhhhhh",
"hhhhlha8wrpgjljgut0w0tupgjgkkgdfjkzzxkkkjklkjgpfjkkgapuw73337ragii22*2ishhhhhhhh",
"hhhhhhsaprrpjjjhhgr0090wddfkkkffkkzzkjkjkkkzjgfgjjgfr862::5qwagji82*28hhhhhhhhhh",
"hhhhhhsjarrugjjjljpw75500eddggffkkzkkjjgkjkzjgfdffde76,,<:9waggai2228ihhhhhhhhhh",
"hhhhhhlhsiiiiishhlhse89959990edgkxxzkkjggkzzkgdee965553370wyspir6,<6ysjhhhhhhhhh",
"hhhhhhhhhss828shllhspuw51::::5dgkxxzzkgpgjxzzgde:$$:<68ryyuaayr3--7iashhhhhhhhhh",
"hhhhhhhhhhsi28iihhhhsau01::$$1ekkxxxzkgdgkzzkgd0;#$;19ypaappp86>*$8slhhhhhhhhhhh",
"hhhhhhhhhssii228iishgsaue91::0dfzxxxzzkggkzzkjde:;:qwdfhhayr8<**>7phhhhhhhhhhhhh",
"lhhhhhhhhhhhi2*228iishjgaptw0tdgkxxxkkkjkkzzkkde55wdggjjhuw9,*+*8ihhhhhhhhhhhhhh",
"hhhhhhhhhhhhh222228iishjggppuudgkzxxzkkkkkkkkgde00dhjjjgpw65>&X*yhhhhhhhhhhhhhhh",
"hhhhhhhhhhhhhi2228228yiaagapudddjkkkkjjgggjkkgd000tgfuee7>;,6222ihlhhhhhhhhhhlhh",
"hhhhhhhhhhhhhsisii2>2288ypututtfgjkjjdasggggkde096wyyw5:-@@3riiishhhhhhhhhhhhhhh",
"hhhhhhhhhhhhlhhhhp2;-222688ww0ersssiaiyiiypshp03:1996,-$&X@6shhhhhhhhhhhhhhhhhhh",
"hhhhhhhhhhhhhhhljs82276>;323135qiiyyrrrrrrryuw3:$$;:$+*>>;:8hlhhhhhhhhhhhhhhhhhh",
"hhhhhhhhhhhhhhhhjhprii8$@&**$$:688888888887886>#@.@@..#7rrrphhhhhhhshhhhhhhhhhhh",
"hhhhhhhhhhhhhhhhhhhshs8+.+&@##$:2882222222222;*@@@.@..$yshshhhhhhhhhhhhhhhhhhhhh",
"hhhhhhhhhhhhhhhhhhhhlhi2->,,,-$**2**>>>*>>>>*&++$;:;$$3pjhhlhhhhhhhhhhhhhhhhhhhh",
"hhhhhhhhhhhhhhhhhhhhhhsy8rry83$+&&*&&&*&*+&&&++*3wr8w8islhhhhhhhhhhhhhhhhhhhhhhh",
"hhhhhhhhhhhhhhhhhhhhhhhhsssha8$XO&+O+++++++++XX>rshsssshhhhhhhhhhhhhhhhhhhhhhhhh",
"hhhhhhhhhlhhhhhhhhhhhhhhlhhlh8+XXOOXXX+X+XXXXXX,yjljjjhhhhhhhhhhhhhhhhhhhhhhhhhh"
};
