/* XPM */
static char *floor[] = {
/* columns rows colors chars-per-pixel */
"80 80 73 1 ",
"  c #6F711F",
". c #71741D",
"X c #6D6F26",
"o c #6D6D2C",
"O c #6F7123",
"+ c #6F702A",
"@ c #727422",
"# c #74752C",
"$ c #76782E",
"% c #676636",
"& c #686736",
"* c #6D6D34",
"= c #66643C",
"- c #68673A",
"; c #6B6B3C",
": c #6F7034",
"> c #737433",
", c #777933",
"< c #787A36",
"1 c #72733B",
"2 c #77793D",
"3 c #797A3C",
"4 c #666345",
"5 c #696744",
"6 c #6C6A44",
"7 c #65614D",
"8 c #69664B",
"9 c #6D6B4B",
"0 c #706F4B",
"q c #737341",
"w c #777844",
"e c #797B45",
"r c #75744C",
"t c #77784B",
"y c #7B7C4C",
"u c #676350",
"i c #6A6653",
"p c #6C6953",
"a c #6E6C5A",
"s c #706E57",
"d c #706D5F",
"f c #757454",
"g c #7B7C53",
"h c #75735C",
"j c #78765F",
"k c #7D7E5D",
"l c #716E60",
"z c #757364",
"x c #787665",
"c c #7D7D64",
"v c #777568",
"b c #79776A",
"n c #7D7C6D",
"m c #7E7D72",
"M c #807F6E",
"N c #807F74",
"B c #7F804F",
"V c #7F8050",
"C c #7F805D",
"Z c #7F8063",
"A c #7F8069",
"S c #818154",
"D c #80815E",
"F c #818165",
"G c #82826B",
"H c #88876E",
"J c #838275",
"K c #888774",
"L c #898875",
"P c #868579",
"I c #88877B",
"U c #8A897D",
"Y c #8C8A81",
/* pixels */
"$<yFGIIPPPPIIIUIPPIULGZKUYYYYYYPJAVB#@@@...@<VCCZAAANNPNPPPNNmmmNNNNNNNmmAAAAli7",
"<3SFHPIPPPPPIIIIIPIIKHZKUYUYYYUPKACB,#@@@@@$BVCZAANNNNNNPNPNNmmmNNNNNNNNmmAmmlai",
"SSDHPPPPPPILKKIPPPKKKGKIUUKKLUUPPKJCB,$@.@,wBCCAmmNNNAAAmNPNmmmmmNNNNNNNmAAmAlCC",
"HHKPPPPPPIIIHKLPPPPHHPPIYLGAJIPPUUUHCB$..$wCCCZAANNPPNAAmANmmbmmmmNNNNNNmmmmAAZA",
"LLIIIPPPPIILHHKPPPPKPPPIULGFHHKPUYYPC2#..$BCZZAAANNPNmAAAAmmmmmbmmNNNNNNmmAAANNP",
"YUUIIPPPPIILKHKPPPPPPPPIIUHGFAAKUYUACB#.@$wCZZZAAAPNNNNNAAbmmmmmmNmNNNNNAAAANPYY",
"YYYIPPPPPIIIKKPPPPIPPPPIIKKKGGKUUYPHC2#@@$BCAAAAAAPPNPPPAAmmmmmmNNNNNNNNNAAANPYY",
"YYYUIPPPPPIILPPPPIIPPIIIIIIKLUUUYIPACB$@#,eCHUYAPNPNNNNNAAmNNmmmNNNNNNNPNAAANPYY",
"YYYIIIPPPIIIIIPPIIIPPIUIIUPPIYYYIAYADB$.$<BSPYYPNAAANNNNPNNNNmmNNNNmNNNPNAmmmPYY",
"YYIIPPPPIIIPPIIIPIPPPPPPPPPYIYUYYIIPD3$..$BCAYYANAAAmNNNNNNNNNNNNmmmNPPNNmmmNNYY",
"UUUIIPPLIPPPPPIIPPPPPPPPPPUPPYIIIIILHS$@@#BVPYYPNAAbmmNNNmmNmNNNmmmmPPNmmNNNNPYY",
"YYYIIPPKLPPPPPIIIPPPPPPPPPPPPPKKPUILHS$..#wCAPYPNAmmmmmNNPNAmmNmAAAmNPPmmmmmNPPY",
"YYYUIIPKHKPPPPIIPPPPPPPPPPPPPPKHLLUKHB$.@$wZAUYANNNNmmmmNPPNmmmmAAAPPPNmmmmmNPPP",
"YYYUIPPKKLPPIPLIIPIPPIPPPPIPPPPHKUULFB$..$wCAHPANNNNmmmmNPPNmmmmAAmNANNmmmmmNNPY",
"YYYUIIPIPPPPILLKLIIIUIPPPIUPKPPPPIULHB$..$BVZZAANmNNmmmNNPNNmmvmAmPPAAAmmmmmNPYY",
"YYYUIPPIIIPPIPKKLIIIIIYIPPPIPPPPPIPLFB$.@$BCAAHANNNmmmmNNPPAmmmvAAPYAAAmmmmmmPYY",
"UYUUUPPIIIPPPIPPPPLKKLIPPPPIPPPPPILLAB,@$<BZYAYANNNmmmmmmAPNNNmmmmPPNmmmmmmmNPYY",
"UUUUUIPIIPPPPPPPPPPHHLIIPPPPPPPPIUULHB$@@<VHAYAANNNmmmmmNPPNNNmmmPPNNmmmmmmmNPYY",
"YYYUIPPIPPPPPPPPPPPKKKLLIPPPPPPPIULUHB,O$$BZAAAAmmNNmmmANNNNmmmmmmmPNNmmmmmNNPYP",
"YYYUIPPPPPPPPPPPPPPILKKLIUPPPPPPIILLFB,OO,BAAAAAAmNNmmmbANNNmmmmmPmmNmmmmmmmmPNP",
"YYYUIIPPPPPPPPPPPPPIPLLPIPPPPPPPIIILHB,O+>BAAAAAAANNNmmAmNmmmmmmmmmmNmmmmmmNPNPP",
"YYYUIIPPPPPPPPPPPPPPPIIPPPPPPPPPIILIAB$++2CAUAYPPPNNmmmAmmNmmmmmmmmmNNNmmmmmmPPP",
"YYYIIIPPPPPPPPPPPPPIPIIPPPPPPPPPIIUKZB>O+>VAUYUPNPANmmmAmNmmmmmmmmAAmNNmmmmmPPPP",
"UYYIIIIPPIIIPPIIPPPIIIPIIPPPPPPPIYUACB#@@>BAAUYINNNNmmmAANmmmmmmmmAANNmmmmPNPPYY",
"UUUIIIIINIIIPPIIIPPIPPPIIIPPPPIPIYLHZB@.@#BCAAYYNAAmmmmNNNNmmmmmmAAAANNmmmPPPYYY",
"UUYIUIIIIIIIIIIPPPPKKKPIIIPPPIIIIIUPAB$..$BZAAAAPAAAmmNNNNNNmmmmANNPNNmmmNNAAAPP",
"UYIUIIIPPPNYIIIIPPKHHPPPIIPPIIIIIIULHB$@O$rAAAAYPAAmmmNNNNNNNNmmmNPPPNNmmNAAAAPP",
"UUUUUUIIPIINIIIIIPPLKPPPPIPPPIPLIYILFB$@O>rZAAAAPNAmmmNNPNPNNmmmNNPPNNNmNNNAAPPY",
"UUUUUULPPPPPPIUYIPPPPPPPPPPPPPPPLUULHB@.O,BCAAAANNmmmmmNPNPNNmmmNPPPPNNNNNNNPPYY",
"YYYUULKKPPPIPPLLPIKKGPPKPLILPKKKLULLHB$.O>BCZAANNmmmmmmNNPPNNNmmAANNmANNNmmNAPYY",
"YYYULLKHKPLIUPGFKPKGGKPKHKIUKHHHKIULHS$@O>BCZZAANNNmmmmNNPPNNNmmAANNAAANmmAAAAYY",
"UUUULLHKKLUUUPHMKPPGGLPPKLUULKHLKULHDB$.O>wCAAANPNNNNmNNPPPNNNmmAAANAAANPNmAAAYY",
"HKUIUUUIPYYYYYIAIYYYYAYYYYYYYYUUUUIHCw#@@#BCAIIAYIAPANPPPPNNNNNmAAANNPNNPPNAZAAP",
"FHKIUUUUYYYYYYYYYYYYYYYYYYYYYYYYUKJZV2#@@$qCALUUAYPPPNPPPPPPNNmmAAAPNPPPPPPAAZAm",
"gjnPUUYYYYYYYYYYYYYYYYYYYYYYYYYYUJZgr1# @O1fZAAUPPPPYPPYPYPNNNmANNAAPPPPPPPACZaC",
"9rxAPLIIPPYAYAIAYAYAYYYAYAYYAYYAJACr;:OOO+:6rVZAPNNAAPAANNANNNANNmmAAAmmANPAZCu7",
"&;rhhjxxvxxjzjjzzzxAAAvAAAAvAAZZgfr1:OOO@O+*1qrfzzzhzjzjzzhhllhzCZaCaCaCAZCBi55%",
"o*&5556ui8865565uii909ppsp9is08896;:O . ...O+*q68755565665667555554444=5475=5%oo",
"XXo%%%=986=&%%%%4756;65;5;456;;;&*+O.......@O:*;&==&;;%=;=&&&&%%%%%%%%%%%%%%%ooX",
"  Xoo:1tf0;&***;556;::*::;55;:**::O........O+11:**:;***;*::o****&****oo%%%%%%Xoo",
"  +>>1wVCe01111q6901,11,;q95;1*:>>#+O .....O+2q111111q;q1111111q5B%;11%***;;*o++",
"O@>tyggCCCfBfBfVggfBBeeBVCVCBBBByye>O ......>wBrrBfffffsrrrfffffaaBiCBB6BBB66;*+",
"+>tVCCZCCZZZZCZZAAZCVCCCAAAACCVVCCVw:O.....@$BCjjCZxzvzzzhjzzzczlAAldlACVCCiC5&*",
"qwgCZZZZZZZZZZAAAAAZCCZZAAAAZCCZZZZgt<@..@@$BVCxbZZZvvmbccCcZcZnAlAAAAAZCCZCpCCp",
"VVCZZZZCAZZZAAANAPAAZZZANPPNAZAAZAAAZw$..@>BBBZnAAAbbbmbncZZZkZnbmAAAAvAZlAZAlAl",
"HGHJGAZZAAAAAANNPPYAAAAANNPNAAZAAIPJAB#@.$2BVBZmAAAAbbbnAAZccccnmAAAbmAAAAlAAAAl",
"UUIUYAAAAAANANNNPPYPPNAANNNmAbAAGIIPAt>@@>BVZZZAAmAmmbnbnnnvbzzbbmAAAbmAmbAAmAAA",
"YYYPPPAAAAPPPNNNNNAPAPAPNNmNmAAAHKIJAg#@@>wCZZAAmmmmmbmmnnnnbvvnAAAAmmmmbmbAmAAA",
"IIJGAPAAAAPNmNNmmAAAAANNNNNmNNPPAAAACB#@O:BZAAAAmmmmbAmmvmvmmmbmmmmmmmmmmmbmNNPY",
"PPGAAPYAAANNmNNmAAAAAANNNNNNNNNPUAAACB#@OoqCAmmAmmmmmbmvbvvmmmmmmmmmmmmmbmbmmPYY",
"YIJAmNPNANNNNNNNAAbAAmNmAANNNNNNAAAACB#@O#0CAAAbmmmmAmmmbvAAmmmbbbbmAmmmmbbmmNPP",
"YYPANNNPYANNNNNNmmmmmmAAAANNNNNNAYAAC1#@@#BZAAAAvvmmbmbbAZAAmmmbvvmmbmbmbbbbmNNN",
"PPPNNNNPAAAANNNmAmAmNmNmAAmNNNNNYPPAA0#.@#BBCACAmmmbmbbmAbmmmmmbvvmmmmbmmbbmmmmN",
"AAPPPNNNPAAAmmmmAAAmNNNNNNNNNNNNAPNPAB>.@#BBCAAvmvmvmmmmbmmmmmmbvvmmAbmmbmbmmmmm",
"PNPNNNNNmAAmAmmmAAANNNNNNNNNNNNNNNPNAB#OO+2VAAAbvmmmbmmvAAmmmmmmvvbmbmmbmbmmmmmm",
"YNNPNNNNNNAAAnmmmmPPPNNNNNNmNNNPNPPACB>XXoBCAAmbvvmmAmmmmmmmmmmmmmvbbmbvvmmmmmmm",
"PPPNmAAAAPNmmAANNNNPNNNNNNmANNNNPPPAA0:X+:BCAAmbbbmmmmmmmmmmmmmmmbvvbmmvvmmmmmNA",
"YPPNAAAAmmPAAANNNNNPPNNNmAAAANNNNPPPAC>+*;rCAAAbbbmmvbbbmmmbvbmmmmmmmmbvvmmmNNNN",
"YYPPmAvZnAANNNNNNNNNNNNNmmAAmNNNNPPPAB#+*;0ZAAmAAAmbvvbbmbmvbbmmmmmmmmvvvmmNNNNN",
"YPPAmAmmAmmmNNNNNNPNNNPNAAAANNNNANAAZB,#+;rCAAmAAAmmmbbbmmmbbmbbAAmmmmmbbmmNPNPN",
"PPNNNmmmmmmmNNNmNNNNNPPAAAAANNmmAAAAZB>#+,BCbmmmAmmmmmmmmAmmmbvbAAAmmmAbmmmmPPPP",
"YPPNmmmmmmNNNNmmNNNNPNPmAbmmmNmmAZAAZV>+O#wZAmmmmmmmmmbmmbbmmmbbvAvAmmmAAbAmAAPY",
"YPPNmmmmmmNNmmmmNNNPPNNNmmmmmmAPAAAAAC1OO$rvmmmmmmmmbbbmbbbmmmmbbvvvvmAAAvvbAPPY",
"YYYNNNmmNNNNmmmmNNNNPNAmmmmmNNPAAAAAAV>OO>rvbbAmmmmbbbmmmbbbmmmmbvvvmmAAAvvAAAPY",
"PPPPNmNmNNNNNNNNNmNNNAAANNmmmNNPAYULZB$O.#BCAZAZAAmbmmmmAbAAbAmmvmvmmmmAbvvvAAPY",
"YPPPPNNNNNNNNNNNNNNNAAAANNNNNNPPIUUAVB#..#BCZZCZZvmmAmbmAAvvvbmmmmmmmbmmmbvAAANP",
"YPPNPmNNNNNAAAANmmNNAmmmNNNNmmPYULAHCBOO.#BBZZAbvAmmmmbmmbbmmbbmvmmmmbmmmbmbAANP",
"YYPmmmmPNNmmAAANNmPNmmmNNNNNmmPYLHAACBO.O#qCZZAbvAmmmmbvbmmmmvvvvvmmbvvmmmmmAmNN",
"YPPNmmNNANNmmmANNNNNNNNNNNNNNNYYIHAAZe+XO,BCZAAmvbmmmmbbmmmmmbmbmbAbbbmmmbmmmmmA",
"PYNNmmmNmmNmmNNNNNNNNPPPmNPPPmNNIULACe>X>>rCAAAbvvmmmmmmmmmmmmmmmmvbmmmmmbvbmmmb",
"PPNNNmNmmmmmmmmNNNNNNNNNANAPNNNPPPAAZw>+o1BZAYAmbmmmmbmmmbbmmmmNmbbbvmmmmbbvAmAA",
"PPPNNNNNmmmmmmmmNmNNNmAANNAmNNNmKAAACw$Oo1rCAAPNbmmmvvmmmbbmmmmmmAAbvvvmmmAAAAZA",
"PPNNNNPNNNNNNNNmNNNAAAAANAAAANNNAAAAZt#@+1tCAAAAmmmmvbmmbbbmNNmNmAAAbbbmmmmAAAvZ",
"NNNmNNPNPNNPPAPPPPPPPAAANPNAPPPPPPAACB#. +wCAAAAAmmmmmmmmmmNNNNNNmbmbmmmmmmmAAvA",
"bmmmPPPPPPPPAYYAPPPPPAAAPNNNNPPPPAAAgqO..@2BZZZZAAmmmNNNNNmmNNNAmNmmmmmmmmmmAvAl",
"llvmANPPPPPPKPAYPNPPYAAAPPPNNPPNAAAzaqO@.@:0fkZAAAAANNNNNNmAANNAAAmmmmmmmmmmAlaa",
"uahZAAAANNAAAAAPNmNNANAmmNmmNNNNAAxs5;+..@o-9CZAmbZAAAAmNmAAAAAAAAAAAmmmmmmbll77",
"7u0hzzzzvbvvzzzbbvvmvvmvvlvvvvvvzzf6=&X.. X&;rhhzzddzllllvlllllllllllvvlllllli74",
"464piiiaaaiiaiaiaiiiidaaaiauiiiaii8;*X... OX&6uiiiiuiuiuiuiiiiiuiiiiiuiuiiiuu77=",
";=4777u7u77777777uuuuiii77u7u777774&o@....@O*=47uu777777u7uuu777777777u77u77774="
};
