/* XPM */
static char *gwall[] = {
/* columns rows colors chars-per-pixel */
"80 80 14 1 ",
"  c #3E671F",
". c #3E681F",
"X c #3E691F",
"o c #3F6D1E",
"O c #406E1E",
"+ c #41731D",
"@ c #40701E",
"# c #42761D",
"$ c #42771D",
"% c #43791C",
"& c #437A1C",
"* c #447A1C",
"= c #447C1C",
"- c #447D1C",
/* pixels */
"================================================================================",
"=======================*=================*===========*=======================*==",
"===&&&&*=*&&**==****=***&&==&*&&=*****==****=&&&&&==****=&&&&&==&*&==*&=$&==$&==",
"=*&$$$$&*$$$$$$$$$$$*$$$$$$&$$$&*$$$$$$$$$$$*&$$$$$$$$$$*&$$$$$$&@&@&$&@&&$&&&$@",
"=&$@@@@@@@$@@@@$@$@@@@$@@@@$@@@@@@O&@@$@@@$@@@$@@@@$@@@$&@@@@@$@$O@$@@$@@@$@$O@$",
"=&$OOOOOOooOOOOOOOOOOOOOO@O@OOOOOOO@OOOOOOOOOOOOO@O@OOO@OOOOOOOOooOOOooooooooooo",
"=&@....o.o.O......O...........o...........O...............o......o...O....o..o..",
"=&@...................  ......................  ...................... .........",
"*&@.                       .........               .    .                    ...",
"=&@.     .            ..   ...........      ..     .                        ....",
"=&@.  ..................  ...................... ...............................",
"=&@.  ..................... ............. ............... ......................",
"=&O. ...........................................................................",
"=&@. ........................................... ...............................",
"=&@. ...........................................................................",
"=*@. ...........................................................................",
"=*@.............................................................................",
"=&@.............................................................................",
"=&@.............................................................................",
"=&@. ...........................................................................",
"=&@. ...........................................................................",
"=*@. ...........................................................................",
"=*@. ...........................................................................",
"=&@. ...........................................................................",
"=&@. ...........................o...............................................",
"=&@. ...........................................................................",
"=&@. ...........................................................................",
"=*@.............................................................................",
"=&@..............................................................o..............",
"=&@.............................................................................",
"=&O.............................................................................",
"=&@.............................................................................",
"=&@.............................................................................",
"=&@.............................................................................",
"=&@. ...........................................................................",
"=&@. ...........................................................................",
"=&o.............................................................................",
"=&@.............................................................................",
"=&@.............................................................................",
"=&@.............................................................................",
"==@.............................................................................",
"=&@.............................................................................",
"=&@.............................................................................",
"=&@.............................................................................",
"=&@. ...........o...............................................................",
"=&@. ...........................................................................",
"=&@. .........................................................o.................",
"=&@. ...........................................................................",
"=&o. ...........................................................................",
"=&@. ...........................................................................",
"=*@.............................................................................",
"=*@.............................................................................",
"=*@.............................................................................",
"=*@.............................................................................",
"=*@.............................................................................",
"=*@.............................................................................",
"=&@. ...........................................................................",
"=&@. ...........................................................................",
"=&@. ...........................................................................",
"=&@. ...........................................................................",
"=&o. ...........................................................................",
"=&@. ...........................................................................",
"=*@. ...........................................................................",
"=*@..................o..........................................................",
"=*@.............................................................................",
"=*@.............................................................................",
"=*@.............................................................................",
"=*@.............................................................................",
"=&@.............................................................................",
"=&@.............................................................................",
"=&@.        .....                     .                .    ....      .       . ",
"=&o           ..                       .                      ..              ..",
"=&o............................................. ...............................",
"=&@...o..o....o..o...o......o.o..o.o..O..O...o......o...o...o........o.o..o....o",
"*&$ooooooOooO@oooo@Ooo@ooooo@Ooooooooo@OooO@ooo@oO@o.Oooo@@ooooooo@ooooO@oooo@@O",
"=&$$@@$@$@O$@@@@@$@@O$@@$O@$@@@@@@$@$O@@O$@@O$@O$@O$$O$@@O$@$@@O@$@@@@$@@O$@O$@@",
"==&$$$$$&$&$$$&$&@=$&&@$@&$=&$&@$&@$&$$=&$&@&$&$@*&@=$@=&$@=$&$&$&@&&$@&&@$&&@@&",
"===&&&&=&&&=&&&=&&&&===&=&&=****===&&&*=&&*&==&&***=&&==&&==&&&=&&==&&==*===&===",
"========&===&=====*=================&=======================*===================",
"================================================================================"
};
