/* XPM */
static char *wall[] = {
/* columns rows colors chars-per-pixel */
"80 80 29 1 ",
"  c #5A4B3E",
". c #5B4E42",
"X c #5D5146",
"o c #5E5449",
"O c #604F41",
"+ c #615246",
"@ c #61564B",
"# c #63594F",
"$ c #685B4E",
"% c #655D54",
"& c #685E54",
"* c #665F58",
"= c #676057",
"- c #6A6156",
"; c #676058",
": c #6A645B",
"> c #6E685E",
", c #716456",
"< c #716759",
"1 c #726A5E",
"2 c #786D5F",
"3 c #6E6960",
"4 c #736D62",
"5 c #796F61",
"6 c #767066",
"7 c #797164",
"8 c #767168",
"9 c #7A756B",
"0 c #7C786E",
/* pixels */
"555255552,,$,22255555555555211222255555255557775222222777255752256641<1255555555",
"552757552,$,,22555555555555544242755555555577777222125577755752257544<<255777772",
"577777772,,,,25577755777575545457727575775687777222127777777772577661<<275777755",
"777777772,,,257777757777777545447777777778889997672277788777777577741<2577997977",
"7999979971<1279999999808075945597799997988080800877269999999999999962<1799970797",
"9999999072<1799989900000009959499999999908000008997279099099999999751<1900000099",
"9909000091>2999909000000000999999099999080800000997779000000000009751<1700000099",
"9999999984>6899898080000079844458999999908000888967279999999999999851,1699990999",
"888888886>:1688888888888888445447886888888888888644438887688888888363<>488888888",
"338383881:->44333338833344433333>4333383388383333><33383443338838333<:<133833833",
"33333333>-&:3333333333333333<<3:>3>>3333333333:3>:::333333>333333333><::3333333:",
"33:33::>:-$=:3::3*333333333:<*<*::>:3:3::3:3:3:3--=::::3>:::;::::3:3:--:;:::333:",
"::3:>>:3:%=;:::333*33::3:3::<**<:::::::33;3;3;;;==--;:::3::;:::::3::::=;::3;;3;:",
":3:::::::%$;:33;*33**:3::::***-*;:;:;3:3;33;;33:=&==;:::;;33::;3:>3::==;:;;33;::",
";33:>:>:;%o;;3;33**33*3::::*&&&*:3::::::3;33;:3;=%&&::;3:3::3::3>:::===;;;:3:3::",
"3:::::::-%%*;3;;3*33*3:::::*&*&&;:::::::;3;;::;;%%%&;::;;;::;:::::::===;:;3;:3::",
";;::::::-%$&-:::::::::::::**%%%%=:==::::;;;;****##%%===:=:::::::::::=%#==:::::::",
"3;;;:;:;=oo&-::-:::;;:;::***%#@%==:=====;3;;****oo@#===:=:::-::=:::=%%%%===:-::=",
";*;;;;;:%$o$=-=;===;;;;;****@@@%&====:==;;*****oooo$#======-=-=-====%#%%&==:====",
"**;===;;%$o#===========;%**#@+@@$$======;;****oo   #$%=&&&==========#o#%%=======",
"$%%%%%%%#oo#%*%#%&%$$#&#*%##oooo#$$$%%%=;=%%*ooo  +$@$&$$%%%=%%%==##ooo%#%$&$&$$",
"o#o#o#@#ooXooooo#@@#####oooo.ooooo@@oooo%oooooooo  ooo@$#@@#o#$o##o#oooo@@o$$o$$",
"ooooooooo...oo..XX+@XXXXooo.....++oooo.oooooooo.   o oooXXoooooooooooX..oooo oo$",
"   X  .X.. ...   . XXX X..........  ......oo..o.ooo        X  XXo X X  .     o  ",
"    . ...         X ...    .......       .   .o.o...        ........   .        ",
"   X . ... .      .... . . ......            ..ooo..    X    ........ ..       X",
".. X..XX....   .........   .....X.      ......oo.oo.   .  ..............      .X",
"X..X..Xoo....  ...XXo..o....o.ooX.   X  o..o.o.ooo..  ..XX.Xo.XX.o.o...o     X..",
"Xoooooooo.oooo...ooooooooooooooooo.  Xoooooooooooooo....oooooooooooooooo.... .oo",
"ooooooo#oooooo..oooooooooooooooooo. Xoooooooooooooooo..oooooooooooooooooX...Xooo",
"oo#ooo%oooooooo.o@@o#oooooo*oooo#oX oo#oo**oooo*ooooooooooo#ooooooooooo#ooXXoooo",
"%%#%%oo%*#*ooooo@@%o#%%#o**o*o**%#o.o#%%o*oo*ooo**oooooo####%###%o%%o%###ooooo*#",
"%%%%%%%%%%#%#@oo###@#%%#%%%&%%&&=#ooo%%%%%%##%%%%%o$#o@##%%%%##%%#=o=#o%%oo%o%%#",
"&%&%%o%&%%%%#####%%%%%%$#%&&&&&&==%o%%=#==%%o%%%%%%%#o###%&%#%%%#%#=%=%%%oo##%**",
"%==%=%%%*%%%%###%*%%%&%%%%*-****=$#o#====-=%%%===%%%##@&%&&%&%%&%%%*=%%%%%=%%%==",
"===%=%%*=%*%%#%%%%&&**&%%&*****:==#%=======%%%====%%%%%%%&&&%%%&==========o%*===",
"====%*&&===%&%%%*;*%**&%%&***:**;*%%=;;;;;:%%%**--=$&%%%====&%%%=======*=o%%==;3",
"==%&&%**;;==*%****;;**&%%%:::*::;**==;;;;;:=%%**:-===%;%===;=*%*=;===;;*==%%==;;",
"===&&*==;===&***;;;;**%%%**:::::;*;=;::;;;;%%%**;-==*=%%===;==%%=;;=;-;*=%%==;;:",
"=%*&&&%=;===&&*;;;;=**%#%*:**:*:;*;;;;:;;;**%%**;:-=%=;*=====%%%%==;=;;*==%=**:;",
"=%%%@%%=====%-**;;*%%=%#*************==;;**%%%**==******=====%%%%*%****%*%%**3;*",
"=%*@%%%====%&%&*;%**=%%%#*****:*******==**%%%%**=*****%*%====$=o%*%****%%*%**;;*",
"%%&%#%%==%&%%&%%***%%=%#%%*******=*%***=**%##%*********%=====%%##%%*%%%%%%*%****",
"=&%@oo%%=*%%%%%%%**%%%%%#%********%%***=%%#%#%%*******%*%===%%=o%%%%%%%%%%%%****",
"===#=o==*%%%%%%%%%*&=%%##*******%%%%==*%=%%#%%%*****%*%%%===%%o%%%o%##%%%%%%%%**",
"%=o=#=#=*%%%###@%*&=%&%%%%%*****%%%%%===*#####%*****%%%%%%%=%%#%%%#oo##%%%%%%***",
"%%=oo===*%%#####%%%%&&%##%%*****%%%o%==%%%@%%%%*****%%%%=%=%%=#%###o##%@@##%%%**",
"%%o==o=%*%%%%#o#&%=%*=%%%%%*****%%%%%===%%%##%%*****%%%%%==%%=o%*###o#o%%%#%%%%*",
"%%#=%*==%=%%%o%o%%***%%%%%******%%%%%***%%%%%%******%#%%*%=%=%%%o*o#o%%%%@%%%**%",
"==%%%**==**%o%%%%**%***%***********%******%%%%*******%%***=%=%%%***oo#@%%%%%%%%%",
"*****==***=%%%o%%****************%*%*******%%********##****=*%#=*#%*%o*%%%*%****",
"*****==***%%%%o%%*%%**%****%******%%%%******%%*******#%%*****==#**%o#%%%%%%%%%%*",
"%*%*%*****%%o%o%%**%%*%*%****%*%%%###***%*%%%%%%***%%o#*%*%==%%%*#*%##*%%%%%%%**",
"*%=%%%%*%*%%%ooo#%%%%*#*%%%*%%%*%%@o#**#%%*%%%%%%%*%%o#*%%%%%%%%%*##%###%@o%o%%*",
"*%%##%%%%%%%#%o%%*#*%#%#%%%%%%%%%#ooo%%%%%%%%%%%%%%%%#oo%%%%%%%%*#%#%##%##oo%%*%",
"==%##%#%*%%*ooooo#*%*##%%%*%%%%###oXo#%%#%%%%#%%%#%%o#%%#%%%%%%o##%%#%%##oo%o*%%",
"=%%%$#%%%#%%o%oo#**%%###%%*%%%%**#ooo#**%%%%%#%%%%%%@##%%%%%%%o%*#%#%%#%##o@@&&&",
"=%%%%%%%**%%%oo%#%*%%*%%#%*%%%%#*#@o#*#*%%%%#%%%%*%*&%@%%%%*%%#%o%%**%%%%#@@%&**",
"==%%%%%%%%*%%%*%%%***%%#%%****%**###o***%%%##%%%***%&%@%%%*%%%%#*#o%**%%%%%%%&-<",
"==%%%%%%***%%%%%*******%%***%******#*******%##**%*%%&%&*******%#o%***%***%%%&&*:",
"=%%%%=%%%===%%%%********#*****%****%*****%%#o#%*****&&&%******###***%**%*%*%$&**",
"%%%%%=%%%===**%%**#***###*%%***%%%%*#*#**%#@oo###*%%%&&&%%***######***%%%%%%%%&&",
"%%##%o#%%%==%%%%*##**#*##%#%%%%%%%%%*#*#%%#ooXo####*%&%%#**#*####%#%%%%%%%%%%%%$",
"%%##%o##%%%%%%%o#*##*#####%##%#%#%%%#*#%%%#o..Xo##%#%%#%%##*#%####%%%%%%%@%%%#%#",
"o%o%oo%#$%&%$%##%#%##%#####%#%%$$%$$$%%%###+  XX@#&#&#&#$%#$%#####%$%%#%$%$$%@@%",
"%%%o%%#%%&=%%$%$%##=#%%####$%#$%%&%&#%%&%%#@+ X+@&#&$&#&%%%%%$$#%%%%%%%#%&%%%%%%",
"%%%%%%%%&&=&&&&&%%===$=$=%=%%$#=&&&&%&&&&&&@+++@#&&&&&&&%%%%%&%$%%%:&&%%&&&&&%&%",
"%===%=%=&:&&=&:&&&==&&&&%&=$=%$%&*&&&&&&--&#$@@#&&%---=%*&&:&&&%%%*-&&%%*-*&&&&&",
"======&:=:&&::=:=::=::-$&&:&%$$&&:***::*;:&&&$#%&;:&-::-**::-&:&&:::-:&:*<*-<***",
">=>>:::<>:<::<<><:<::<::::<=$=&&:<1<<:<:<:::-&&&:<::::::*:><<<::<:>><-::*<3<<<3<",
">>333><>1<><<314>>>>>3><<<<=%&&::311134111411<::11>>111133114><><>>3><<<33343344",
"3>44131211>1444444444221>11&$$$<144144444444411143114144166485444344>11144344544",
"444664445441446644664744442&$$$<444544584666644444415558488887758844515444454888",
"44442445411444744444447441<$o$&<44544644477644444131354474488754444435<454484544",
"11111>11<<,>>11133<3111<<<,$+$$,<11111111211>><<<<<<<553444444<5344:,-,531113544",
"::-,-<:-,&$&<=<,::<=:::=--&o+ o$&,---::,--&<::,-&&&&&-------:<-----&&$$--&,*<-**",
"&&$$$&&$$@$$$$$$&$&$$$$$$$$O O+$#$$$$$%$&$$&$$$$$$$@$$%%$$%%&%%#$$##@+@$&$$$$&&%",
"#$$$$$$@@ O+$$@@o@oo@@o#$++O OOO++@@#@@@o@@@@$o@@++O+@@@@+@@#@@+@@@++OO+@@+$+@@@",
"##o@o$o$+OO+@@o@@@o+oooo @OO  OO++@XX++@++ ++ ++++OOO++++++++@++++++O  +++@++@++",
"ooooo@o  OO+oo @ @@ oo o++O   OO+XX@XXooo@ +++ @OOO.O++++O++++++O++OO  O+++OO+++"
};
