/* XPM */
static char *idle01[] = {
/* columns rows colors chars-per-pixel */
"80 80 234 2 ",
"   c #37363C",
".  c #39393E",
"X  c #383438",
"o  c #2F2F35",
"O  c #45281E",
"+  c #573F03",
"@  c #4B2E24",
"#  c #462B22",
"$  c #48312A",
"%  c #53342A",
"&  c #5B372C",
"*  c #493C37",
"=  c #573D32",
"-  c #512E23",
";  c #643A2E",
":  c #653827",
">  c #673D31",
",  c #683D31",
"<  c #584005",
"1  c #6C5018",
"2  c #5B4B3E",
"3  c #56453B",
"4  c #4C4934",
"5  c #684729",
"6  c #785927",
"7  c #694034",
"8  c #6A483C",
"9  c #774937",
"0  c #79553A",
"q  c #6F502C",
"w  c #786233",
"e  c #3C3D43",
"r  c #403E43",
"t  c #3F4046",
"y  c #424245",
"u  c #44444B",
"i  c #4B4B4D",
"p  c #4A4745",
"a  c #5A4D42",
"s  c #59524A",
"d  c #4C4C53",
"f  c #525153",
"g  c #53535A",
"h  c #5A5A5D",
"j  c #5B5855",
"k  c #724D41",
"l  c #625343",
"z  c #66594E",
"x  c #6B5848",
"c  c #765748",
"v  c #645C53",
"b  c #71584E",
"n  c #6F614E",
"m  c #75654A",
"M  c #6B6154",
"N  c #6C645A",
"B  c #68645E",
"V  c #726652",
"C  c #766A55",
"Z  c #7A6C54",
"A  c #786859",
"S  c #7D7158",
"D  c #5C5C62",
"F  c #626162",
"G  c #6B6A65",
"H  c #65646B",
"J  c #6A6A6C",
"K  c #686762",
"L  c #716E68",
"P  c #74736B",
"I  c #7A756A",
"U  c #7D7A6E",
"Y  c #787266",
"T  c #6C6C72",
"R  c #7D7C72",
"E  c #75747A",
"W  c #7A7A7D",
"Q  c #777476",
"!  c #64717E",
"~  c #5D6A68",
"^  c #8C6B1C",
"/  c #85631E",
"(  c #9A761C",
")  c #89553A",
"_  c #93583B",
"`  c #835B28",
"'  c #876B2A",
"]  c #997826",
"[  c #87743D",
"{  c #8F7338",
"}  c #A27E24",
"|  c #825D1D",
" . c #885946",
".. c #995D49",
"X. c #9D614C",
"o. c #9A6647",
"O. c #836556",
"+. c #9E6551",
"@. c #827452",
"#. c #83755A",
"$. c #877A5C",
"%. c #8C7C5C",
"&. c #8D7356",
"*. c #997558",
"=. c #876F4C",
"-. c #A46848",
";. c #AB7A56",
":. c #B27854",
">. c #AC764D",
",. c #817C6C",
"<. c #857865",
"1. c #807F74",
"2. c #90766B",
"3. c #A17B6D",
"4. c #7E8279",
"5. c #79BC4B",
"6. c #608C36",
"7. c #A78226",
"8. c #B59031",
"9. c #C59C34",
"0. c #C79A2B",
"q. c #D7AB3A",
"w. c #D3A83A",
"e. c #E8B83D",
"r. c #928653",
"t. c #B9865C",
"y. c #AA884F",
"u. c #948562",
"i. c #9C8B66",
"p. c #9C8B68",
"a. c #818075",
"s. c #82827A",
"d. c #8A8577",
"f. c #968878",
"g. c #928667",
"h. c #A68C66",
"j. c #A3936A",
"k. c #AB9A6E",
"l. c #A9976C",
"z. c #AE9D70",
"x. c #A79378",
"c. c #B59C74",
"v. c #B6936D",
"b. c #B6A174",
"n. c #94B46C",
"m. c #C18A5D",
"M. c #D7B04E",
"N. c #E9BA43",
"B. c #E2B955",
"V. c #C99569",
"C. c #C69269",
"Z. c #C7A67A",
"A. c #DBAA7E",
"S. c #D5A679",
"D. c #DEB27B",
"F. c #E6B97F",
"G. c #F7C545",
"H. c #EEC255",
"J. c #F6C662",
"K. c #2E6FA4",
"L. c #1F65A1",
"P. c #7D7D82",
"I. c #677483",
"U. c #4A7497",
"Y. c #007CFD",
"T. c #5A92B1",
"R. c #6A8FAE",
"E. c #61879E",
"W. c #2C82DE",
"Q. c #838384",
"!. c #85858A",
"~. c #8A8A8E",
"^. c #898988",
"/. c #928D8B",
"(. c #97928A",
"). c #8D8D91",
"_. c #848890",
"`. c #929295",
"'. c #98989B",
"]. c #908F93",
"[. c #AB998B",
"{. c #A79A91",
"}. c #AD978A",
"|. c #B8A394",
" X c #B0A392",
".X c #9C9DA2",
"XX c #9B9EA9",
"oX c #A3A3A5",
"OX c #ACABAB",
"+X c #A5A4A7",
"@X c #AEAEB2",
"#X c #B4B4B5",
"$X c #B6B7BA",
"%X c #BABABB",
"&X c #B8B7B6",
"*X c #B7ACA7",
"=X c #DBAC82",
"-X c #DAB389",
";X c #D1B18E",
":X c #EABB8D",
">X c #E5B688",
",X c #ECBE91",
"<X c #E3BC95",
"1X c #E1AF82",
"2X c #C6B6A9",
"3X c #C6BAB2",
"4X c #9CC782",
"5X c #D8C186",
"6X c #EFC194",
"7X c #EBC59E",
"8X c #F2C395",
"9X c #F4C698",
"0X c #F6C99B",
"qX c #EEC187",
"wX c #EDC7A3",
"eX c #ECCEB3",
"rX c #CDC1B7",
"tX c #BEBEC1",
"yX c #C3C2C5",
"uX c #C5C5CA",
"iX c #CBCACD",
"pX c #CDCDD2",
"aX c #D2D2D5",
"sX c #D5D5DC",
"dX c #DADADE",
"fX c #DED7D7",
"gX c #D2D1C9",
"hX c #E3D1C3",
"jX c #E7D4C8",
"kX c #EADAD4",
"lX c #DBDCE3",
"zX c #E8E8E9",
"xX c #F6F6F6",
"cX c None",
/* pixels */
"1.1.1.1.1.1.1.1.1.1.1.1.1.1.1.R 4.^.#XdXlXlXlXlXdXlXlXlXlXlXlXlXlXpX@X).P.1.1.1.1.1.1.1.1.1.1.1.1.1.1.1.1.1.1.1.1.1.1.1.1.1.1.1.1.1.1.1.1.1.1.1.1.1.1.1.1.1.1.1.",
"1.1.1.1.1.1.1.1.1.1.1.1.1.R R d.(.OXyXdXlXlXlXlXlXlXlXlXlXlXlXlXuX$XXX_.Q.R R R 1.1.1.1.1.1.1.1.1.1.1.1.1.1.1.1.1.1.1.1.1.1.1.1.1.1.1.1.1.1.1.1.1.1.1.1.1.1.1.1.",
"1.1.1.1.1.1.1.1.1.1.1.1.a.a.s.'.tXdXlXlXlXlXlXlXlXlXlXsXlXlXlXuXXX).).).^.s.s.d.a.a.1.1.1.1.1.1.1.1.1.1.1.1.1.1.1.1.1.1.1.1.1.1.1.1.1.1.1.1.1.1.1.1.1.1.1.1.1.1.",
"1.1.1.1.1.1.1.1.1.1.1.R a.(.OXyXsXlXlXlXlXlXlXlXlXlXlXlXlXuX@X.X).).+XtXtX$X%X&XOX/.R 1.1.1.1.1.1.1.1.1.1.1.1.1.1.1.1.1.1.1.1.1.1.1.1.1.1.1.1.1.1.1.1.1.a.R a.1.",
"1.1.1.1.1.1.1.1.a.a.a.s.^.OXgXzXlXlXlXlXlXlXlXlXlXlXlXlXaXtXoX'..X+XtXlXlXlXzXlXpXOX/.Q.1.1.1.1.1.1.1.1.1.1.1.1.1.1.1.1.1.1.1.1.1.1.1.1.1.1.1.1.1.1.1.1.1.1.1.1.",
"1.1.1.1.1.1.1.1.4.4.s.(.OXtXsXlXlXlXlXlXlXlXlXlXlXlXsXiXtXtXiXpXiXpXsXlXlXlXlXlXlXaXtX{.1.1.1.1.1.1.1.1.1.1.1.1.1.1.1.1.1.1.1.1.1.1.1.1.1.1.1.1.1.1.1.1.1.1.1.1.",
"1.1.1.1.1.1.a.1.U L Q `.#XuXiXpXpXpXsXlXlXlXlXlXlXlXsXpXuXpXsXlXlXlXlXlXlXlXlXpXiXuX$X.X^.1.1.1.1.1.1.1.1.1.1.1.1.1.1.1.1.1.1.1.1.1.1.1.1.1.1.1.1.1.1.1.1.1.1.1.",
"1.1.1.1.1.1.a.1.P B F !.OX&X&X#X&XtXpXsXlXsXdXlXlXlXlXlXlXlXlXlXlXlXlXlXlXlXaXyX#X.X`.).~.^.1.1.1.1.1.1.1.1.1.1.1.1.1.1.1.1.1.1.1.1.1.1.1.1.1.1.1.1.1.1.1.1.1.1.",
"1.1.1.1.1.1.a.1.P D g H W `.OX&X#X&XtXyXyXuXpXsXlXlXlXlXlXlXlXlXlXlXlXlXlXlXlXpXuX@XoX`.).Q.1.1.1.1.1.1.1.1.1.1.1.1.1.1.1.1.1.1.1.1.1.1.1.1.1.1.1.1.1.1.1.1.1.1.",
"1.1.1.1.1.1.a.a.U G D f g W +X%X%X#X#X&X#X&XyXpXsXlXlXlXlXlXlXlXlXlXlXlXlXlXlXlXsXuXtXoX).Q.1.1.R 1.1.1.a.1.1.1.1.1.1.1.1.1.1.1.1.1.1.1.1.1.1.1.1.1.1.1.1.1.1.1.",
"1.1.1.1.1.1.1.1.R U P F h W +X%X&X#X&X#X&X&X&X%XuXaXlXlXlXlXlXlXlXlXlXlXlXlXlXlXlXlXiX@X`.Q.1.1.a.1.1.1.1.1.1.1.1.1.1.1.1.1.1.1.1.1.1.1.1.1.1.1.1.a.1.1.1.a.1.1.",
"1.1.1.1.1.1.1.1.4.a.R F h W +X%X$X$X&X&X@X+XoXoXOXrXhXhXhXhXhXhXhXhXsXlXlXlXlXlXlXlXsX@X`.!.1.1.1.1.1.1.1.1.1.1.1.1.1.1.1.1.1.1.1.1.1.1.1.1.1.1.1.1.1.1.a.R 1.1.",
"1.1.1.1.1.1.1.1.1.a.R K D 1.+X3X3X&X&X#XoX`.).].{.;X7X6X6X6X6X6X,XwXhXlXlXsXsXsXlXlXaX@X].!.1.1.1.1.1.1.1.1.1.1.1.1.1.1.1.1.1.1.1.1.1.1.1.1.1.1.1.1.1.1.1.1.1.a.",
"1.1.1.1.1.1.1.1.1.1.cXQ E E.'. X2X2X|.'.).).(.|.;X7X9X9X9X8X8X6X,X7XwXeX3X@X.X).XXuXsXtX].Q.1.1.1.1.1.1.1.1.1.1.1.1.1.1.1.1.1.1.1.1.1.1.1.1.1.1.1.1.1.1.1.1.a.R ",
"1.1.1.1.1.1.1.1.1.cXcXcX).~._.{.;X<X|.)._.~.}.=X1XA.S.Z.A.-X5X6X,X,X1XZ.}./.E D H XXtXXX!.P.1.1.1.1.1.1.1.1.1.1.1.1.1.1.1.1.1.1.1.1.1.1.1.1.1.1.1.1.1.1.1.1.1.1.",
"1.1.1.1.1.1.1.1.1.cXcXcX~._._.{.;X>X|.)._.~.(.t.t.o.0 9 0 t.-X8X0X1X;. .O.^.P.D g H H H D J Q 1.a.1.1.1.1.1.1.1.1.1.1.1.1.1.1.1.1.1.1.1.1.1.1.1.1.1.1.1.1.1.1.1.",
"1.1.1.1.1.1.1.1.1.cXcX).~.!.~.{.|.|.{.~._.~.(.C.C.3.#.k > X.D.7X,X-Xv.2.Q E H D g h h B F L U a.1.1.1.1.1.1.1.1.1.1.1.1.1.1.1.1.1.1.1.1.1.1.1.1.1.1.1.1.1.1.1.1.",
"1.1.1.1.1.1.1.1.1.cXcX)._.).cXcX/./.).).~.).{.-XwXhXyX2.8 o.D.8X,XwXhXiX.X~ g g h P R 1.R R R 1.1.1.1.1.1.1.1.1.1.1.1.1.1.1.1.1.1.1.1.1.1.1.1.1.1.1.1.1.1.1.1.1.",
"1.1.1.1.1.1.1.1.1.cXcXcXcXcXcXcXcXcXcXcX X;X<X<XeXkXpXn.6.r.D.0X,XwXkXsXXXF j K P R 1.a.a.a.a.1.1.1.1.1.1.1.1.1.1.1.1.1.1.1.1.1.1.1.1.1.1.1.1.1.1.1.1.1.1.1.1.1.",
"1.1.1.1.1.1.1.1.1.cXcXcXcXcXcXcXcXcXcXcXcX>X:X,XwXhXgX4X5.n.F.qX0X0XeXgX'.H D P a.a.1.4.a.a.1.1.1.1.1.1.1.1.1.1.1.1.1.1.1.1.1.1.1.1.1.1.1.1.1.1.1.1.1.1.1.1.1.1.",
"1.1.1.1.1.1.1.1.1.1.1.1.1.cXcXcXcXcXcXcXcXC.S.>X9X9XwX<X5X5XqX8X,X0X0XwX}.v D P a.a.1.1.1.1.1.1.1.1.1.1.1.1.1.1.1.1.1.1.1.1.1.1.1.1.1.1.1.1.1.1.1.1.1.1.1.1.1.1.",
"1.1.1.1.1.1.1.1.1.1.1.1.1.1.cXcXcXcXcXcX) _ >.V.D.:X,X9X8X9X9X8X,X,X1X|.f.L J Q 1.1.1.1.1.1.1.1.1.1.1.1.1.1.1.1.1.1.1.1.1.1.1.1.1.1.1.1.1.1.1.1.1.1.1.1.1.1.1.1.",
"1.1.1.1.1.1.1.1.1.1.1.1.1.1.4.a.cXcX: : : 5 ) >.V.D.:X9X:X:X:X:X:X;X}.2.R R R 1.1.1.1.1.1.1.1.1.1.1.1.1.1.1.1.1.1.1.1.1.1.1.1.1.1.1.1.1.1.1.1.1.1.1.1.1.1.1.1.1.",
"1.1.1.1.1.1.1.1.1.1.1.1.1.1.a.4.a.U cXcXcXcX_ >.m.V.V.V.V.t.*.*.x.[.f.s.R a.a.1.1.1.1.1.1.1.1.1.1.1.1.1.1.1.1.1.1.1.1.1.1.1.1.1.1.1.1.1.1.1.1.1.1.1.1.1.1.1.1.1.",
"1.1.1.1.1.1.1.1.1.1.1.1.a.a.4.U I Y ,.cXcXcXcXt.t.m.V.V.m.-.0 0 S 1.U Y U 4.4.U 1.1.1.1.1.1.1.1.1.1.1.1.1.1.1.1.1.1.1.1.1.1.1.1.1.1.1.1.1.1.1.1.1.a.1.1.1.a.1.1.",
"1.1.1.1.1.1.1.1.1.1.1.1.a.a.a.Y v z #.l.z.k.k.k.b.S.F.>X>XV.:.;.h.g.C l M R a.a.1.a.1.1.1.1.1.1.1.1.1.1.1.1.1.1.1.1.1.1.1.1.1.1.1.1.1.1.1.1.1.1.1.R a.1.1.R a.1.",
"1.1.1.1.1.1.1.a.a.R a.a.a.I N n n Z u.l.k.k.k.k.b.Z.-X:X6X>XA.V.C.h.=.m M M L U a.a.1.a.1.1.1.1.1.1.1.1.1.1.1.1.1.1.1.1.1.1.1.1.1.1.1.1.1.1.1.1.1.1.1.1.1.1.1.1.",
"1.1.1.1.1.1.1.a.a.a.a.R U N s n r.l.k.k.k.k.k.k.k.k.b.A.:X6X:XA.C.t.l.h.@.l z Y R 1.1.a.1.1.1.1.1.1.1.1.1.1.1.1.1.1.1.1.1.1.1.1.1.1.1.1.1.1.1.1.1.1.1.1.1.1.1.1.",
"1.1.1.1.1.1.a.R a.a.U A v n Z u.j.z.z.l.z.z.k.k.k.k.k.b.b.b.x.p.*.%.i.k.i.%.Z z M Y 4.a.1.1.1.1.1.1.1.1.a.1.1.1.a.1.1.1.1.1.1.1.1.1.1.1.1.1.1.1.1.1.1.1.1.1.1.1.",
"1.1.1.1.1.a.a.a.a.R U M x Z j.z.z.l.z.k.j.p.i.l.k.k.k.k.z.j.$.S S $.i.k.z.k.%.l a L R a.1.1.1.1.1.1.1.1.1.1.1.1.R 1.1.1.1.1.1.1.1.1.1.1.1.1.a.1.1.1.a.1.1.1.1.1.",
"1.1.1.1.a.s.a.a.U Y S <.i.j.l.k.k.l.z.j.#.x Z i.k.z.k.k.k.j.j.p.p.j.j.k.z.k.%.8 a N R a.1.1.1.1.1.1.1.1.1.1.1.1.a.1.1.1.1.1.1.1.1.1.1.1.1.1.1.1.1.1.R a.1.1.1.1.",
"1.1.a.R I N N N N V Z $.u.j.l.k.k.z.z.l.Z 2 8 $.i.j.k.k.k.z.k.z.z.z.z.k.z.k.r.l a N a.a.1.1.1.1.1.1.1.1.1.1.1.1.1.1.1.1.1.1.1.1.1.1.1.1.1.1.1.1.1.1.1.1.1.1.1.1.",
"4.a.4.U M 2 3 3 l n Z Z S %.j.k.k.l.k.j.@.2 a M #.p.k.k.k.k.k.l.k.k.l.z.z.l.%.l a G 1.a.1.1.1.1.1.1.1.1.1.1.1.1.1.1.1.1.1.1.1.1.1.1.1.1.1.1.1.1.1.1.1.1.1.1.1.1.",
",.4.4.U M 2 8 Z %.u.g.g.u.u.$.u.l.j.%.m x cXcXcXS $.u.i.k.z.k.k.k.z.z.z.z.l.i.V v Y 1.1.1.1.1.1.1.1.1.1.1.1.1.1.1.1.1.a.1.1.1.1.1.1.1.1.1.1.1.1.1.1.1.1.1.1.1.1.",
"a.a.4.U M 2 x %.j.l.k.k.k.g.%.$.u.r.b 3 cXcXcXcXcXn V $.u.i.j.j.p.j.j.j.l.k.k.cXcXR 1.a.1.1.1.1.1.1.1.1.1.1.1.1.1.1.1.1.1.1.1.1.1.1.1.1.1.1.1.1.1.1.1.1.1.1.1.1.",
",.4.4.U B 2 3 2 n u.k.k.k.k.h.%.V a 2 cXcXcXcXcXcX3 2 2 l n S #.#.S S #.$.cXcXcXcXa.1.R 1.1.1.1.1.1.1.1.1.1.1.1.1.1.1.1.1.1.1.1.1.1.1.1.1.1.1.1.1.1.1.1.1.1.1.1.",
"4.1.a.U v a 7 8 =.v.Z.Z.Z.v.h.&.b j cXcXcXcXcXcXcX4 * 3 a x C C V M V N M cXcXcXcXcX1.a.1.1.1.1.1.1.1.1.1.1.1.1.1.1.1.1.1.1.1.1.1.1.1.1.1.1.1.1.1.1.1.1.1.1.1.1.",
",.a.a.U v 2 c *.m.A.6X9X:XV.-. .#.R cXcXcXcXcXcXcX3 3 x b C V C S S S S Z cXcXcXcXcXcX1.1.1.1.1.1.1.1.1.1.1.1.1.1.1.1.1.1.1.1.1.1.1.1.1.1.1.1.1.1.1.1.1.1.1.1.1.",
"4.a.a.U A 0 o.C.F.:X6X9X,XV...) <.a.d.R z % @ @ % = > 8 k 8 k b f.{. X{.3.k cXcXcXcXcX1.1.1.1.1.1.1.1.1.1.1.1.1.1.1.1.1.1.1.1.1.1.1.1.1.1.1.1.1.1.1.1.1.1.1.1.1.",
"1.a.a.,.O.) :.A.8X6X6X6X>XC._  .#.R 4.U v % # @ @ & > > > ; , O. X3X2X{.2.8 ; cXcXcXcX1.1.1.1.1.1.1.1.1.1.1.1.1.1.1.1.1.1.1.1.1.1.1.1.1.1.1.1.1.1.1.1.1.1.1.1.1.",
"1.1.a.,.O._ :.A.0X0X:XA.C.>._  .<.R s.U z = # # - & , , > ; ; O. X*X3.b 8 , , cXcXcXcX1.1.1.1.1.1.1.1.1.1.1.1.1.1.1.1.1.1.1.1.1.1.1.1.1.1.1.1.1.1.1.1.1.1.1.1.1.",
"R a.4.,.O.) :.A.,X0X:XC.>...X.O.<.1.4.U n 5 1 5 5 5 , , ; : ; O. X2X}.2.c 7 ; = cXcXcXcX1.a.1.1.1.1.1.1.1.1.1.1.1.1.1.1.1.1.1.1.1.1.1.1.1.1.1.1.1.1.1.1.1.1.1.1.",
"a.a.a.U O._ :.S.,X0X>Xm._  .<.1.W 1.1.<.@.^ / / 6 1 7 7 , , , O.}.2X3X|.3.k = 3 3 cXcXcXcXcXa.R 1.1.1.1.1.1.1.1.1.1.1.1.1.1.1.1.1.1.1.1.1.1.1.1.1.1.1.1.1.1.1.1.",
"s.U @.[ ' ` >.S.7X9X>X:._  .<.W 1.1.@.=.8.9.8.( ' w x n b x c V 2.f././.<.c x x z cXcXcXcXcXcXa.1.1.1.1.1.1.1.1.1.1.1.1.1.1.1.1.1.1.1.1.1.1.1.1.1.1.1.1.1.1.1.1.",
",.<.{ ] ( } y.F.8X9X:XC.-.*.g.d.,.6.r.7.9.M.w.7.' m S C Z Z A V A C V C C V C Z V cXcXcXcXcXcXcX1.1.1.1.1.1.1.1.1.1.1.1.1.1.1.1.1.1.1.1.1.1.1.1.1.1.1.1.1.1.1.1.",
"' 7.8.q.e.q.B.F.8X8X,X>X1X-X-XZ.y.7.8.q.G.G.w.( ' w Z Z C C C A C C C C C C C C Z cXcXcXcXcXcXcX1.1.1.1.1.1.1.1.1.1.1.1.1.1.1.1.1.1.1.1.1.1.1.1.1.1.1.1.1.1.1.1.",
"[ { 8.w.e.G.J.qX8X,X8X8X9X0X9XS.{ ^ 0.N.G.G.9.' 5 2 s M C Z Z Z A C C C C Z Z C C cXcXcXcXcXcXcX1.1.1.1.1.1.1.1.1.1.1.1.1.1.1.1.1.1.1.a.1.1.R a.1.1.1.1.1.1.1.1.",
"4.a.{ ] 8.e.J.F.,X8X,X8X,X8X:XC.' 1 8.B.G.H.y.2 . . y s M V V V C V C C V C C V C cXcXcXcXcXcXcX1.1.1.1.1.1.1.1.1.1.1.1.1.1.1.1.1.1.1.1.1.1.a.1.1.1.1.1.1.1.1.1.",
"4.U [ ^ ( 7.M.F.6X9X9X0X6XS.>.w 1 1 4.T.T.T.T.I.T H H g p p p p p p a a l l l x l cXcXcXcXcXcXcX1.1.1.1.1.1.1.1.1.1.1.1.1.1.1.1.1.1.1.1.1.1.1.1.1.1.1.1.1.1.1.1.",
"a.$.@.' ' ' y.V.=X=XA.A.S.y.1 < < 4 L.W.W.W.K.R.).).!.H u t u u u u r * * * * * * cXcXcXcXcXcXcXa.1.1.1.1.4.1.1.1.1.1.1.1.1.1.1.1.1.1.1.1.1.1.1.1.1.1.1.1.1.1.1.",
"a.a.a.$.<.,.&.o.-.-.-.-.-.` 1 + < 4 L.W.W.W.W.T.).).~.!.P.E P.P.P.T f * X X X X X cXcXcXa.a.R 4.1.1.1.1.,.a.a.R 1.1.1.1.1.1.1.1.1.1.1.1.1.1.1.1.1.1.1.1.1.1.1.1.",
"4.U 4.4.4.R <.O. . . .O. .w 1 1 1 r.E.T.W.K.K.E.E E E E P.!._.`.`.^.T D g g g h g y cXf B h B K I a.a.a.a.a.a.1.1.1.1.1.1.1.1.1.1.1.1.1.1.1.1.1.1.1.1.1.1.1.1.1.",
",.a.U a.a.a.,.1.,.,.,.,.,.=.' 7.w.N.H.M.8.] w j g D g g D H P._.!.!.!.!.!.!.!.!.E g e . * * y f G R R R R R 4.4.1.a.a.a.1.1.1.1.1.1.1.1.1.1.1.1.1.1.1.1.1.1.1.1.",
",.4.a.,.a.R 4.a.4.4.a.4.a.@.' 7.w.G.G.G.9.( 6 s g g g d g D H T J J T T P.~.].].!.E T E E.Q.Q.Q J F D B F F G Q a.a.a.a.a.1.1.1.1.1.1.1.1.1.1.1.1.1.1.1.1.1.1.1.",
"4.U a.4.a.a.,.1.a.,.a.4.a.@.' 7.q.G.G.w.8.] w s d u d d d d g g g g g g J W 1.E.P.P.!..X#XtX&XoXP.H H H H J J P P I P P P R U a.1.1.1.1.1.1.1.1.1.1.1.1.1.1.1.1.",
",.a.a.a.R a.4.1.4.a.a.4.a.@.' 7.q.N.8.7.( ^ q 4 e e e e e u d g g g g g D D B F D D J `.#X%X%X#XOXoXoXoXoXoX^.J h h h h h K U a.1.1.1.1.1.1.1.1.1.1.1.1.1.1.1.1.",
"1.1.1.1.1.1.1.1.,.4.R s.1.@.' } 0.0.} ^ | 6 5 = * X o o   e y i u u u u d g g g g f D E _.].).`.oX@X#X%XtX%XoX~.P.!.`.`.).^.Q.s.s.s.s.s.1.R R a.1.1.1.1.1.1.1.1.",
"1.1.1.1.1.1.1.1.a.,.a.a.,.@.' ^ ^ ^ ^ / ` 5 , , > cXcXcXcXcX  X X e o e u d g g g f g g h g D H W ].oX@X#X@X@X@X%XsXzXxXzXyX.X).).).).).^.Q.1.a.1.1.1.1.1.1.1.1.",
"1.1.1.1.1.1.1.1.R R a.R a.,.cX/ q q q q , , ; , cXY s.cXcXcX$ X $ $ X $ * r e e e e t u g g f g F T E W W W !.`.#XlXxXxXxXzXaXiXuXiXiXyXOX^.P.Q.s.1.1.1.1.1.1.1.",
"1.1.1.1.1.1.1.1.a.a.a.a.a.I cXcX; , , , , , ; cXcXa.1.cXcXcX@ @ # @ - # $ o e t y y u i d d d d d d f g f g F E `.&XaXaXaXsXdXzXxXxXxXzXiXOX.X.X'.^.1.s.a.a.1.a.",
"1.1.1.a.1.1.1.1.1.1.a.s.cXcX@ % & , , , > > ; cXcXa.a.cXcXcX@ @ @ @ @ @ # cXcXJ S P K f e   .   . e i g g g h h H T E T Q Q.'.$XlXxXxXxXzXzXkXfXiX+X^.!.!.Q.a.a.",
"1.1.a.R 1.1.1.1.1.1.1.cXcXcX% & ; > , > > > k cXa.a.1.cXcXcX@ % @ @ @ @ cXcXcXd.a.a.R K f i f s f i i u u u u u u d d d f D T !.oX@X#X$X%XiXlXxXzXpX@X'.).Q.Q.s.",
"1.1.1.1.1.1.1.1.1.1.1.cXcXcX> > > , > > ; cXcX1.1.1.1.cXcXcX@ @ @ @ @ @ cXcXcXs.a.a.4.4.4.U 4.U U L f e   . . . e i g g g g g D D D D H E ~.*XfXxXzXzX$X'.~.~.~.",
"1.1.1.1.1.1.1.1.1.1.1.cXcXcX, > > > , , cXcXcXa.1.1.a.cXcXcX@ @ @ @ @ cXcXU s.R a.U a.a.a.a.a.a.a.4.L D h B D B h u e e e e e t d d d d h H E.+XyXzXxXzXiX@X'.~.",
"1.1.1.1.1.1.1.1.1.1.1.cXcXcX> , > > > & & cXcXa.1.1.1.I cXcX@ @ @ @ cXcXcXa.1.1.1.1.1.1.1.1.1.1.R a.a.a.a.a.a.a.P j y y y y y y d d f d i d g T ~.@XiXdXdX%X'.Q.",
"1.1.1.1.1.1.1.1.1.1.1.cXcXcX> > , ; & % @ cXcXa.a.a.U z % # @ @ @ @ cXcXcXa.1.1.1.1.1.1.1.1.1.1.1.a.1.a.1.1.a.a.R I P G L P L B u .   . . . e t u f F Q.'.`.Q.1.",
"1.1.1.1.1.1.1.1.1.1.1.cXcXcX, , > ; % % cXcXa.a.a.s.Y 2 % @ @ @ @ @ cXcXcX1.1.1.1.1.1.1.1.1.1.1.1.1.1.1.1.1.1.1.a.a.a.a.a.a.a.Y h s i i f f f f i i f K s.s.s.1.",
"a.1.1.1.1.1.1.1.1.1.1.cXcXcX, , > > cXcXcX1.1.1.a.cXcX@ @ @ @ @ @ @ cXcXcXa.1.1.1.1.1.1.1.1.1.1.1.1.1.1.1.1.1.1.1.1.a.1.a.4.a.a.4.U U 4.U R U U R U R R 4.1.1.1.",
"1.1.1.1.1.1.1.1.1.s.cXcX% % > > > , cXcXcXa.1.1.a.cXcXcX@ @ $ @ @ cXcXR a.1.1.1.1.1.1.1.1.1.1.1.1.1.1.1.1.1.1.1.1.1.1.1.1.1.1.a.a.a.a.a.4.a.a.a.a.a.a.a.a.R 1.1.",
"1.1.1.1.1.1.1.1.s.cXcXO $ % ; > , > cXcXcX1.1.1.a.cXcXO @ @ @ @ cXcXd.4.R 1.1.1.1.1.1.1.1.1.1.1.1.1.1.1.1.1.1.1.1.1.1.1.1.1.1.1.a.U a.a.4.U 4.a.1.1.a.1.a.1.1.1.",
"1.1.1.1.1.1.1.1.s.cXcXO @ % ; > , , cXcXcX1.1.1.a.cXcX@ @ @ @ @ cXcXs.1.a.1.1.1.1.1.1.1.1.1.1.1.1.1.1.1.1.1.1.1.1.1.1.1.1.1.1.1.a.a.a.a.4.a.a.a.1.1.1.1.,.4.1.1.",
"1.1.1.1.1.1.1.1.P.cXcX- % ; > > & & cXcXcXa.1.1.a.cXcXO @ @ @ @ cXcXa.a.1.1.1.1.1.1.1.1.1.1.1.1.1.1.1.1.1.1.1.1.1.1.1.1.1.1.1.1.a.a.U a.,.a.a.U 1.1.1.1.1.1.1.1.",
"1.1.1.1.1.1.1.1.1.cXcX, ; > > & % @ cXcXcX1.1.1.a.cXcX# @ @ @ @ cXcXs.s.R a.1.a.1.1.1.1.1.1.1.1.a.1.1.1.1.1.1.1.1.1.1.1.1.1.1.1.U a.U a.1.1.1.1.1.1.1.1.1.1.1.1.",
"1.1.1.1.1.1.1.1.1.cXcXcX; ; > ; & cXcXR a.a.1.1.a.cXcXO @ @ @ O cXcXd.R 1.1.1.1.1.1.1.1.1.1.1.1.1.1.1.1.1.1.1.1.1.1.1.1.1.1.1.1.a.a.a.a.1.1.1.1.1.1.1.1.1.1.1.1.",
"1.1.1.1.1.1.,.I Y cXcX2. .k , ; cXcXs.R 1.1.1.1.a.cXcXO - % = 3 cXcXQ.1.a.a.a.1.1.1.1.1.1.1.1.1.1.1.1.1.1.1.1.1.1.1.1.1.1.1.1.1.R a.4.,.1.1.1.1.1.1.1.1.1.1.1.1.",
"1.1.1.1.1.1.G a x /.3X2X|.3.k ; cXcXd.1.1.1.1.1.a.cXcXO $ 3 N Y U 1.cXcXa.R R a.1.1.1.1.1.1.1.1.1.1.1.1.1.1.1.1.1.1.1.1.1.1.1.1.a.a.R a.1.1.1.1.1.1.1.1.1.1.1.1.",
"1.a.a.1.I A c , k 3.}.|.|.3. ., , cXY 1.a.1.1.1.a.cXcX- & a b Y A N k cXcX1.s.1.1.1.1.1.1.1.1.1.1.1.1.1.1.1.1.1.1.1.1.1.1.1.1.1.a.R 1.1.1.1.1.1.1.1.1.1.1.1.1.1.",
"a.R a.I A 8 , ..X.+.+.+.X.X..._ 9 8 A 1.a.1.1.1.a.cXcX; > , , , , , , , , cXcX1.1.1.1.1.1.1.1.1.1.1.1.1.1.1.1.1.1.1.1.1.1.1.1.1.a.a.1.1.1.1.1.1.1.1.1.1.1.1.1.1.",
"a.U A b k  . ...X.X.....X.X.X. ., 8 V 1.a.a.1.1.1.cXcX; , , ; ; ; , ; , , , cXcXcX1.1.1.1.1.1.1.1.1.1.1.1.1.1.1.1.1.1.1.1.1.1.1.1.1.1.1.1.1.1.1.1.1.1.1.1.1.1.1.",
"a.I b 7 ) ......X.X.X.X.X.X.X...9 k b 1.a.1.1.1.a.cXcX; , , , , > , , > > , , cXcX1.1.1.1.1.1.1.1.1.1.1.1.1.1.1.1.1.1.1.1.1.1.1.1.1.1.1.1.1.1.1.1.1.1.1.1.1.1.1."
};
