/* XPM */
static char *idle02[] = {
/* columns rows colors chars-per-pixel */
"80 80 241 2 ",
"   c #2E1916",
".  c #2F1B18",
"X  c #2A1614",
"o  c #321D1A",
"O  c #321B16",
"+  c #35211D",
"@  c #3A221C",
"#  c #362421",
"$  c #392521",
"%  c #3C2A26",
"&  c #3D2D29",
"*  c #342A2C",
"=  c #39393E",
"-  c #393336",
";  c #322E32",
":  c #42251F",
">  c #47281E",
",  c #543D02",
"<  c #452B23",
"1  c #4B2E24",
"2  c #442620",
"3  c #532F26",
"4  c #4C3026",
"5  c #43322C",
"6  c #4A342C",
"7  c #4D392C",
"8  c #54342A",
"9  c #5C362C",
"0  c #583729",
"q  c #4A3C35",
"w  c #463935",
"e  c #5A3E33",
"r  c #633B2E",
"t  c #643929",
"y  c #663D31",
"u  c #693E32",
"i  c #795A19",
"p  c #6A4E17",
"a  c #4D443A",
"s  c #53433A",
"d  c #5A4A3D",
"f  c #554238",
"g  c #5C422C",
"h  c #795A27",
"j  c #694133",
"k  c #69493C",
"l  c #754838",
"z  c #705130",
"x  c #75622F",
"c  c #5D4409",
"v  c #3C3C42",
"b  c #3D3F48",
"n  c #3E4048",
"m  c #424245",
"M  c #44454B",
"N  c #4A4849",
"B  c #544A43",
"V  c #5A4D44",
"C  c #554945",
"Z  c #5C544B",
"A  c #5E5145",
"S  c #4C4C53",
"D  c #525153",
"F  c #53535A",
"G  c #5B5B5E",
"H  c #5C5554",
"J  c #4F5057",
"K  c #645444",
"L  c #6B5C4A",
"P  c #685749",
"I  c #755848",
"U  c #635B52",
"Y  c #635C58",
"T  c #705147",
"R  c #6E614F",
"E  c #75654D",
"W  c #63615C",
"Q  c #6B655C",
"!  c #6E685F",
"~  c #696154",
"^  c #766A55",
"/  c #7A6C55",
"(  c #766758",
")  c #7B7554",
"_  c #5C5C62",
"`  c #625F60",
"'  c #626264",
"]  c #6E6A62",
"[  c #65656B",
"{  c #6A6A6C",
"}  c #696768",
"|  c #716D64",
" . c #706E69",
".. c #75736A",
"X. c #79766B",
"o. c #7B796E",
"O. c #777264",
"+. c #6C6C72",
"@. c #727277",
"#. c #7E7C72",
"$. c #7A7A7D",
"%. c #76757A",
"&. c #8B6B1C",
"*. c #96741D",
"=. c #8B573D",
"-. c #925838",
";. c #876A26",
":. c #967525",
">. c #8D7138",
",. c #A27E23",
"<. c #A57F1E",
"1. c #895844",
"2. c #995D48",
"3. c #8A624B",
"4. c #9D604C",
"5. c #986646",
"6. c #857549",
"7. c #836356",
"8. c #9E6451",
"9. c #837453",
"0. c #8B7C5C",
"q. c #867559",
"w. c #927A58",
"e. c #997844",
"r. c #AA7956",
"t. c #B47855",
"y. c #A56F49",
"u. c #847867",
"i. c #807F74",
"p. c #8D7C74",
"a. c #8F746A",
"s. c #A17D70",
"d. c #7F8177",
"f. c #7E837A",
"g. c #79BC4B",
"h. c #608C36",
"j. c #A98426",
"k. c #B69133",
"l. c #9B823F",
"z. c #C59A2F",
"x. c #CBA135",
"c. c #D6AA3A",
"v. c #E8B73E",
"b. c #948C55",
"n. c #B7865B",
"m. c #AB8755",
"M. c #9B8B65",
"N. c #978763",
"B. c #828176",
"V. c #83837A",
"C. c #988879",
"Z. c #A5946B",
"A. c #A9976C",
"S. c #AB9A6E",
"D. c #A99066",
"F. c #AE9D70",
"G. c #AD997F",
"H. c #B3926B",
"J. c #B8A472",
"K. c #94B46C",
"L. c #D4AE51",
"P. c #EABB43",
"I. c #F0BE42",
"U. c #C9956A",
"Y. c #D09B6E",
"T. c #C7946B",
"R. c #C9A57A",
"E. c #D8A87B",
"W. c #D3A26E",
"Q. c #F7C546",
"!. c #F4C461",
"~. c #2B6CA7",
"^. c #7D7D82",
"/. c #6A7E95",
"(. c #4D798E",
"). c #047BFA",
"_. c #1F7CD3",
"`. c #817F83",
"'. c #6D87A7",
"]. c #2F84D3",
"[. c #1782EF",
"{. c #848384",
"}. c #85858A",
"|. c #8A8A8D",
" X c #8A8987",
".X c #97928A",
"XX c #8D8D92",
"oX c #858891",
"OX c #929195",
"+X c #9B9B9D",
"@X c #979699",
"#X c #908E8F",
"$X c #A99C93",
"%X c #AC988B",
"&X c #B6A395",
"*X c #AFA395",
"=X c #9D9DA2",
"-X c #9B9EA9",
";X c #A3A3A5",
":X c #AAA9AA",
">X c #AEAEB2",
",X c #B4B4B5",
"<X c #B6B6BA",
"1X c #BABABB",
"2X c #B8B7B6",
"3X c #B6ABA5",
"4X c #94A78D",
"5X c #D7AD84",
"6X c #DAB487",
"7X c #CDAD90",
"8X c #E7B789",
"9X c #ECBE91",
"0X c #E3BC94",
"qX c #E9B787",
"wX c #C7B5A8",
"eX c #C6BAB2",
"rX c #D8C186",
"tX c #EFC194",
"yX c #EBC59E",
"uX c #F2C395",
"iX c #F4C698",
"pX c #F5C99D",
"aX c #EEC287",
"sX c #EDC7A3",
"dX c #ECCEB3",
"fX c #CDC1B7",
"gX c #BEBEC1",
"hX c #C2C2C4",
"jX c #C8C8CC",
"kX c #CDCDD2",
"lX c #D6D6DC",
"zX c #D9D9DE",
"xX c #D3D3D5",
"cX c #D2D1C9",
"vX c #E4D1C4",
"bX c #EADAD4",
"nX c #DBDBE3",
"mX c #E3E3E5",
"MX c #EBEBEB",
"NX c #F7F7F7",
"BX c #9CC782",
/* pixels */
"i.i.i.i.i.i.i.i.i.i.B.i.i.i.i.#.o. X2XlXmXzXnXnXnXnXnXzXnXnXnXnXnXkX>XXX`.i.i.i.B.B.d.B.B.o.B.B.B.B.B.d.i.i.i.i.i.i.i.i.o.B.o.B.i.#.V.i.i.i.i.i.i.i.i.i.i.i.i.i.",
"i.i.i.i.i.i.i.i.i.i.#.B.i.#.i.V.OX:XjXzXnXnXzXnXnXnXnXnXnXnXnXnXjX<X=XoXi.$.#.#.o.B.o.B.B.B.o.B.o.B.i.i.i.i.i.i.i.i.i.i.B.B.B.B.i.i.#.B.i.i.i.i.i.i.i.i.i.i.i.i.",
"i.i.i.i.i.i.i.i.i.i.i.i.d.d.V.@XgXnXnXnXnXnXnXnXnXnXnXnXnXnXnXhX-XXXXXoX|.V.V.V.B.B.B.B.B.B.B.B.i.i.i.i.i.i.i.i.i.i.i.i.B.B.o.B.i.i.i.i.i.i.i.i.i.i.i.i.i.i.i.i.",
"i.i.i.i.i.i.i.i.i.i.#.#.d..X3XhXlXnXnXnXnXnXnXnXnXnXnXnXnXjX>X=XXXXX:XgXeX2X2X1X:X.Xo.B.o.B.o.B.i.i.i.i.i.i.i.d.i.i.i.i.B.o.B.B.i.i.i.i.i.i.i.i.i.i.i.i.i.i.i.i.",
"i.i.i.i.i.i.i.i.d.d.B.B. X:XcXmXmXnXnXnXnXzXnXnXnXnXnXnXxXgX-X@X=X-XgXnXnXmXnXmXkX:X#XV.i.i.i.i.i.i.B.B.o.B.B.B.i.i.i.i.o.B.o.B.i.i.i.i.i.i.#.V.i.i.i.i.i.i.i.i.",
"i.i.i.i.i.i.i.i.d.d.V..X:XhXlXnXnXnXnXnXnXnXnXnXnXnXlXjXgXhXjXkXjXkXnXnXnXnXnXnXnXlXhX+XV.#.#.i.i.i.B.o.B.B.B.o.i.i.i.i.B.B.B.B.i.i.i.i.i.i.B.#.B.#.i.i.i.i.i.i.",
"i.i.i.i.i.i.i.i.o.O.%.@X<XhXkXkXkXkXlXnXnXnXnXnXnXnXlXkXhXkXnXnXnXnXnXnXnXnXnXkXjXhX1X=X Xi.i.i.o.B.o.B.o.B.o.B.i.i.i.i.i.i.o.B.i.i.i.i.i.i.i.i.B.i.i.i.i.i.i.i.",
"i.i.i.i.i.i.B.B...W ' }.:X,X2X2X2X1XkXlXzXnXnXnXnXnXnXzXnXnXnXnXnXnXnXnXnXnXlXgX,X=XOXXX|.{.V.i.B.B.B.B.B.B.B.B.i.i.i.i.i.d.B.B.i.i.i.i.i.i.i.i.#.B.i.i.i.i.i.i.",
"i.i.i.i.i.i.B.B..._ F [ ^.OX>X,X<X2XgXhXjXhXkXlXnXnXnXnXnXnXnXzXnXnXnXnXnXnXnXkXhX>X=XOXXX{.V.#.o.i.i.i.i.i.i.i.i.i.i.i.i.i.i.i.i.i.i.i.i.i.i.i.i.i.i.i.i.i.i.i.",
"i.i.i.i.i.i.i.i.o.{ G J F $.;X1X2X,X,X,X,X2XhXkXlXnXnXnXnXnXnXnXnXnXnXnXnXnXnXnXnXjX<X;XXX{.i.i.B.i.i.i.i.i.i.d.i.i.i.i.i.i.i.i.i.i.i.i.i.i.i.i.i.i.i.i.i.i.i.i.",
"i.i.i.i.i.i.i.i.d.o...W G $.:X2X2X<X2X,X,X,X2X1XhXxXnXnXnXnXnXnXnXnXnXnXnXnXnXnXnXnXkX>XXX}.i.i.B.i.i.i.i.i.B.B.i.i.i.i.i.i.i.i.i.i.i.i.i.i.i.i.i.i.i.i.i.i.i.i.",
"i.i.i.i.i.i.i.i.d.B.d.' G $.;X1X2X,X2X2X,X;X;X;X:XfXvXvXvXvXvXvXvXvXlXnXnXnXnXnXnXnXlX>XXX{.p.i.i.i.i.i.i.i.B.o.i.i.i.i.i.i.i.i.i.i.i.i.i.i.i.i.i.i.i.i.i.i.i.i.",
"i.i.i.i.i.i.i.i.i.o.X.' _ i.;X2XeX2X2X,X;XOX|.|.$X7XyXtXuXtXtXtX0XsXvXlXnXlXlXlXnXnXkX>XOX`.i.i.i.i.i.i.B.B.o.B.i.i.i.i.i.i.i.i.i.i.i.i.i.i.i.i.i.i.i.i.i.i.i.i.",
"i.i.i.i.i.i.B.i. .U C G @.'.@X*XwXwX&X=XXX#X.X&X7XyXiXiXuXuXuXtX9XiXsXdXeX>X=XXX-XjXlXgX@X`.i.i.i.i.i.i.B.o.B.B.i.i.i.i.i.i.i.i.i.i.i.i.i.i.i.i.i.i.i.i.i.i.i.i.",
"i.i.i.i.i.i.B.i.! w % H }.XX|.$X7X0X&X|.oX|.%X7X8XE.E.R.E.6XaXtXiX9X8XR.%X#X%._ [ -XgX-X`.^.i.i.i.i.i.i.B.B.B.B.i.i.i.i.i.i.i.i.i.i.i.i.i.i.i.i.i.i.i.i.i.i.i.i.",
"i.i.i.i.i.i.B.i.! w % H {.XX|.$X6X8X&XXXoX|.G.H.n.-.=.l I m.6XiXiX5Xr.1.7. X^._ F [ [ [ [ { %.i.B.i.i.i.B.o.B.o.i.i.i.i.i.i.i.i.i.i.i.i.i.i.i.i.i.i.i.i.i.i.i.i.",
"i.i.i.i.i.i.B.B.! q % H }.^.[ u.%X7X$XOXoXoX%XT.H.D.u.T t 2.E.pX9X8XG.a.u.@.{ G F G _ W ' ] o.B.i.i.i.i.i.i.i.i.i.i.B.o.B.o.B.B.i.i.i.i.i.i.i.i.i.i.i.i.i.i.i.i.",
"i.i.i.i.i.i.B.B.! w % H $.` w q +.`.`.`.`.@X$X7XsXdXhXp.l 5.E.uX9X9XvXjX=X[ F F G ..#.#.d.#.i.i.i.i.i.i.i.i.i.i.i.i.B.B.B.B.o.B.i.i.i.i.i.i.i.i.i.i.i.i.i.i.i.i.",
"i.i.i.i.i.i.V.B.! w # & s w o # w N C H a.&X0X9XdXbXcX4Xh.b.E.yXpXsXbXlX-X_ G ' ..#.B.B.B.B.i.i.i.i.i.i.i.i.i.i.i.o.B.o.i.i.B.B.i.i.i.i.i.i.i.i.i.i.i.i.i.i.i.i.",
"i.i.i.i.i.i.B.B...C & < & $ o   . . X @ 1.5X9X9XdXdXcXBXg.K.!.yX9XpXdXkX=X[ G ..B.d.i.B.#.B.i.i.i.i.i.i.i.i.i.i.i.i.B.B.i.i.d.B.i.i.i.i.i.i.i.i.i.i.i.i.i.i.i.i.",
"i.i.i.i.i.i.i.i.o...| | ] C $ X     X @ l n.E.qXpXpXiXrXrXrXtXuX9XpXpXsX.XQ _ @.B.B.i.i.i.i.i.i.i.i.i.i.i.i.i.i.i.i.i.i.i.i.i.i.i.i.i.i.i.i.i.i.i.i.i.i.i.i.i.i.",
"i.i.i.i.i.i.i.i.B.B.B.V.d.] V w + O @ > y -.t.Y.E.qXuXuXuXuXuXuX9X9X6X&XC.] ] o.#.B.i.i.i.i.i.i.i.i.i.i.i.i.i.i.i.i.i.i.i.i.i.i.i.i.i.i.i.i.i.i.i.i.i.i.i.i.i.i.",
"i.i.i.i.i.i.i.i.i.i.#.B.#.B.#.~ w @ 3 t t j =.y.U.E.9X9X9X9XqXaX9X6XG.p.#.#.#.#.i.i.i.i.i.i.i.i.i.i.i.i.i.i.i.i.i.i.i.i.i.i.i.i.i.i.i.#.i.#.i.i.i.i.i.i.i.i.i.i.",
"i.i.i.i.i.i.i.i.i.i.B.i.B.B.V.] a 7 k 9.e.w.w.m.H.U.Y.Y.U.Y.Y.Y.5XJ.q.U ! #.V.B.i.i.i.i.i.i.i.i.i.i.i.i.i.i.i.i.i.i.i.i.i.i.i.i.i.i.i.V.#.V.i.i.i.i.i.i.i.i.i.i.",
"i.i.i.i.i.i.i.i.i.i.i.i.i.o.X.! L R N.A.F.S.F.F.A.n.n.n.T.T.n.U.H.M.7.P R | X.d.B.i.i.i.i.i.i.i.i.i.i.i.i.i.B.B.i.i.i.i.i.i.i.i.i.i.i.i.i.i.i.i.i.i.i.i.i.i.i.i.",
"i.i.i.i.i.i.i.i.i.i.i.V.#.| K L q.M.A.A.F.S.S.S.S.A.F.E.6X8XqXE.T.n.M.N.^ K U O.B.B.i.i.i.i.i.i.i.i.i.i.i.i.d.B.i.i.i.i.i.i.i.i.i.i.i.i.i.i.i.i.i.i.i.i.i.i.i.i.",
"i.i.i.i.i.i.i.i.i.i.#...Q ~ E 9.M.F.S.S.S.S.S.S.S.S.F.R.5X5X7XF.r.r.D.A.b.^ E Q | X.#.B.i.i.i.i.i.i.i.i.i.i.B.o.i.i.i.i.i.i.i.i.i.i.i.i.i.i.i.i.i.i.i.i.i.i.i.i.",
"i.i.i.i.i.i.i.i.i.B.o.Y K E N.S.S.S.S.S.A.A.S.S.S.F.F.F.S.N.9./ / q.M.A.S.A.0.K A ! i.B.i.i.i.i.i.i.i.i.i.i.B.B.i.i.i.i.i.i.i.i.i.i.i.i.i.i.i.i.i.i.i.i.i.i.i.i.",
"i.i.i.i.i.i.V.i.i.u.O.q.0.N.A.S.S.S.F.A.b.^ 9.M.F.S.S.S.A.Z.N.N.N.M.Z.S.F.S.w.K V ! i.B.i.i.i.i.i.i.i.i.B.o.B.o.i.i.i.i.i.i.i.i.i.i.i.i.i.i.i.i.i.i.i.i.i.i.i.i.",
"i.i.i.i.o.O.O.O.O.^ / 0.M.A.S.S.S.S.F.Z./ d K N.Z.S.S.S.S.A.S.S.S.S.S.S.F.A.0.K A ! i.B.i.i.i.i.i.i.i.i.B.B.B.B.i.i.i.i.i.i.i.i.i.i.i.i.i.i.i.i.i.i.i.i.i.i.i.i.",
"i.i.B.i.! K C V A L ^ ) q.N.A.S.F.S.F.A.9.k V E N.M.S.F.S.S.S.S.S.S.S.S.S.S.0.K d ! o.B.i.i.i.i.i.i.i.i.B.o.i.i.i.i.i.i.i.i.i.i.i.i.i.i.i.i.i.i.i.i.i.i.i.i.i.i.",
"i.i.B.i.L V d L / q.0.u.0.u.N.M.A.A.M.q.K q w f A ) M.Z.S.F.F.F.S.F.F.F.F.S.w.f a ~ B.B.i.i.i.i.i.i.i.i.B.B.o.i.i.i.i.i.i.i.i.i.i.i.i.i.i.i.i.i.i.i.i.i.i.i.i.i.",
"i.i.B.o.Y V L w.Z.Z.A.S.Z.N.q.0.M.M.E a 5 +   + 5 d / N.Z.Z.Z.Z.Z.Z.Z.Z.S.Z.E 7 5 Y d.B.B.B.B.o.B.o.B.B.i.i.i.i.i.i.B.o.B.o.B.B.i.i.i.i.i.i.i.i.i.i.i.i.i.i.i.i.",
"i.B.B.o.~ d d L / M.A.F.A.Z.M.0.) P g % + .     @ q A L E E E E E E E E P k 7 + & Y B.B.B.d.B.B.B.B.o.B.i.i.i.i.o.B.B.B.B.B.o.B.i.i.i.i.i.i.i.i.i.i.i.i.i.i.i.i.",
"i.i.B.i.~ d e d E M.J.J.J.F.D.w.L s % +   . . . @ 6 f f q d d d d d d s 5 + X   % Z | o.o.B.B.o.B.B.B.B.i.i.i.i.B.o.B.o.B.B.B.B.i.i.i.i.i.i.i.i.i.i.i.i.i.i.i.i.",
"i.B.B.o.Y V K 5.n.W.0X0X6XT.y.3.q.Q a +   . . . + w a q s V L ~ R R R L a +     + $ w U o.B.B.d.o.B.o.B.i.i.i.i.B.B.B.B.o.B.o.B.i.i.i.i.i.i.i.i.i.i.i.i.i.i.i.i.",
"i.i.B.i.I T 1.n.E.9X9XpXuXU.2.2.u. .s o     .   + w a f s Z E / ^ / ^ R f + . .     # Z o.V.B.B.B.B.i.i.i.i.i.i.B.B.B.B.B.d.o.B.i.i.i.i.i.i.i.i.i.i.i.i.i.i.i.i.",
"i.i.i.i.7.=.t.E.9X9X9XiXqXU.-.2.u.| C $ . . +   $ 6 f f s V R / / / O.( d @ . .     $ C ..B.#.#.d.B.i.i.i.i.i.i.B.o.B.o.B.B.B.B.i.i.i.i.i.i.i.i.i.i.i.i.i.i.i.i.",
"B.#.i.i.7.-.t.E.uXuX9XqXY.t.-.1.u.#.] Z a < @ @ < 8 g e y j l ( C.$X*X%Xu.g > + . . + & s U X.d.B.B.B.i.i.i.i.i.d.o.B.B.B.B.o.B.i.i.i.i.i.i.i.i.i.i.i.i.i.i.i.i.",
"i.B.#.u.7.-.t.5XuXiXqXY.t.4.2.7.u.i.V.#.E g 0 0 0 r y u y t y 7.*XeXeX%Xa.k 3 @ . . .   + a ..V.B.o.i.i.i.i.i.i.B.B.B.o.B.o.B.B.i.i.i.i.i.i.i.i.i.i.i.i.i.i.i.i.",
"i.i.B.B.7.=.t.E.uXiXqXT.2.1.q.u.o.i.V.B.) ;.i &.i j t u u t r 7.%X3Xs.I l u 8 $ . . o   + a ..f.B.B.i.i.i.i.i.i.B.o.B.B.B.B.B.o.i.i.i.i.i.i.i.i.i.i.i.i.i.i.i.i.",
"d.i.O.) ;.-.r.E.iXiX8Xt.-.1.X.$.#.i.X.9.l.j.j.*.&.j u t u t r 7.&XwX%Xa.I j 9 < $ o . . o 5 V Q O.o.B.i.i.i.i.i.B.B.o.B.o.B.B.B.i.i.i.i.i.i.i.i.i.i.i.i.i.i.i.i.",
"i.u.6.:.&.;.m.E.iXiX6XT.5.3.a.i.i.N.6.:.z.c.x.,.;.z u u u r u 7.%XwXeX3Xs.k e f q $ o . . . o a ! B.B.B.i.i.i.i.B.B.B.B.i.i.B.d.i.i.i.i.i.i.i.i.i.i.i.i.i.i.i.i.",
">.>.k.x.x.x.L.!.9XuXqXE.Y.R.7XA.w.>.j.x.v.P.c.j.;.x I L T I I ( p.C..XC.u.I L R d 5 o   .     5 ~ B.B.i.i.i.i.i.o.B.o.B.i.i.i.i.i.i.i.i.i.i.i.i.i.i.i.i.i.i.i.i.",
";.>.k.P.v.Q.!.aXtXtXtXtXuXiXuXW.>.:.z.I.Q.Q.x.:.h x ~ ! / ( ^ ^ ( E ^ ^ ^ ^ ! / P 6 o   o     w Q d.B.i.i.i.i.i.B.o.B.o.i.i.i.o.i.i.i.i.i.i.i.i.i.i.i.i.i.i.i.i.",
"B.0.>.:.x.I.!.aXtXtXtXtXuXpXuXR.>.i k.P.Q.Q.m.z = w m Z ^ / / ( ^ ( ^ ^ ^ ^ / ^ P w o   .   o w Q d.B.i.i.i.i.i.B.B.B.B.i.i.B.B.i.i.i.i.i.i.i.i.i.i.i.i.i.i.i.i.",
"d.B.>.&.<.z.L.!.tXiXuXiXuXE.J.>.i p h.4X4X4Xf.] F D F D Z V D V V Z R ^ ^ ^ / ^ L 6 +     X   & ~ i.B.B.i.i.i.d.B.o.B.B.B.o.B.o.i.i.i.i.i.i.i.i.i.i.i.i.i.i.i.i.",
"d.q.6.;.&.:.m.5X9X9X9XtXaXn.h c c a ~.[.[.[.].'.V.C.'._ b v v v v m Z ^ ^ ^ ^ ^ K 5 o . + o + a Q B.B.i.i.i.i.B.B.B.o.B.B.B.B.B.i.i.i.i.i.i.i.i.i.i.i.i.i.i.i.i.",
"d.d.9.6.6.9.w.r.t.t.t.t.t.-.p , , a ~.).[.).].'.OX.X X$.+.[ [ +.+.' D N N a N m a # + a Z U U Q X.#.B.B.d.B.#.i.i.i.i.i.i.i.i.i.i.i.i.i.i.i.i.i.i.i.i.i.i.i.i.i.",
"d.d.d.d.B.i.q.1.1.1.1.1.=.h p p i x (.].]._.~.'.'.V.'.{.^.^.oXXXXX{.' M m M M M = * % N ] ......#.d.i.B.#.d.B.i.i.i.i.i.i.i.i.i.i.i.i.i.i.i.i.i.i.i.i.i.i.i.i.i.",
"B.B.d.d.i.i.o.u.u.u.X.u.u.E ;.*.k.L.L.W.b.) ~ W _ _ U Y _ ^.`.XXXXoX^.^.%.$.^.^.{ M ; = m m m D  .d.B.B.d.d.d.d.i.i.i.i.i.B.i.i.i.i.i.i.i.i.i.i.i.i.i.i.i.i.i.i.",
"B.o.d.d.i.i.B.d.#.V.i.i.B.9.;.j.v.Q.Q.v.x.*.x A F F F D _ _ @.@.%.%.@.^.{.XXOXXX'.{ _ _ ' [ ' ] ] { ] ] } ] ..d.B.B.B.B.B.B.B.o.i.i.i.i.i.i.i.i.i.i.i.i.i.i.i.i.",
"o.B.i.i.i.i.i.i.i.i.i.d.B.6.;.j.c.Q.Q.P.k.*.x Z F J F F F F F _ _ _ J _ +.}.|.|.V.{.|.+X:X,X>X@X@._ G _ G _ } ..#.d.#.#.o.#.d.d.i.i.i.i.i.i.i.i.i.i.i.i.i.i.i.i.",
"B.B.i.i.i.i.i.i.i.i.i.d.i.6.;.j.c.v.c.j.j.&.x a b b b b b M J J J J J J _ [ +.[  .{ @.@X2XhXgX,X+XXX#XXXXX|.f.{ W G W G W ] o.B.i.#.i.i.i.i.i.i.i.i.i.i.i.i.i.i.",
"o.B.d.i.i.i.i.i.i.i.d.d.B.9.;.j.x.c.j.&.&.i z 7 - - ; ; - v M S S S J J J F F F F F _ ^.=X;X;X:X:X>X2X1X1X2X=X%.[ +.@.@.@.%.#.V.i.V.i.V.i.i.i.i.i.i.i.i.i.i.i.i.",
"B.B.i.i.i.i.i.i.i.i.d.d.d.9.;.*.:.,.:.&.i z u y 8 & + o # ; v v v v v v M J F F F F F _ [ [ [ @.oX+X:X<X1X1X>X:X>XhXxXxXkX,XOX}.}.}.|.}.{.i.i.i.i.i.i.i.i.i.i.i.",
"i.i.i.i.i.i.i.i.i.i.B.B.o.^ z p p h ;.h j u y u 9 @     o # & & ; & - - v M N M M M N S J J J G { $.'.XX#X#X@X$X1XmXNXNXNXmXhX,X,X,X<X>X+X{.i.i.i.i.i.i.i.i.i.i.",
"i.i.i.i.i.i.i.i.i.i.B.B.o.L 5 @ 9 u y y u u u u 9 < + . o @ 5 4 4 1 1 < 5 - v v = = b M J J J F F H Z _ F G } '.=XjXMXMXMXMXMXmXMXMXMXMXhX+X|.XXXX{.i.i.i.i.i.i.",
"i.i.i.i.i.i.i.i.i.o.B.B.#.~ 7 > 9 y y y u t t 3 6 V Z w + @ < 4 1 1 1 1 % $ - H W W Y S m b b = v b S J F J G ' @.}.XXXXOX-X>XjXMXNXNXNXmXxXcXjX1X+X{.V.}.V.i.i.",
"i.i.i.i.i.i.i.i.i.B.i.X.] K 7 4 9 y u y u u 3 O & ~ X.V + + < 4 4 1 6 1 @ o w ] B.f.o.Y N b m m m M N S S S S N S J F J F ' $.@X1XxXlXxXlXnXmXNXmX1X-XOX|.}.V.V.",
"i.i.i.i.i.i.i.i.B.B.X.Z w < < 8 9 y u y u u 3 o 5 ~ ..V $ @ < 4 4 1 1 1 @ o q | B.V.B.X...] ......] S = = = = = v S J J F F _ [ +.@.@.%.}.-XgXmXNXMXxX>XXXoX X X",
"i.i.i.i.i.i.i.i.B.B...B + @ 4 9 y y u y 9 8 8 a Z  ...C + + < 4 4 4 4 1 @ o w | B.B.B.B.B.B.B.B.B.o.Q D D D S D S S M M M M M M S J S J _ +.OX2XxXMXNXzX2X;XOXoX",
"i.i.i.i.i.i.i.i.B.B.O.C $ : 9 u u y u y 1 @ q Q B.V...C + @ < 4 1 4 1 < @ $ q | B.B.i.i.d.d.i.i.d.#.#.#.#.o.o.d.] D = = = v v b S J F J F F [ ^.=XjXmXMXmX1X+X}.",
"i.i.i.i.i.i.i.i.B.V...B # < 9 u u u u y 1 o q | V.V...C # @ < 4 4 < 2 2 q Z ! o.B.B.o.i.i.i.i.i.d.d.d.d.B.B.d.d.o.] W G W W W H M m v b v v m S G +.{.=X,X;X XV.",
"i.i.i.i.i.i.i.i.i.V...C # 2 9 u u y y 9 < @ q ] B.V.X.C % @ 1 1 1 1 o $ V O.V.B.i.i.i.i.i.i.i.i.i.i.i.i.i.i.i.i.i.B.B.B.B.B.B. .D m v m m m m m a b M [ '.N.B.o.",
"i.i.i.i.i.i.i.i.i.V.X.C # 2 r u u r 9 3 @ + q ! V.V.o.K 4 < 1 1 1 < o $ C X.B.B.i.i.i.i.i.i.i.i.i.i.i.i.i.i.i.i.i.i.i.i.i.B.i.#.X......... .|  .| ! | o.d.d.i.d.",
"i.i.i.i.i.i.i.i.i.p.X.C # : 9 u y y 4 < 5 q U O.o.! Z f 6 1 1 4 1 1 o + C ..B.B.i.i.i.i.i.i.i.i.i.i.i.i.i.i.i.i.i.i.i.i.i.i.i.i.B.B.B.B.B.B.B.B.B.B.B.B.d.B.B.B.",
"i.i.i.i.i.i.i.i.i.i.| C $ 2 9 u u 9 2 # B O.B.V.| a @ @ 1 4 1 1 1 < $ $ C X.V.B.i.i.i.i.i.i.i.i.i.i.i.i.i.i.i.i.i.i.i.i.i.i.i.i.#.B.B.#.B.d.B.d.i.i.i.i.o.B.o.B.",
"i.i.i.i.i.i.B.B...H e 5 2 3 y y u 9 2 $ C O.V.V.! q O @ < 4 4 < $ < s U | i.i.i.i.i.i.i.i.i.i.i.i.i.i.i.i.i.i.i.i.i.i.i.i.i.i.i.i.i.i.i.B.d.i.i.i.i.i.i.B.B.B.B.",
"i.i.i.i.i.i.B.B.] q + @ 3 9 9 y u 9 2 $ C X.V.B.! q + @ 1 4 4 > o & U #.i.i.i.i.i.i.i.i.i.i.i.i.i.i.i.i.i.i.i.i.i.i.i.i.i.i.i.i.i.i.i.i.d.d.i.i.i.i.i.i.d.B.o.B.",
"i.i.i.i.i.i.B.B.! q + + 2 9 y y u 9 2 $ C ..V.B.! q + @ 5 4 4 2 O < U i.V.i.i.i.i.i.i.i.i.i.i.i.i.i.i.i.i.i.i.i.i.i.i.i.i.i.i.i.i.i.i.i.i.i.i.i.i.i.i.i.i.i.B.o.",
"i.i.i.i.i.i.B.B.} w + 2 8 9 y y y 8 o $ B ..V.B.! a @ @ < 4 4 2 o % Z i.V.i.i.i.i.i.i.i.i.i.i.i.i.i.i.i.i.i.i.i.i.i.i.i.i.i.i.i.i.i.i.i.i.i.i.i.i.i.i.i.i.i.B.B.",
"i.i.i.i.i.i.p.i.] w @ 1 y y y 9 8 < @ $ V X.V.V.] q + @ < 4 4 > o < H o.i.i.i.i.i.i.i.i.i.i.i.i.i.i.i.i.i.i.i.i.i.i.i.i.i.i.i.i.i.i.i.i.i.i.i.i.i.i.i.i.i.o.B.o.",
"i.i.i.i.i.i.i.`.| w O : t u y 9 < < a U | #.B.B.] q + @ < 3 4 @ O % U $.V.i.i.i.i.i.i.i.i.i.i.i.i.i.i.i.i.i.i.i.i.i.i.i.i.i.i.i.i.i.i.i.i.i.i.i.i.i.i.i.i.i.B.B.",
"i.i.i.i.i.i.p...Q V e V T T u 3 @ % U o.V.i.B.B.] q + @ 1 8 e 7 1 w V } o.i.i.i.i.i.i.i.i.i.i.i.i.i.i.i.i.i.i.i.i.i.i.i.i.i.i.i.i.i.i.i.i.i.i.i.i.i.i.i.i.i.i.i.",
"i.B.#.B.i.i.Q C T p.$X3X&Xs.l 3 @ & H #.B.i.B.B.! q + @ 1 d Q  .| Y C w U X.i.i.i.i.i.i.i.i.i.i.i.i.i.i.i.i.i.i.i.i.i.i.i.i.i.i.i.i.i.i.i.i.i.i.i.i.i.i.i.i.i.i.",
"i.i.V.#.X.( T l T s.&X&X&Xs.1.u 3 8 U #.V.i.B.B.| q o 2 8 V I | | I e 5 q Z ! o.p.i.i.i.i.i.i.i.i.i.i.i.i.i.i.i.i.i.i.i.i.i.i.i.i.i.i.i.i.i.i.i.i.i.i.i.i.i.i.i.",
"i.i.i.#.( k l 1.2.8.8.8.8.4.2.1.j k ( i.V.i.B.B.] w @ 2 y u u u u u y r 1 2 q ! #.i.i.i.i.i.i.i.i.i.i.i.i.i.i.i.i.i.i.i.i.i.B.i.i.i.i.i.i.i.i.i.i.i.i.i.i.i.i.i.",
"B.o.( I I =.1.2.4.4.2.2.4.4.4.1.u T ( o.i.i.V.i.] w @ 3 y u u u y y u y t 3 6 q V | i.i.i.i.i.i.i.i.i.i.i.i.i.i.i.i.i.i.i.i.i.i.i.i.i.i.i.i.i.i.i.i.i.i.i.i.i.i.",
"B.X.T j =.2.2.2.4.4.4.4.4.4.4.2.l j ( i.V.i.i.i.| q o 2 y u u u y u y y u y 3 $ & U i.V.i.i.i.i.i.i.i.i.i.i.i.i.i.i.i.i.i.i.i.i.i.i.i.i.i.i.i.i.i.i.i.i.i.i.i.i."
};
