/* XPM */
static char *idle04[] = {
/* columns rows colors chars-per-pixel */
"80 80 240 2 ",
"   c #2D1916",
".  c #2F1B18",
"X  c #2B1614",
"o  c #321D1A",
"O  c #351C17",
"+  c #35211D",
"@  c #3B221C",
"#  c #362421",
"$  c #392521",
"%  c #3C2A26",
"&  c #3E2D29",
"*  c #332A2C",
"=  c #39393E",
"-  c #38353A",
";  c #332C2E",
":  c #42251F",
">  c #4B2A1E",
",  c #583E0B",
"<  c #442B23",
"1  c #4B2E24",
"2  c #432924",
"3  c #532F26",
"4  c #4C3026",
"5  c #43322C",
"6  c #4B352C",
"7  c #4C392C",
"8  c #54342A",
"9  c #5C362C",
"0  c #5A362A",
"q  c #443531",
"w  c #4A3C36",
"e  c #483B37",
"r  c #573D33",
"t  c #633B2E",
"y  c #653929",
"u  c #663D31",
"i  c #693E32",
"p  c #584005",
"a  c #6C5018",
"s  c #4D413B",
"d  c #494C34",
"f  c #54443B",
"g  c #5A4A3D",
"h  c #56453A",
"j  c #5A4B28",
"k  c #694728",
"l  c #694639",
"z  c #754838",
"x  c #74552E",
"c  c #786233",
"v  c #3C3D43",
"b  c #403F45",
"n  c #3F4048",
"m  c #44444B",
"M  c #4B4B4D",
"N  c #464445",
"B  c #544A43",
"V  c #5A4D43",
"C  c #564B46",
"Z  c #5D534B",
"A  c #585149",
"S  c #4C4D54",
"D  c #525153",
"F  c #53535A",
"G  c #5A595E",
"H  c #5C5654",
"J  c #635444",
"K  c #6B5C4B",
"L  c #685748",
"P  c #775848",
"I  c #635A52",
"U  c #645B57",
"Y  c #705147",
"T  c #6E614F",
"R  c #75654C",
"E  c #6B6253",
"W  c #63615C",
"Q  c #6B655C",
"!  c #6E685F",
"~  c #676157",
"^  c #766A55",
"/  c #7A6D56",
"(  c #766758",
")  c #7E7359",
"_  c #5C5C62",
"`  c #635F60",
"'  c #626162",
"]  c #6E6A61",
"[  c #65646B",
"{  c #6A6A6C",
"}  c #6A6765",
"|  c #726D63",
" . c #716D69",
".. c #75736A",
"X. c #79766B",
"o. c #7C796E",
"O. c #767165",
"+. c #6C6C72",
"@. c #7D7C72",
"#. c #7A7A7D",
"$. c #757479",
"%. c #64717E",
"&. c #5A7471",
"*. c #8B6A1C",
"=. c #9A761C",
"-. c #8B563C",
";. c #8F5A36",
":. c #876A2A",
">. c #987827",
",. c #87743D",
"<. c #8E7536",
"1. c #A27E24",
"2. c #885946",
"3. c #9A5D48",
"4. c #9D604C",
"5. c #9A6647",
"6. c #836455",
"7. c #9E6451",
"8. c #827453",
"9. c #8B7C5C",
"0. c #85765A",
"q. c #967859",
"w. c #886A4A",
"e. c #A36848",
"r. c #A97854",
"t. c #B27754",
"y. c #AD764B",
"u. c #817C6D",
"i. c #857765",
"p. c #807F74",
"a. c #8D7C74",
"s. c #8F746A",
"d. c #A17D70",
"f. c #7E8279",
"g. c #79BC4B",
"h. c #608C36",
"j. c #B08C2E",
"k. c #C59B31",
"l. c #D7AB3A",
"z. c #D3A83A",
"x. c #E8B83D",
"c. c #938556",
"v. c #B9855C",
"b. c #AB8751",
"n. c #9A8A65",
"m. c #978864",
"M. c #818176",
"N. c #83837A",
"B. c #8B8677",
"V. c #938573",
"C. c #A5946B",
"Z. c #A9966B",
"A. c #AB9A6E",
"S. c #A99066",
"D. c #AE9D70",
"F. c #A2947F",
"G. c #B39A73",
"H. c #B08F69",
"J. c #B5A174",
"K. c #94B46C",
"L. c #C28B5E",
"P. c #D7B04E",
"I. c #E9BA43",
"U. c #E2B955",
"Y. c #C9956A",
"T. c #C9966D",
"R. c #D8A87C",
"E. c #CDA779",
"W. c #E6B97F",
"Q. c #F7C545",
"!. c #EEC255",
"~. c #F6C662",
"^. c #2E6FA4",
"/. c #1F65A1",
"(. c #7D7D82",
"). c #677483",
"_. c #4A7497",
"`. c #007CFD",
"'. c #5A92B1",
"]. c #688DAA",
"[. c #2C82DE",
"{. c #838384",
"}. c #85858A",
"|. c #8A8A8D",
" X c #8A8986",
".X c #908D8C",
"XX c #97928A",
"oX c #8D8D92",
"OX c #858891",
"+X c #929295",
"@X c #98989B",
"#X c #908F93",
"$X c #AA988A",
"%X c #A99C93",
"&X c #AE978A",
"*X c #B6A395",
"=X c #B3A391",
"-X c #9C9DA2",
";X c #A3A3A5",
":X c #ACABAB",
">X c #A5A4A7",
",X c #AEAEB2",
"<X c #B4B4B5",
"1X c #B6B7BA",
"2X c #BABABB",
"3X c #B8B7B6",
"4X c #B6ABA5",
"5X c #DAAC83",
"6X c #DAB388",
"7X c #CEAF91",
"8X c #E7B88A",
"9X c #E9BD92",
"0X c #E6B486",
"qX c #C7B5A8",
"wX c #C6BAB2",
"eX c #D8C186",
"rX c #EFC194",
"tX c #EBC59E",
"yX c #F2C395",
"uX c #F4C698",
"iX c #F6C89B",
"pX c #EEC187",
"aX c #EDC7A3",
"sX c #ECCEB3",
"dX c #CDC1B7",
"fX c #BEBEC1",
"gX c #C3C2C5",
"hX c #CBCACD",
"jX c #C5C5CA",
"kX c #CDCDD2",
"lX c #D5D5DC",
"zX c #DADADE",
"xX c #D3D3D5",
"cX c #D2D1C9",
"vX c #E4D1C4",
"bX c #EADAD4",
"nX c #DBDCE3",
"mX c #E8E8E9",
"MX c #F6F6F6",
"NX c #9CC782",
/* pixels */
"p.p.p.p.p.p.p.p.p.p.p.p.p.p.p.@.@. X<XlXnXnXnXnXnXnXnXnXnXnXnXnXnXlX,XoX}.p.p.p.M.u.f.f.p.p.p.p.p.p.p.p.p.p.p.p.p.p.p.p.p.p.p.p.p.p.p.p.p.p.M.M.@.p.p.p.p.p.p.p.",
"p.p.p.p.p.p.p.p.p.p.p.M.p.@.p.N.XX:XjXzXnXnXnXnXnXnXnXzXnXnXnXlXfXfX-XOX(.@.@.@.f.o.u.M.p.p.p.p.p.p.p.p.p.p.p.p.p.p.p.p.p.p.p.p.p.p.p.p.p.p.@.M.M.p.p.p.p.p.p.p.",
"p.p.p.p.p.p.p.p.p.p.p.p.f.f.N.@XfXnXnXnXnXnXnXnXnXnXnXnXnXnXlXjX>X+XoXOX|.N.N.N.M.M.f.f.p.p.p.p.p.p.p.p.p.p.p.p.p.p.p.p.p.p.p.p.p.p.p.p.p.p.p.@.p.p.p.p.p.p.p.p.",
"p.p.p.p.p.p.p.p.p.p.@.@.f.XX4XgXlXnXnXnXnXnXnXnXnXnXnXnXnXjX,X-XOXOX>XfXwX1X1X2X:XXXo.@.p.p.p.p.p.p.p.p.p.p.p.p.p.p.p.p.p.p.p.p.p.p.p.p.p.p.p.M.p.p.p.p.p.p.p.p.",
"p.p.p.p.p.p.p.p.M.M.M.N.B.:XkXnXnXnXnXnXnXnXnXnXnXnXnXzXxXfX;X@X-X;XjXnXnXnXmXnXhX:X.XN.p.p.p.p.p.p.p.p.p.p.p.p.p.p.p.p.p.p.p.p.p.p.p.p.p.p.p.p.p.p.p.p.p.p.p.p.",
"p.p.p.p.p.p.p.p.f.f.N.XX:XgXzXnXnXnXnXnXnXzXnXnXnXnXlXhXfXfXhXhXjXkXlXnXnXnXnXnXnXlXfX;XN.@.p.p.p.p.p.p.p.p.p.p.p.p.p.p.p.p.p.p.p.p.p.p.p.p.p.p.p.p.p.p.p.p.p.p.",
"p.p.p.p.p.p.p.p.o.O.$.+X3XjXhXhXkXxXlXnXnXnXnXnXnXnXlXkXjXhXnXnXnXnXnXnXnXnXnXkXhXjXfX%X Xp.p.p.p.p.p.p.p.p.p.p.p.p.p.p.p.p.p.p.p.p.p.p.p.p.p.p.p.p.p.p.p.p.p.p.",
"p.p.p.p.p.p.M.M...W ' {.:X3X3X2X3X2XkXlXzXnXnXzXnXnXnXnXnXnXnXnXnXnXnXnXnXnXkXjX,X-XoXoX|.{.p.p.u.f.p.p.p.p.p.p.p.p.p.p.p.p.p.p.p.p.p.p.p.p.p.p.p.p.p.p.p.p.p.p.",
"p.p.p.p.p.p.p.N..._ F [ #.+X,X3X<X2X2XjXjXjXkXzXnXnXnXnXnXnXnXnXnXnXnXnXnXnXnXkXjX,X-X@X|.{.N.p.p.p.p.p.p.p.p.p.p.p.p.p.p.p.p.p.p.p.p.p.p.p.p.p.p.p.p.p.p.p.p.p.",
"p.p.p.p.p.p.p.p.o.{ _ D F #.>X3X2X<X3X<X<X3XfXkXlXnXnXnXnXnXnXnXnXnXnXnXnXnXnXnXlXjX2X;XoX{.N.p.@.p.p.p.p.p.p.p.p.p.p.p.p.p.p.p.p.p.p.p.p.p.M.@.p.p.p.p.p.p.p.p.",
"p.p.p.p.p.p.p.p.f.o...' G #.>X2X3X<X<X<X<X3X3X2XjXxXnXnXnXnXnXnXnXnXnXnXnXnXnXnXnXnXkX,X#X{.p.p.M.p.p.p.p.p.p.p.p.p.p.p.p.p.p.p.p.p.p.p.p.p.p.M.p.p.p.p.p.p.p.p.",
"p.p.p.p.p.p.p.p.f.M.@.' G #.>X2X2X<X2X<X,X>X;X;X,XwXvXvXvXcXvXsXvXvXlXnXnXnXnXnXnXnXlX,X#X{.N.p.p.p.p.p.p.p.p.p.p.p.p.p.p.p.p.p.p.p.p.p.p.p.@.M.p.p.p.p.p.p.p.p.",
"p.p.p.p.p.p.p.p.@.@...' _ u.;X3XwX3X3X<X;X+XoXoX%X7XtXuXrXrXtXyXtXaXvXzXnXlXlXlXnXnXkXfXOX(.p.p.p.p.p.p.p.p.p.p.p.p.p.p.p.p.p.p.p.p.p.p.p.p.p.p.p.p.p.p.p.p.p.p.",
"p.p.p.p.p.p.p.p. .I C U $.].@X*XqXqX*X-XoXoXXX=X7X9XuXuXyXyXrXrX9X9XaXsXwX,X-XoX-XjXlXfX+X(.M.p.p.p.p.p.p.p.p.p.p.p.p.p.p.p.p.p.p.p.p.p.p.p.p.p.p.p.p.p.p.p.p.p.",
"p.p.p.p.p.p.p.p.] q % H {.oX|.%X7X9X=XoXOXOX$X5X0XR.R.E.E.0XpXpXuX9X0XE.&X.X$._ [ -XfX-XOX(.a.p.p.p.p.p.p.p.p.p.p.p.p.p.p.p.p.p.p.p.p.p.p.p.p.p.p.p.p.p.p.p.p.p.",
"p.p.p.p.p.p.N.p.! w * H {.oX|.%X6X8X=XoXOX|.$Xv.v.5.z z -.n.6XiXuX5Xr.2.6. X(._ _ [ [ [ _ [ $.M.M.p.p.p.p.p.p.p.p.p.p.p.p.p.p.p.p.p.p.p.p.p.p.p.p.p.p.p.p.p.p.p.",
"p.p.p.p.p.p.N.N.! e $ U {.(.[ s.&X*X%XoXOX|.XXT.T.V.s.Y y 3.6XiX9X0XG.s.X.$.[ _ F G ' W '  .o.M.p.p.p.p.p.p.p.p.p.p.p.p.p.p.p.p.p.p.p.p.p.p.p.p.p.p.p.p.p.p.p.p.",
"p.p.p.p.p.p.N.p.! e % H #.` q e  .|.|.}.OXoX&X6XaXvXwXa.z 5.E.yX9XtXvXhX-X[ F F '  .@.o.f.@.@.p.@.M.p.p.p.p.p.p.p.p.p.p.p.p.p.p.p.p.p.p.p.p.p.p.p.p.p.p.p.p.p.p.",
"p.p.p.p.p.p.p.M.! e o & s q + # e C N Z s.*X9X9XaXbXkXK.h.c.W.yX9XiXbXxX-X[ F } ..@.M.M.M.M.p.p.p.p.p.p.p.p.p.p.p.p.p.p.p.p.p.p.M.p.@.p.p.p.p.p.p.p.p.p.p.p.@.M.",
"p.p.p.p.p.p.M.M. .B 5 & & $ o   .   X @ 2.5X9X9XaXvXcXNXg.K.W.pX9XaXvXcX-X_ _ ..f.@.p.p.p.p.p.p.p.p.p.p.p.p.p.p.p.p.p.p.p.p.p.p.@.M.M.p.p.p.p.p.p.p.p.p.p.p.M.M.",
"p.p.p.p.p.p.p.p.o.O.| O.! C $     X X @ z v.R.8X9XiXtX9XeXeXpXrX9XiXiXtXF.` ` ..M.M.p.p.M.M.@.p.p.p.p.p.p.p.p.p.p.p.p.p.p.p.p.p.p.p.p.p.p.p.p.p.p.p.p.p.p.p.M.@.",
"p.p.p.p.p.p.p.p.M.M.M.N.M.] V q @ O O > i ;.t.T.W.0X9XuXyXuXuXyXiX9X0X*XV. .{ o.f.p.p.p.@.M.M.p.p.p.p.p.p.p.p.p.p.p.p.p.p.p.p.p.p.p.p.p.p.p.p.p.p.p.p.p.p.p.@.M.",
"p.p.p.p.p.p.p.p.p.p.p.M.f.p.@.U e @ > 0 0 y -.y.Y.W.rXyX9X8X9X9X9X6X&Xa.p.o.o.p.p.p.p.p.@.M.p.p.p.p.p.p.p.p.p.p.p.p.p.p.p.p.p.p.p.p.p.p.p.p.p.p.p.p.p.p.p.p.p.p.",
"p.p.p.p.p.p.p.p.p.p.p.p.p.M.f.@.Q V 8 : O : k e.L.Y.Y.T.Y.v.e.q.C.F.B.p.f.M.M.p.p.p.p.p.p.p.p.p.p.p.p.p.p.p.p.p.p.p.p.p.p.p.p.p.p.p.p.p.p.p.p.p.p.p.p.p.p.p.p.p.",
"p.p.p.p.p.p.p.p.p.p.p.p.p.o.O.@.M.X.Z 7 & 5 l r.v.v.v.L.L.r.-.P i.s.B.p.p.O...p.M.M.@.p.p.p.p.p.p.p.p.p.p.p.p.p.p.p.p.p.p.p.p.M.p.p.p.p.p.p.p.p.p.p.p.p.p.p.p.p.",
"p.p.p.p.p.p.p.p.p.p.M.M.p.! L K m.C.n.c.c.c.n.Z.Z.Z.G.E.0XR.R.E.H.v.Z.n.0.J U X.M.M.M.p.p.p.p.p.p.p.p.p.p.p.p.p.p.p.p.p.p.p.M.@.p.p.p.p.p.p.p.p.p.p.p.p.p.p.p.p.",
"p.p.p.p.p.p.p.p.p.M.@...Q E T ) n.A.D.J.D.J.D.A.A.A.D.E.5X7X7XG.r.r.S.C.m.R K Q | o.@.M.p.p.p.p.p.p.p.p.p.p.p.p.p.p.p.p.p.p.@.M.p.p.p.p.p.p.p.p.p.p.p.p.p.p.p.p.",
"p.p.p.p.p.p.p.p.p.M.o.U J R m.A.A.A.A.A.A.Z.Z.Z.A.A.A.D.A.m.8./ ) 0.m.A.A.S.9.L V ! M.M.p.p.p.p.p.p.p.p.p.p.p.p.p.p.p.p.p.M.@.M.p.p.p.p.p.p.p.p.p.p.p.p.p.p.p.M.",
"p.p.p.p.p.p.N.M.u.o.) ) 9.m.C.D.A.A.A.Z.c./ 0.S.D.A.A.A.A.n.m.m.m.m.C.A.D.A.9.l V ! @.M.p.p.p.p.p.p.p.p.p.p.p.p.p.p.p.p.p.p.p.p.p.p.p.p.p.p.p.p.p.p.p.p.p.p.p.@.",
"p.p.p.p.o.X.O.O.O.^ ) i.n.C.A.A.A.A.D.C.8.g L 9.C.A.A.D.A.D.A.A.A.A.A.A.D.A.c.L V ! M.M.p.p.p.p.p.p.p.p.p.p.p.p.p.p.p.p.p.p.p.p.p.p.p.p.p.p.p.p.p.p.p.p.p.p.p.M.",
"p.p.N.u.! J V V J K ^ ) 0.m.n.D.A.A.D.Z.8.g V ^ c.n.D.D.A.A.A.A.A.A.A.A.A.A.9.J V ! @.M.p.p.p.p.p.p.p.p.p.p.p.p.p.p.p.p.p.p.p.p.p.p.p.p.p.p.p.p.p.p.p.p.p.p.p.p.",
"p.p.M.u.U g g K ^ 0.9.9.9.m.m.n.A.Z.n.0.J w 7 h J 8.n.C.D.D.D.D.D.A.A.A.J.A.9.h f ~ M.M.p.p.p.p.p.p.p.p.p.p.p.p.p.p.p.p.p.p.p.p.p.p.p.p.p.p.p.p.p.p.p.p.p.p.p.p.",
"p.M.M.o.E g L q.C.C.A.A.C.m.0.9.n.n.R f 5 # . o 5 V / m.C.A.C.C.Z.C.C.C.Z.S./ 4 & W @.M.M.M.p.p.p.p.p.p.p.p.p.p.p.p.p.p.p.p.p.p.p.p.p.p.p.p.p.p.p.p.p.p.p.p.p.p.",
"p.M.M.@.~ g g K ) m.A.J.A.C.n.9./ L f % + . . . @ w J K K R R R R R R R L g j @ & ~ M.N.f.M.p.M.p.p.p.p.p.p.p.p.p.p.p.p.p.p.p.p.p.p.p.p.p.p.p.p.p.p.p.p.p.p.p.p.",
"p.p.M.o.~ B h g P n.J.J.G.D.H.q.R f & + . . . . @ 5 f f h g V h f g g f 5 + X X & V ] o.o.M.M.M.p.p.p.p.p.p.p.p.p.p.p.p.p.p.p.p.p.p.p.p.p.p.p.p.p.p.p.p.p.p.p.p.",
"p.p.M.@.~ g l 5.v.E.6XrX6XT.e.2.) E e o   . . . # 7 f J K T T K E T E T s + X   + # e I o.N.M.o.p.p.p.p.p.p.p.p.p.p.p.p.p.p.p.p.p.p.p.p.p.p.p.p.p.p.p.p.p.p.p.p.",
"p.@.M.@.R Y 2.v.R.0XyXiX9XY.e.3.i. .f o   . . . # 5 h K ^ / / ( ^ ( ( K f + . . . X # A o.M.M.@.p.p.p.p.p.p.p.p.p.p.p.p.p.p.p.p.p.p.p.p.p.p.p.p.p.p.p.p.p.p.p.p.",
"p.M.M.u.6.-.t.R.9XyXyXyX9XT.3.-.i.| B $ . o . o # 5 h L R ( ^ ^ / ) ) ( g @ . . . . $ Z o.M.M.M.M.p.p.p.p.p.p.p.p.p.p.p.p.p.p.p.p.p.p.p.p.p.p.p.p.p.p.p.p.p.p.p.",
"p.p.f.p.6.;.t.5XyXyXyXyX9XT.e.2.i.@.} L r 2 2 $ 1 8 h l Y l z ( V.%X*X%X0.h : @ . X % Z o.N.M.M.@.p.p.p.p.p.p.p.@.M.p.p.p.p.p.p.p.p.p.p.p.p.p.p.p.p.p.p.p.p.p.p.",
"p.p.p.u.6.-.t.R.yXyXyXpX0XL.;.2.i.@.f.@.I 8 < 1 8 9 i k u t t 6.%XwXqX%Xs.z 4 @ . X # f Q o.o.f.M.p.p.p.p.p.p.p.@.M.p.p.p.p.p.p.p.p.p.p.p.p.p.p.p.p.p.p.p.p.p.p.",
"p.p.p.p.6.-.t.R.uXuX9XR.Y.y.-.2.i.o.N.f.L 7 < 4 8 9 u i i t t 6.*X4XXX2.z u 3 $ o . o # 5 A ..M.M.p.p.p.p.p.p.p.M.p.p.p.p.p.p.p.p.p.p.p.p.p.p.p.p.p.p.p.p.p.p.p.",
"p.p.p.p.6.-.t.R.9XiX8XY.y.3.3.6.i.@.M.o.R k a j y t t i u y t 6.%XqX&X6.P u 0 2 $ o o X . s O.N.M.p.p.p.p.p.p.p.p.p.p.p.p.p.p.p.p.p.p.p.p.p.p.p.p.p.p.p.p.p.p.p.",
"p.p.p.o.6.-.t.R.iXiX0XL.3.2.i.p.#.p.p.u.w.:.*.*.*.k k l i u i 6.&XqXwX4Xd.Y r h w $ o X + s ! @.M.@.p.p.p.p.p.p.p.p.p.p.p.p.p.p.p.p.p.p.p.p.p.p.p.p.p.p.p.p.p.p.",
"N.@.8.,.:.*.y.R.9XiX0Xt.;.2.i.@.@.p.8.w.j.k.j.=.:.c L K L Y P ^ s.F.XXa.i.P K K V 5 o   + $ s Z | M.M.p.p.p.p.p.p.p.p.p.p.p.p.p.p.p.p.p.p.p.p.p.p.p.p.p.p.p.p.p.",
"u.9.<.>.=.1.L.W.uXuX8XY.y.q.n.V.a.h.c.j.k.x.z.>.:.c ) / / ( ^ ^ Q ( ^ T ^ ^ / / L 6 .   .     e Q u.M.M.p.p.p.p.p.p.p.p.p.p.p.M.p.p.p.p.p.p.p.p.p.p.p.p.p.p.p.p.",
":.>.k.P.x.l.U.W.9XyX9X8X5X6X6XT.b.=.j.l.Q.!.k.j.:.R / / ^ ^ ^ ^ ^ ( ^ ^ ^ ^ ( / K 5 +   o X   5 Q f.M.M.p.p.p.p.p.p.p.p.p.p.M.@.p.p.p.p.p.p.p.p.p.p.p.p.p.p.p.p.",
",.<.j.z.x.Q.~.W.9XyXyXyXuXiXiXR.<.*.k.Q.Q.Q.k.:.j g Z E ^ / / ^ / ^ ^ ^ ^ ^ / ^ K 5 +   .   . e Q M.M.M.p.p.p.p.p.p.p.p.M.@.p.p.p.p.p.p.p.p.p.p.p.p.p.p.p.p.p.p.",
"f.i.<.>.j.x.~.W.yXyX9XyX9XyX8XH.:.a j.U.Q.!.b.g - - N Z E ^ R ^ ^ ^ ^ ^ ^ ^ ^ ^ J 7 .   o   . e Q M.M.@.p.p.p.p.p.p.M.@.M.p.p.p.p.p.p.p.p.p.p.p.p.p.p.p.p.p.p.p.",
"f.o.,.*.=.j.P.W.yXyXyXiX9XE.b.:.a j f.'.'.'.].&.' [ [ H N N B N s B V J J J J J g & o     X X q ~ f.M.p.M.@.M.M.@.M.p.p.p.p.p.p.p.p.p.p.p.p.p.p.p.p.p.p.p.p.p.p.",
"f.i.8.:.:.:.y.J.5XR.5X5XR.t.a , p d /.[.[.[.[.].|.oX}.[ M N m m m N N w w w w w q $ o $ 5 & & f ! M.M.p.u.f.@.M.p.p.p.p.p.p.p.p.p.p.p.p.p.p.p.p.p.p.p.p.p.p.p.p.",
"M.o.M.9.u.9.9.5.e.e.e.e.;.;.p p p d /.[.[.[.[.].oXoXOX{.(.).(.(.(.+.S - - - - - ; # @ g Q O.| ..o.p.M.p.@.M.u.f.p.p.p.p.p.p.p.p.p.p.p.p.p.p.p.p.p.p.p.p.p.p.p.p.",
"M.f.f.f.#.p.i.6.2.2.2.w.2.:.x a *.c ].'.[.^.^.].$.$.$.$.(.(.OX+X#X}.+._ F F _ F M - * N G W W Q o.M.M.M.M.M.M.u.p.p.p.p.p.p.p.p.p.p.p.p.p.p.p.p.p.p.p.p.p.p.p.p.",
"u.f.M.o.M.M.u.u.u.u.u.o.M.w.:.j.z.I.!.P.j.<.c Z F _ _ F _ [ (.OXOX}.}.{.}.}.}.OX$.D v = 7 e b C ] @.@.@.@.@.f.f.p.M.p.f.p.@.M.p.p.p.p.p.p.p.p.p.p.p.p.p.p.p.p.p.",
"o.M.M.M.u.f.f.u.f.M.f.f.M.8.c j.z.Q.Q.Q.k.=.c Z F F F S S _ [ +.{ { +.+.(.|.#X#X}.$.+.$.].{.].i.{ ' ' W ' ' { @.M.M.M.f.M.M.M.p.p.p.p.p.p.p.p.p.p.p.p.p.p.p.p.p.",
"M.o.M.o.M.M.M.f.M.o.f.f.c.8.*.j.l.Q.I.l.j.j.c A S m S S S S F S F F F _ [ (.{.(.u.].OX-X<X2X3X;X#.[ [ [ [ [ { ............o.@.p.p.p.p.p.p.p.p.p.p.p.p.p.p.p.p.p.",
"M.M.M.M.o.M.f.u.M.M.f.f.f.8.a j.l.x.k.=.=.*.x s v v v v v m S _ F F F S _ _ _ ` U _ { #X<X2X2X<X:X;X;X;X;X;X|.[ G G G G G } o.M.p.p.p.p.p.p.p.p.p.p.p.p.p.p.p.p.",
"p.p.p.p.p.p.p.p.M.o.f.f.u.8.:.j.k.k.1.*.*.x k r q ; * * * - m m m m m m S F F F F S _ $.OX#XoX@X;X,X<X2XfX2X>X}.(.}.+X+XoX X{.f.p.{.p.p.p.p.p.@.p.p.p.p.p.p.p.p.",
"p.p.p.p.p.p.p.p.M.M.M.M.u.8.c *.*.*.*.*.*.y u t 8 2 . o . * - - - v - v m S F F F D F F G G _ [ #.#X;X,X<X,X,X,X2XxXmXMXmXgX@XoXoX#X#X#X X{.p.p.p.p.p.p.p.p.p.p.",
"p.p.p.p.p.p.p.p.M.M.M.M.M.E j , k k x k i u 0 3 6 V A w + + & 5 & & & 5 e v v v v v n m S F D F [ { $.(.#.#.}.@X<XzXMXMXMXmXlXhXhXhXkXjX>X|.#.{.{.p.p.@.p.p.p.p.",
"p.p.p.p.p.p.p.p.o.M.o.o.! V @ : 0 i i u u u 3 O 5 W ..V + + > 4 1 1 6 1 & ; - v N n N M S S S S S S D D D F _ $.+X2XxXlXlXxXzXmXmXMXMXmXkX:X-X;X@X XN.p.M.M.p.M.",
"p.p.p.p.p.p.p.p.M.M.X.Z 7 $ < 4 9 u i u l u 3 @ 5 U X.V # @ < 4 4 1 1 1 % # e G O...! D v = = = = v M F F F F _ _ +.$.+.$.{.@X2XnXMXMXMXmXmXzXbXhX>X X}. X{.N.p.",
"p.p.p.p.p.p.p.p.p.M...B + @ 4 9 t i i u 0 8 8 w A  ...C # O < 4 4 4 1 1 @ o w | M.B.f.W D D M A S M M m m m m m m S S S D G +.}.;X,X<X<X2XcXzXMXmXhX<X@XOX{.{.N.",
"p.p.p.p.p.p.p.p.M.M.O.C $ : 9 l i u i t 1 O w ! p.N...C # @ < 4 1 4 1 1 $ $ w | M.M.M.o.f.o.o.o.f.| D v = = = v v S F F F F F _ _ _ _ _ +.oX4XxXmXmXmX3X@X|.|.|.",
"p.p.p.p.p.p.p.p.M.N...B # : y u i i i u 1 @ w ! N.N...B + @ < 4 1 1 @ 2 w Z Q o.f.M.M.f.M.f.M.f.f.f. .W G W W W H S v v v v v n M F F S _ [ ].>XhXmXMXmXhX,X@X|.",
"p.p.p.p.p.p.p.p.p.N.X.B # 2 9 u u u u 9 > o w ] M.N.o.C $ @ < 4 4 < @ $ B X.N.M.M.p.p.p.p.p.p.p.p.p.p.M.M.M.M.M...H N b b N b N M S S S M S G +.|.,XhXvXbX2X@X{.",
"p.p.p.p.p.p.p.p.p.N...B $ : y i u u 9 3 : + w ] N.N.o.J 4 < 1 1 4 < O $ C O.M.M.p.p.p.p.p.p.p.p.p.p.p.M.p.p.M.M.o.X. . . ...O.W M = - - = = v n m D ' ].@X+X{.M.",
"p.p.p.p.p.p.p.p.p.a...C @ : 9 i i t 6 < 5 w I ..o.! Z f 6 1 1 4 4 < O + B ..M.M.p.p.p.p.p.p.p.p.p.p.p.p.p.p.p.p.p.M.M.N.f.M.M.O.G M M B M D D M M M D } N.N.p.p.",
"p.p.p.p.p.p.p.p.p.p. .B # < 9 i i 0 2 $ B  .p.N.| s @ @ 1 4 1 4 1 < $ $ C X.N.M.p.p.p.p.p.p.p.p.p.p.p.p.p.p.p.p.p.p.p.p.f.f.M.f.f.o.f.f.f.o.o.f.@.@.o.o.M.f.p.p.",
"p.p.p.p.p.p.M.M.X.I r 5 2 3 u u i y : # B X.N.B.! e O @ 1 4 1 < 2 2 s I  .p.p.p.p.p.p.p.p.p.p.p.p.p.p.p.p.p.p.p.p.p.p.p.p.p.p.p.M.M.M.M.f.M.M.M.M.M.M.M.p.p.p.p.",
"p.p.p.p.p.p.M.M.} w o @ 2 3 u u u 9 2 $ B ..N.N.! e + @ 1 4 4 : o & I @.N.p.p.p.p.p.p.p.p.p.p.p.p.p.p.p.p.p.p.p.p.p.p.p.p.p.p.p.M.M.M.o.f.f.u.M.p.p.p.p.p.p.p.p.",
"p.p.p.p.p.p.M.M.} w o + 3 9 u u u t : $ B ..B.p.! w + @ < 4 4 : O % I @.N.p.p.p.p.p.p.p.p.p.p.p.p.p.p.p.p.p.p.p.p.p.p.p.p.p.p.p.M.o.M.M.u.f.f.u.p.p.p.p.p.p.p.p.",
"p.p.p.p.p.p.M.M.} e + : 8 9 u u t 8 O @ B  .N.p.] w + @ 4 4 4 < o % Z u.N.p.p.p.p.p.p.p.p.p.p.p.p.p.p.p.p.p.p.p.p.p.p.p.p.p.p.p.M.M.M.o.M.u.f.M.p.p.p.p.p.p.p.p.",
"p.p.p.p.p.p.p.p.| w O 1 u u u 9 8 < @ $ C X.N.N.] s O @ < 4 4 : o 2 U o.p.p.p.p.p.p.p.p.p.p.p.p.p.p.p.p.p.p.p.p.p.p.p.p.p.p.p.p.M.M.M.o.p.p.p.p.p.p.@.M.p.p.p.p.",
"p.p.p.p.p.p.(.N.] e O 2 9 u u 9 < < s I | @.M.M.! e + @ 4 4 1 @ O % H @.N.p.p.p.p.p.p.p.p.p.p.p.p.p.p.p.p.p.p.p.p.p.p.p.p.p.p.p.o.M.M.M.p.p.p.p.p.p.@.M.p.M.p.p.",
"p.p.p.p.p.p.u.X.Q V r V 2.z i 3 @ & I o.M.M.M.M.! e + @ 1 7 r 7 6 q Z } o.p.p.p.p.p.p.p.p.p.p.p.p.p.p.p.p.p.p.p.p.p.p.p.p.p.p.p.M.M.f.u.p.p.p.p.p.p.M.p.M.@.p.p.",
"p.p.p.p.p.a.Q C Y a.%X4X>Xd.z 3 @ % H @.M.M.M.M.! s + @ 4 l Q  . .U s e Z X.N.p.p.p.p.p.p.p.p.p.p.p.p.p.p.p.p.p.p.p.p.p.p.p.p.p.f.M.o.M.p.p.p.p.p.p.p.p.M.@.p.p.",
"p.M.p.p.X.( Y z Y d.*X*X&Xd.2.y 3 4 U o.M.@.N.M.| e o : 8 V P O.O.P r 2 w Z Q o.p.a.@.@.p.p.p.p.p.p.p.p.p.p.p.p.p.p.p.p.p.p.p.p.u.f.M.o.M.M.p.p.p.p.p.p.M.@.p.p.",
"p.p.p.o.P Y i 3.4.7.7.7.7.7.3.-.z l ( @.N.p.M.M.] e + 1 t u i i i i i u 1 2 w ! p.p.p.p.p.p.p.p.p.p.p.p.p.p.p.p.p.p.p.p.p.p.p.p.M.u.p.p.u.f.p.p.p.p.p.p.p.M.p.p.",
"M.o.( P P 2.2.3.4.4.3.3.4.4.4.3.z l ( @.N.p.p.a.] e @ 1 u i u i u u u u y 3 6 w A ] @.N.p.p.p.p.p.p.p.p.p.p.p.p.p.p.p.p.p.p.p.p.@.p.p.p.M.p.p.p.p.p.p.p.p.p.p.p.",
"M.X.Y l -.2.4.3.4.4.4.4.4.4.4.3.z l ( @.N.p.p.p.] e O 1 t i u u u u u u u u 8 O 5 U @.N.p.p.p.p.p.p.p.p.p.p.p.p.p.p.p.p.p.p.p.p.M.p.p.p.@.M.p.p.p.p.p.p.p.p.p.p."
};
