/* XPM */
static char *idle03[] = {
/* columns rows colors chars-per-pixel */
"80 80 234 2 ",
"   c #2D1916",
".  c #2F1B18",
"X  c #2B1614",
"o  c #321D1A",
"O  c #341C18",
"+  c #35211D",
"@  c #3A221C",
"#  c #362420",
"$  c #382522",
"%  c #3C2A26",
"&  c #3D2C29",
"*  c #342A2C",
"=  c #37363C",
"-  c #39393E",
";  c #383437",
":  c #312829",
">  c #43251E",
",  c #553615",
"<  c #442B23",
"1  c #4B2E24",
"2  c #412F2A",
"3  c #412521",
"4  c #522F25",
"5  c #4C3026",
"6  c #43322C",
"7  c #4A352C",
"8  c #53342A",
"9  c #5C362C",
"0  c #59372B",
"q  c #453632",
"w  c #4A3C36",
"e  c #4A3C36",
"r  c #583E33",
"t  c #633A2E",
"y  c #663A2B",
"u  c #663D31",
"i  c #693E32",
"p  c #594105",
"a  c #6E5318",
"s  c #4E423C",
"d  c #4A4935",
"f  c #53443B",
"g  c #5A4A3D",
"h  c #564338",
"j  c #5C4B2C",
"k  c #67442B",
"l  c #71482D",
"z  c #694538",
"x  c #764838",
"c  c #745730",
"v  c #756131",
"b  c #3C3C42",
"n  c #403F45",
"m  c #424144",
"M  c #44454B",
"N  c #4B4B4D",
"B  c #4C4742",
"V  c #554A43",
"C  c #5A4D43",
"Z  c #554A45",
"A  c #5E544C",
"S  c #575048",
"D  c #4C4D54",
"F  c #515155",
"G  c #53535A",
"H  c #5B5B5D",
"J  c #5C5755",
"K  c #5A4F50",
"L  c #6B5D4B",
"P  c #685645",
"I  c #775848",
"U  c #635B53",
"Y  c #675C56",
"T  c #74534A",
"R  c #75634A",
"E  c #6A6155",
"W  c #62615D",
"Q  c #6B645B",
"!  c #6E685F",
"~  c #766A55",
"^  c #7A6C55",
"/  c #756758",
"(  c #7A6E56",
")  c #5C5C62",
"_  c #636264",
"`  c #6E6A62",
"'  c #64646B",
"]  c #6C6B6C",
"[  c #726D64",
"{  c #766A63",
"}  c #76736B",
"|  c #79766C",
" . c #7B796E",
".. c #767165",
"X. c #6D6D72",
"o. c #7E7C72",
"O. c #75747A",
"+. c #7A7A7E",
"@. c #757377",
"#. c #64717D",
"$. c #5E6764",
"%. c #88681C",
"&. c #96731C",
"*. c #8D5738",
"=. c #866A29",
"-. c #987723",
";. c #87723A",
":. c #947A37",
">. c #876A2D",
",. c #A17E25",
"<. c #815F1E",
"1. c #885946",
"2. c #9A5E48",
"3. c #9D604C",
"4. c #996647",
"5. c #836556",
"6. c #9D6753",
"7. c #8B7B5C",
"8. c #847657",
"9. c #89714E",
"0. c #A26847",
"q. c #A87654",
"w. c #B47953",
"e. c #A9744F",
"r. c #817C6D",
"t. c #847864",
"y. c #807F74",
"u. c #887971",
"i. c #947A6B",
"p. c #A27F72",
"a. c #7F8278",
"s. c #5FA539",
"d. c #B28D2E",
"f. c #C79C30",
"g. c #D6AA3A",
"h. c #E5B73D",
"j. c #938059",
"k. c #A68358",
"l. c #BB865A",
"z. c #AD8C48",
"x. c #988865",
"c. c #818176",
"v. c #83837A",
"b. c #8A8679",
"n. c #978779",
"m. c #938B73",
"M. c #B98B64",
"N. c #A5946B",
"B. c #A9976C",
"V. c #AB9A6E",
"C. c #A69066",
"Z. c #AE9D70",
"A. c #A4937C",
"S. c #B59D72",
"D. c #A98F6C",
"F. c #B8A974",
"G. c #8AB364",
"H. c #C38B5E",
"J. c #E7BA45",
"K. c #E9B94C",
"L. c #C9976B",
"P. c #C8946C",
"I. c #CBA47B",
"U. c #D9A77B",
"Y. c #DDB17B",
"T. c #CAA14F",
"R. c #F7C546",
"E. c #F1C651",
"W. c #F3C361",
"Q. c #9CC061",
"!. c #7C7C81",
"~. c #667380",
"^. c #467699",
"/. c #007CFD",
"(. c #2065A1",
"). c #847F81",
"_. c #6693AE",
"`. c #5A89A2",
"'. c #2C81DD",
"]. c #848384",
"[. c #85858A",
"{. c #8B8A8D",
"}. c #8A8787",
"|. c #999289",
" X c #8D8D92",
".X c #858991",
"XX c #929295",
"oX c #98989B",
"OX c #908F8F",
"+X c #A79991",
"@X c #A8958A",
"#X c #B8A396",
"$X c #B0A194",
"%X c #9D9DA2",
"&X c #A3A3A5",
"*X c #ABABAC",
"=X c #A6A6A9",
"-X c #ADADB1",
";X c #B5B5B5",
":X c #BBBBBC",
">X c #B7B6B7",
",X c #B7AFAB",
"<X c #D8AB82",
"1X c #D5B495",
"2X c #CDAD8B",
"3X c #E6B688",
"4X c #E8BC92",
"5X c #E0AE83",
"6X c #C7B9AF",
"7X c #B5C787",
"8X c #EEC193",
"9X c #EEC59C",
"0X c #F2C395",
"qX c #F5C799",
"wX c #EBC185",
"eX c #CEC5BA",
"rX c #EDC7A4",
"tX c #E6CDB8",
"yX c #F0D0B2",
"uX c #BEBEC2",
"iX c #C5C5CA",
"pX c #CACACD",
"aX c #C1C1C3",
"sX c #CDCDD3",
"dX c #D3D2D6",
"fX c #D5D5DB",
"gX c #D9D9DD",
"hX c #DFD6D3",
"jX c #CFD1D2",
"kX c #E9D8CD",
"lX c #DBDBE3",
"zX c #ECECEC",
"xX c #E3E3E7",
"cX c #F6F6F6",
/* pixels */
"y.y.y.y.y.y.y.y.y.y.y.y.y.c.y.o.a.b.;XgXlXlXlXlXlXlXlXlXlXlXlXlXlXdX-X.X].o.a.y.c.c.o.o.c.a.y.y.y.y.y.y.y.y.y.y.y.y.y.y.y.y.y.y.y.y.y.y.y.y.y.y.y.y.y.y.o.c.c.y.",
"y.y.y.y.y.y.y.y.y.y.y.y.y.o.o.b.oX*XiXgXlXlXlXgXlXlXlXgXlXlXlXfXiXuX%X.X).o.o.o.r.c.c.c.o.r.y.y.y.y.y.y.y.y.y.y.y.y.y.y.y.y.y.y.y.y.y.y.y.y.y.y.y.y.y.y.y.y.o.c.",
"y.y.y.y.y.y.y.y.y.y.y.y.a.a.v.oXuXlXlXlXlXlXlXlXlXlXlXlXlXlXfXuX%X X X X{.b.b.v.v.c.c.y.c.o.c.y.y.y.y.y.y.y.y.y.y.y.y.y.y.y.y.y.y.y.y.y.y.c.c.y.y.y.y.y.y.y.y.y.",
"y.y.y.y.y.y.y.y.y.y.o.o.c.|.,XiXfXlXlXlXlXlXlXlXlXlXlXlXlXiX-X%X.X.X-XuXaXuX:X:X*XOXo.o.y.c.y.y.y.y.y.y.y.y.y.y.y.y.y.y.y.y.y.y.y.y.y.y.y.o.o.c.y.y.y.y.y.y.y.y.",
"y.y.y.y.y.y.y.y.a.o.v.b.OX*XjXxXlXlXlXlXlXlXlXlXlXlXlXfXsXuX=X%X%X=XaXlXxXlXxXlXsX-X|.b.y.y.y.y.y.y.y.y.y.y.y.y.y.y.y.y.y.y.y.y.y.y.y.y.y.y.y.y.y.y.y.y.y.y.y.y.",
"y.y.y.y.y.y.y.y.o.o.b.|.*XeXfXlXlXlXlXlXlXlXlXlXlXlXgXpXuXuXsXjXsXsXlXlXlXlXlXlXlXfXiX&X].y.y.y.y.y.y.y.y.y.y.y.y.y.y.y.y.y.y.y.y.y.y.y.y.y.y.y.y.y.y.y.y.y.y.y.",
"y.y.y.y.y.y.y.y.o.] t.XX;XaXiXpXpXjXfXlXlXlXlXlXlXlXgXsXpXsXlXlXlXlXlXlXlXlXlXsXiXuX;XoX}.y.y.y.o.y.y.y.y.y.y.y.y.y.y.y.y.y.y.y.y.y.y.y.y.y.y.y.y.y.y.y.y.y.y.y.",
"y.y.y.y.y.y.c.c.} W Y `.=X;X;X;X;X:XpXfXlXfXfXlXlXlXlXlXlXlXlXlXlXlXlXlXlXlXdXuX-X%XXX X{.}.y.y.c.y.y.y.y.y.y.y.y.y.y.y.y.y.y.y.y.y.y.y.y.y.y.y.y.y.y.y.y.y.y.y.",
"y.y.y.y.y.y.y.v.} _ G _ X. X*X>X;X;X:XeXuXaXpXfXlXlXlXlXlXlXlXlXlXlXlXlXlXlXlXfXiXuX%XXX X].y.y.o.y.y.y.y.y.y.y.o.c.y.y.y.y.y.y.y.y.y.y.y.y.y.y.y.y.y.y.y.y.y.y.",
"y.y.y.y.y.y.y.y. .] ) G G +.=X:X:X;X;X;X;X;XuXpXfXgXlXlXlXlXlXlXlXlXlXlXlXlXlXlXlXpXuX=XXX].y.y.c.y.y.y.y.y.y.y.o.c.y.y.y.y.y.y.y.y.y.y.c.o.y.y.y.y.y.y.y.y.y.y.",
"y.y.y.y.y.y.y.y.o.o.} _ H +.=X>X:X;X>X>X;X;X;X:XuXdXgXlXgXlXgXgXgXgXlXlXlXlXlXlXlXlXsX-X X).y.y.y.y.y.y.y.y.y.y.c.y.y.y.y.y.y.y.y.y.y.y.c.y.y.y.y.y.y.y.y.y.y.y.",
"y.y.y.y.y.y.y.y.a.b.o.' H +.=X:X>X>X>X>X-X&XoXoX=X6XtXtXtXtXtXtXtXkXfXlXlXlXxXlXlXlXsXuXXX[.y.y.y.y.y.y.y.y.y.c.y.y.y.y.y.y.y.y.y.y.y.y.o.c.y.y.c.o.y.y.y.y.y.y.",
"y.y.y.y.y.y.y.y.o.} { _ ) a.&X;X>X>X;X*X%X X.XOX$X1X8X0X0X0X8X8X4X9XtXhXfXsXsXiXsXlXfXuX).!.y.y.y.y.y.y.o.c.o.o.y.y.y.y.y.y.y.y.y.y.y.y.y.y.y.y.c.y.y.y.y.y.y.y.",
"y.y.y.y.y.y.y.y.[ Z e U +..X X$X1X1X#XoX X{.+X2X3X4X0X0X0X0X0X8X4X0XrXrX6X&X).!..XuXfXuXXX).y.y.o.c.y.y.c.c.c.c.y.y.y.y.y.y.y.y.y.y.y.y.y.y.y.y.o.c.y.y.y.y.y.y.",
"y.y.y.y.y.y.y.y.` q : J [.XX X+X1X4X#X{.[..X@XI.U.P.M.M.M.I.wXqX0X3XU.M.n.{.O.) ) .X%X X!.~.y.y.c.y.y.y.c.o.y.y.y.y.y.y.y.y.y.y.y.y.y.y.y.y.y.y.y.y.y.y.y.y.y.y.",
"y.y.y.y.y.y.v.y.` q % J ]..X{.|.2X3X$X X.X{.|.M.w.*.x y k q.2XqXqX5Xq.x / u.!._ G ) ) ) ) ' +.y.y.y.y.y.c.o.y.y.y.y.y.y.y.y.y.y.y.y.y.y.y.y.y.y.y.y.y.y.y.y.y.y.",
"y.y.y.y.y.y.v.y.! w % Y `.u.K Q |.$X+X)..X X@X<X<X#X|.T i 3.Y.wX4X4X2X+X].X._ G G _ ] ` ` }  .y.y.y.y.y.y.y.y.y.y.y.y.y.y.y.y.y.c.y.y.y.y.y.y.y.y.y.y.y.y.y.y.y.",
"y.y.y.y.y.y.v.v.` q $ Z { C * & J @.@.!.).oX#X1XyXkXpXn.v 9.Y.qX4XrXkXdX%X' F H _ } c.c.c.c.c.y.y.y.y.y.y.y.y.y.y.y.y.y.y.y.y.y.o.c.y.y.y.y.y.y.y.y.y.y.y.y.y.y.",
"y.y.y.y.y.y.y.y.` w + + 2 $ o + 3 2 & q 6.<X4X4XrXkXdXQ.s.G.Y.qX4XyXkXsX%X' ) ] o.o.y.y.a.y.y.y.y.y.y.y.y.y.y.y.y.y.y.y.y.y.y.y.o.c.y.y.y.y.y.y.y.y.y.y.y.y.y.y.",
"y.y.y.y.y.y.c.c...U V f s 2 +   X X X + 1.L.3X4XrXtXtX7XQ.F.Y.qX4XqXyXtXoX) ) } c.c.y.y.y.y.y.y.y.y.y.y.y.y.y.y.y.y.y.y.y.y.y.y.y.y.y.y.y.y.y.y.y.y.y.y.y.y.y.y.",
"y.y.y.y.y.y.y.y.y. .o.c. .U 6 + O     @ z e.L.Y.3X4X4X4X0X4X4X4X4X4XqX3XD._ ) } c.c.o.c.y.y.y.y.y.y.y.y.y.y.y.y.y.y.y.y.y.c.o.c.y.y.y.y.y.y.y.y.y.y.y.y.y.y.c.y.",
"y.y.y.y.y.y.y.y.y.c.c.v.c.} Q V % O > 4 u x 4.H.U.5XqXqXqXqXqX4XqX4X2XA.b.} } o.c.c.c.o.y.y.y.y.y.y.y.y.y.y.y.y.y.y.y.y.o.c.y.y.y.y.y.y.y.y.y.y.y.y.y.y.y.y.o.c.",
"y.y.y.y.y.y.y.y.y.y.y.y.c.c.c.[ C 7 5 4 4 4 l 0.H.U.5X3XY.U.I.I.2X2XA.y.a.c.y.c.y.y.o.c.y.y.y.y.y.y.y.y.y.y.y.y.y.y.y.y.y.y.y.y.y.y.y.y.y.y.y.y.y.y.y.y.y.y.y.c.",
"y.y.y.y.y.y.y.y.y.y.y.y.y.c.c.c. .Q r @   O k e.H.H.H.H.H.0.*.I t.b.y.y. .y.y.y.y.c.o.c.y.y.y.y.y.y.y.y.y.y.y.y.y.y.y.y.y.y.y.y.y.y.y.y.y.y.y.y.y.y.y.y.y.y.y.o.",
"y.y.y.y.y.y.y.y.y.y.y.y.a.c.c. .` E L P L v 5.k.M.l.l.z.l.:.*.4.7.i.( Q [ o.c.y.c.a.y.y.y.y.y.y.c.o.y.y.y.y.y.y.y.y.y.y.y.y.y.y.y.y.y.y.y.y.y.y.y.y.y.y.y.y.y.y.",
"y.y.y.y.y.y.y.y.y.y.y.y.c.o.} ! P L 7.N.V.V.V.V.B.M.l.H.H.H.H.H.M.x.^ P Y ..o.y.o.c.y.y.y.y.y.y.c.y.y.y.y.y.y.y.y.y.y.y.y.y.y.y.y.y.y.y.y.y.y.y.y.y.y.y.y.y.y.y.",
"y.y.y.y.y.y.y.y.y.y.y.c.o.[ U L 8.x.N.V.Z.Z.V.V.V.N.M.I.5X3X3XU.L.M.k.7.~ P Y } c.c.o.c.y.y.y.y.o.c.y.y.y.y.y.y.y.y.y.y.y.y.y.y.c.y.o.y.y.y.y.y.y.y.c.y.y.y.y.y.",
"y.y.y.y.y.y.y.y.y.y.y.} / E L ^ x.Z.Z.V.V.Z.V.V.V.V.Z.I.2X<X<XS.k.k.C.V.7.~ L / ..| c.c.y.y.y.y.y.y.y.y.y.y.y.y.y.y.y.y.y.y.y.y.o.c.c.y.y.y.y.y.y.y.o.c.c.o.y.y.",
"y.y.y.y.y.y.y.y.y.c. .E P R x.N.V.V.V.V.V.N.B.V.V.V.V.Z.Z.x...( ^ 8.x.V.V.N.7.P C [ c.c.y.y.y.y.y.y.y.y.y.y.y.y.y.y.y.y.y.y.y.o.y.y.y.y.y.y.y.y.y.y.y.y.y.y.y.y.",
"y.y.y.y.y.y.c.c.y.| ....8.x.B.Z.V.V.Z.B.j.^ 8.N.V.V.V.V.V.N.x.x.x.x.N.V.Z.V.7.P C ! o.c.y.y.y.y.y.y.y.y.y.y.y.y.y.y.y.y.y.y.c.c.y.y.y.y.y.y.y.y.y.y.y.y.y.y.y.y.",
"y.y.y.y. .} } } ../ ( j.x.B.V.V.V.V.Z.N.8.g L j.N.N.V.V.V.V.V.V.V.V.V.V.V.V.8.P C ! o.c.y.y.y.y.y.y.y.y.y.y.y.y.y.y.y.y.y.y.o.c.y.y.y.y.y.y.y.y.y.y.y.y.y.y.y.y.",
"y.y.v.r.! P C C P L ~ ( 8.x.N.Z.V.V.Z.B.^ g g ^ j.N.V.Z.V.V.V.V.V.V.V.V.Z.V.j.g C ! y.c.y.y.y.y.y.y.y.y.y.y.y.y.y.y.y.y.y.y.y.y.y.y.y.y.y.y.y.y.y.y.y.y.y.y.y.y.",
"y.y.a.o.E g g L ^ 8.i.t.j.t.x.x.V.V.x.8.g w 7 s L ( x.N.Z.Z.Z.Z.V.Z.Z.Z.S.V.8.g s Q a.c.c.c.o.c.o.o.c.y.y.y.y.y.y.y.y.y.y.y.y.y.y.y.y.y.y.y.y.y.y.y.y.y.y.y.y.y.",
"y.y.y. .E g P j.C.B.N.Z.N.x.8.8.x.x.R h 6 + . + & C ~ x.x.B.N.B.N.N.N.N.B.N.R 7 & U  .v.r.a.c.c.c.c.y.y.y.y.y.y.y.y.y.y.y.y.y.y.y.y.y.y.y.y.y.y.y.y.y.y.y.y.y.y.",
"y.y.v.o.E V g P ^ x.Z.Z.Z.N.C.i.5.v d @ @ +     @ d z L R R I R R L R L P j 7 @ 6 E c.v.c.c.c.o.y.y.y.y.y.y.y.y.y.y.y.y.y.y.y.y.y.y.y.y.y.y.y.y.y.y.y.y.y.y.y.y.",
"y.y.o.o.E g h g I C.S.F.F.Z.k.7.L B & .   . . . @ 6 s s s f h g f g g f 6 +     & S !  . .c.a.r.y.y.y.y.y.y.y.y.y.y.y.y.y.y.y.y.y.y.y.y.y.y.y.y.y.y.y.y.y.y.y.y.",
"y.o.c.o.Y Z x 6.l.U.4X8X3XL.0.2.t.` e o   o . o $ 7 s f s C L / E R L T h $   . o # 6 J  .c.c. .y.y.y.y.y.y.y.y.y.y.y.y.y.y.y.y.y.y.o.y.y.y.y.y.y.y.y.y.y.y.y.y.",
"y.c.c.o.I T 9.H.Y.3X8XqX4XP.0.1.t.| Q Z q < @ @ < 8 h h r z T / m.@X@X|.~ 8 @ o   X # S  .v.c.a.y.y.y.y.y.y.y.y.y.y.y.y.y.y.y.y.y.y.c.y.y.y.y.y.y.y.y.y.y.y.y.y.",
"y.y.c.r.5.*.w.U.0X0X8X8X3XH.0.1.t.y.o. .L 7 < 1 4 9 y u u y y 5.@X6X6X#Xi.x 4 @     $ C .. .a.c.y.c.y.y.y.y.y.y.y.y.y.y.y.y.y.y.y.y.y.y.y.y.y.y.y.y.y.y.y.y.y.y.",
"y.y.o.y.5.*.w.U.0X0X4XY.L.w.*.1.t.y.v.o.U 8 < 1 4 t u i u t y 5.$X,X|.5.T z 8 @     + $ w U | c.c.o.y.y.y.y.y.y.y.y.y.y.y.y.y.y.y.y.y.y.y.y.y.y.y.y.y.y.y.y.y.y.",
"y.y.c.r.5.*.e.U.qXqX3XP.w.2.1.5.t.+.c. .R j , j k t t u u t u 5.$X6Xn.5.T i 4 < # + . X . s } c.c.y.y.c.y.y.y.y.o.c.y.y.y.y.y.y.y.y.y.y.y.y.y.y.y.y.y.y.o.y.y.y.",
"y.y.c.c.5.*.w.U.qXqX3XH.2.1.t.o.y.y.c.c.9.=.%.%.<.l k u u t u 5.+X6X6X#Xi.T t r q $ .   + s ` c.c.y.y.o.y.y.y.y.o.c.y.y.y.y.y.y.y.y.y.y.y.y.y.y.y.y.y.y.c.y.y.y.",
"v.y.8.^ >.=.w.U.qXqX3Xl.*.1.| o.+.r.8.R d.d.d.&.=.v L P T P T R i.@X@X|.t.I P L g & o   + & d A ..a.c.c.y.y.y.y.c.y.y.y.y.y.y.y.y.y.y.y.y.y.y.y.y.y.y.y.y.y.y.y.",
"r.8.:.-.&.,.z.Y.4XqX3XH.0.6.m.b.r.7.;.d.f.h.g.,.=.v ^ ~ ~ ~ ~ ~ ~ ~ / / ~ ~ ^ ~ L 7 o   .   + q Q y.c.y.y.y.y.y.y.y.y.y.y.y.y.y.y.y.y.y.y.y.y.y.y.y.y.y.y.y.y.y.",
"=.:.d.g.g.h.K.3X0X0X4X5X<X<X<XF.j.d.d.g.J.J.g.d.=.v ( ~ ^ ~ ~ / ~ R ~ ~ ~ ~ ( ~ L 6 o   o   . q Q y.c.y.y.y.y.y.y.y.y.y.y.y.y.y.y.y.y.y.y.y.y.y.y.y.y.y.y.y.y.y.",
";.9.d.g.h.K.W.3X4X0X0X0XqXqXqXI.&.v f.E.R.R.f.%.c g U E ~ ^ ~ / ~ ~ ^ ~ ~ ~ ( ( L 7 o   .   o q Q y.c.y.y.c.y.y.y.y.y.y.y.y.y.y.y.y.y.y.y.y.y.y.y.y.y.y.y.y.y.y.",
"c.7.;.-.f.J.W.W.0X0X8X0X0X0XwXS.v a d.J.E.E.z.C - - m S / ~ / / ~ ~ / ~ ~ ~ ~ ~ P 7 o   .   o w Q y.c.c.c.o.y.y.y.y.y.y.y.y.y.y.y.y.y.y.y.y.y.y.y.y.y.y.y.y.y.y.",
"a.t.;.%.&.d.T.4X0XqX0XqX8XI.d.v a j #._._._.`.#.' ' ' G B s B M B B C C P C P C f & o     X   & Q c.c.y.c.o.y.y.y.y.y.y.y.y.y.y.y.y.y.y.y.y.y.y.y.y.y.y.y.y.y.y.",
"a.r.9.>.=.>.z.L.<X<X<X5XU.e.a , , d (./.'./.'._.OXOX).] D n M n M M s e e e e e q # + $ & & & f ! y.c.y.c.y.y.y.y.y.y.y.y.y.y.y.y.y.y.y.y.y.y.y.y.y.y.y.y.y.y.y.",
"o.c.a.c.t.r.8.4.0.0.0.0.2.*.p p p d (./././.'._.OX{. X).!.!.!.!.).X.F = ; = = ; ; + $ B ` ..} .. .c.c.y.o.c.y.y.y.y.y.y.y.y.y.y.y.y.y.y.y.y.y.y.y.y.y.y.y.y.y.y.",
"c.c.a.t.v.o.t.5.1.1.5.1.1.v a a %.z.a._.`.^.^.~.@.O.O.O.!.!..XXXXX[.} ) G H ) ) N ; * s H W W `  .c.c.c.c.c.a.a.y.c.y.y.y.y.y.y.y.y.y.y.y.y.y.y.y.y.y.y.y.y.y.y.",
"c. .a.a.o.c.o.r.y.y.y.y.c.9.=.d.g.J.R.J.d.:.v J G G G G G X.!..X[.[.n.`.[.[. X.XO.G b - m m m F ` o.o. .o. . .a.c.o.y.y.y.y.y.y.y.y.y.y.y.y.y.y.y.y.y.y.y.y.y.y.",
" .c.c.c. .c.a.y. .a. .a.a.( &.d.g.R.R.R.f.&.v S G G G G G ) ' ' ' ' ' X.!.[. X X{.+.@.!.[.{.{.+.] ) H Y ) ) ` o.c.c.c.o.c.a.c.o.y.y.y.y.y.y.r.c.y.y.y.y.y.y.y.y.",
"c.c.c. .c.c.c.o.c.a.a.a.c.9.v d.g.R.h.g.d.&.v V D D D b D D G G G G G G ' !.!.!.+.!.[.%X>X6X:X=X`.X.X.] X.X.X.] } ] } } ..} o.c.y.c.y.y.y.y.c.c.y.y.y.y.y.y.y.y.",
"a.a. .c.a.r.r.c.c.c.a.a.x.v %.d.g.h.f.-.&.%.c d b b b b b b D G G F G G G ) ) ) ) G ' {.6X,X>X;X#X*X*X*X*X*XOX] H G G ) H ] o.o.c.c.y.y.y.y.c.r.y.y.y.y.y.y.y.y.",
"t.a.c.c.r.a.a.r.a.t.a.a.a.a.%.&.d.d.,.%.=.a l r & * : . : b b b M M M M N F G G G G G X.`.[.[. X+X-X;X:XuX:X*X X{.oX&X&X%XXX].v.+.).v.v.c.y.r.c.y.y.y.y.y.y.y.y.",
"y.y.y.y.y.y.y.y.a. .a.c.a.^ =.%.%.%.%.%.c k t t 0 6 $ + . # ; ; = ; ; ; m D D F D D F G G G G $.O..XoX*X*X*X*X-X:XgXcXcXzXpX=XXXXXoXoXXX{.b.i.r.y.y.y.y.y.y.y.y.",
"y.y.y.y.y.y.y.y.c.c.c.c.c.L 7 , y l l k k i 9 < 7 C U s + + < 6 2 2 2 q e b b b b - n M G G G G ) ' ] #.X.X.a. X-XgXcXcXcXzXgXgXfXgXgXjX-X{.`.].].v.o.o.y.y.y.c.",
"y.y.y.y.y.y.y.y.c.c. ...Q d @ @ 9 u u u i u 4 3 2 Q } S $ + < 5 1 1 1 1 2 * = m N N N N M M N M N M D F F G ) X.{.*XuXaXuXiXjXlXzXcXcXzXfX>X*X*X&X{.v.v.v.v.y.o.",
"y.y.y.y.y.y.y.y.c.c...C % @ 1 8 9 u u u i u 4 O & Y } C + + < 5 1 1 1 1 3 O e _  .a.[ J n = b = b b M F G G G G G _ _ ) ' @. X*XfXzXcXzXzXxXzXzXfX*XXX[.[.].c.c.",
"y.y.y.y.y.y.y.y.y.c.} V + @ 8 t u u u u t 0 > + & E } Z @ + < 5 1 5 5 1 @ o w ` c.b. .[ W J W J H J D n n n n b M N D F F G ' +..X%XoX%X*X:XjXzXzXgXeX%X X].].}.",
"y.y.y.y.y.y.y.y.y.v.} Z $ < 9 u i i i u 8 5 < % s ` } Z + + 1 5 5 1 1 1 < & V [ y.c.c.c.a.a.a.c.c.} H m n n n n n N D D D D D F F G F G ' !.&XsXzXzXzXiX&XXX X.X",
"y.y.y.y.y.y.y.y.y.v...Z $ 3 9 k i i i t 1 @ q U ..a.} Z + @ 1 5 5 < @ $ e Q }  .c.a.c.c.r.c.c.c.c. .| [ [ [ } [ $.N - - - - b n D G G G G ) @. X>XgXzXzXgX>XoX[.",
"y.y.y.y.y.y.y.y.c.v...V $ 3 t i i i i t 1 @ w [ c.v.} C + @ < 5 5 < + $ Z | b.c.r.a.r.c. .a.c.c.c.a.c.a.c.a.a.v.| W S F N F D N M M M M M M D ) @.XX-XaXiX;XXX].",
"y.y.y.y.y.y.y.y.y.v...V @ > 9 i i u i t 1 + w ` c.v.} V $ + < 5 5 1 + + C ..c.c.c.c.o.c.y.y.y.y.y.y.y.y.y.y.c.o. .o.o. .o.o.o.` N - = - - b - b b m N ] {.{.v.c.",
"y.y.y.y.y.y.y.y.v.v.} V $ > t i i u 9 8 @ + w ! b.v. .P < < 1 5 5 < @ + C } c.c.o.c.c.o.y.y.y.y.c.o.y.y.y.y.o.c.c.c.c.c.c.c.c. .` W W W W W W W W J W } o.a.c.o.",
"y.y.y.y.y.y.y.y.y.v.} Z $ > 9 i i t 8 < < 6 Z ..o.} Q g 5 1 1 5 5 < + + V } c.c.y.y.c.o.y.y.y.y.c.y.y.y.y.y.c.y.y.y.y.y.c.a.r.c.a.c.c.c.c.c.c.c.c.c.c.c.o.c.y.y.",
"y.y.y.y.y.y.y.y.y.v.} Z $ > 9 i i 9 1 $ s Q  .a.` V & < 5 1 5 5 5 < @ $ V } c.a.y.y.y.c.y.y.y.y.o.c.y.y.y.y.y.y.y.y.y.y.c.c.o.c.a.o.c.y.c.c.c.c.y.y.y.y.a.o.y.y.",
"y.y.y.y.y.y.y.y.} Y K 7 3 4 u i i t > $ V | v.v.! w O @ 1 5 5 < > < w Z Q  .c.y.y.y.y.y.y.y.y.y.y.y.y.y.y.y.y.y.c.c.o.y.y.y.y.y.o.c.y.y. .c.y.y.y.y.y.y.y.y.y.y.",
"y.y.y.y.y.y.c.v.{ e O 3 3 9 9 i i 9 3 $ Z ..b.c.! w + @ 1 5 5 < + % A  .c.y.y.c.y.y.y.y.y.y.y.y.y.y.y.y.y.y.y.y.o.y.c.y.y.y.y.y.c.c.o.y.c.c.y.y.y.y.y.y.y.y.y.y.",
"y.y.y.y.y.y.c.c.' e o + 4 8 9 i i 9 > $ Z ..b.c.! s + @ 5 5 5 @ O % U o.v.c.o.c.y.y.y.y.y.y.y.y.y.y.y.y.y.y.y.y.y.y.y.y.y.y.y.y.y.y.y.y.y.y.y.y.y.y.y.y.y.y.o.c.",
"y.y.y.y.y.y.c.c.{ e + 3 8 9 u u t 0 > o V } v.v.! w + @ < 5 5 < + & A o.c.o.c.o.y.y.y.y.y.y.y.y.y.y.y.y.y.y.y.y.y.y.y.y.y.y.y.y.y.y.y.y.y.y.y.y.y.y.y.y.y.y.c.c.",
"y.y.y.y.y.y.y.y.{ w + 1 9 u u u 8 1 @ $ C ..v.v.! w + @ > 5 5 > o % U o.c.y.c.c.y.y.y.y.y.y.y.y.y.y.y.y.y.y.y.y.y.y.y.y.y.y.y.y.y.y.y.y.y.o.c.c.y.y.y.y.y.y.y.o.",
"y.y.y.y.y.y.v.v.` q O > 9 u u 9 1 % w A !  .v.c.` w + @ 5 5 1 > o % K y.b.y.o.c.y.y.y.y.y.y.y.y.y.y.y.y.y.y.y.y.y.y.y.y.y.y.y.y.y.y.y.y.y.y.c.o.y.y.y.y.y.y.y.y.",
"y.y.y.y.y.y.u.u.Q V 7 u T x i 4 @ % A  .c.c.v.c.` e + @ 1 8 8 7 3 q K { o.o.c.o.y.y.y.y.y.y.y.y.y.y.y.y.y.y.y.y.y.y.y.y.y.y.y.y.y.y.y.y.y.y.y.y.y.y.y.y.y.y.y.y.",
"y.y.y.y.y.+.` C P u.+X=X+Xp.x 4 O % U  .c.a.c.c.! s + + 1 g E [ ` Y V e A  .v.c.y.y.y.y.y.y.y.y.y.y.y.y.y.y.y.y.y.y.y.y.y.y.y.y.y.y.y.y.y.y.y.y.y.y.y.y.y.y.y.y.",
"y.y.c.y.| / T i T p.#X1X#Xp.1.u 4 7 U o.v.y.c.c.{ e O > 8 z Y { { / r 3 e A ` | v.y.y.y.y.y.y.y.y.y.y.y.y.y.y.y.y.y.y.y.y.y.y.y.y.y.y.y.y.y.y.y.y.y.y.y.y.y.y.y.",
"y.y.c. .R T x 1.2.2.6.6.6.3.2.1.x z / o.c.y.c.c.` e O < t z z z i i u t 1 % s ` y.y.y.y.y.y.y.y.y.y.y.y.y.y.y.y.y.y.y.y.y.y.y.y.y.y.y.y.y.y.y.y.y.y.y.y.y.y.y.y.",
"c.r./ T T 1.1.2.3.3.2.2.2.3.3.1.x z /  .c.y.v.y.` w $ 4 t i i y i i u u t 4 7 r S { y.v.y.y.y.v.y.y.y.y.y.y.y.y.y.c.o.y.y.y.y.y.y.y.y.y.y.y.y.y.y.y.y.y.y.y.y.y.",
"c.| T z *.1.2.2.3.2.3.3.3.3.3.1.i z / y.y.y.v.y.` w O 1 t i u u u u u u u u 4 @ & U y.v.y.y.y.u.y.y.y.y.y.y.y.y.o.c.c.y.y.y.y.y.y.y.y.y.y.y.y.y.y.y.y.y.y.y.y.y."
};
