/* XPM */
static char *boar001[] = {
/* columns rows colors chars-per-pixel */
"60 50 126 2 ",
"   c #261311",
".  c #2A1614",
"X  c #2C1916",
"o  c #2F1B19",
"O  c #351B16",
"+  c #3C1B14",
"@  c #311C19",
"#  c #36221B",
"$  c #3B241C",
"%  c #3E2B1E",
"&  c #3A2621",
"*  c #3F2921",
"=  c #461A0F",
"-  c #441C12",
";  c #4A1D11",
":  c #432017",
">  c #4D2115",
",  c #42241C",
"<  c #4B251C",
"1  c #412E1F",
"2  c #4E281E",
"3  c #542417",
"4  c #542619",
"5  c #532B1E",
"6  c #5C2C1D",
"7  c #43301F",
"8  c #622E1D",
"9  c #65301F",
"0  c #432B22",
"q  c #4A2C21",
"w  c #442F2A",
"e  c #572422",
"r  c #522F22",
"t  c #5C2E20",
"y  c #453122",
"u  c #4A3422",
"i  c #4D3826",
"p  c #47312B",
"a  c #4D3628",
"s  c #4F3928",
"d  c #543120",
"f  c #5B3424",
"g  c #543926",
"h  c #5D3B27",
"j  c #5D3728",
"k  c #533C2A",
"l  c #5C3C28",
"z  c #4E3830",
"x  c #523C34",
"c  c #643322",
"v  c #693422",
"b  c #643A27",
"n  c #6D3925",
"m  c #603C2A",
"M  c #6C3D2A",
"N  c #713B27",
"B  c #733E29",
"V  c #57402C",
"C  c #5A422E",
"Z  c #564036",
"A  c #5D4631",
"S  c #5F4832",
"D  c #66452F",
"F  c #6C432D",
"G  c #75412B",
"H  c #7B452D",
"J  c #634731",
"K  c #614932",
"L  c #6C4A32",
"P  c #6A4C3A",
"I  c #754531",
"U  c #764830",
"Y  c #7C4A32",
"T  c #7B4E3A",
"R  c #775F50",
"E  c #7B6051",
"W  c #7D6458",
"Q  c #872F2E",
"!  c #AB3836",
"~  c #80482F",
"^  c #844D33",
"/  c #884F35",
"(  c #834F39",
")  c #904534",
"_  c #9C4435",
"`  c #855136",
"'  c #895136",
"]  c #81533C",
"[  c #8D5539",
"{  c #90573A",
"}  c #935B3D",
"|  c #805744",
" . c #845844",
".. c #895F4B",
"X. c #915E44",
"o. c #8B614B",
"O. c #926046",
"+. c #9C6543",
"@. c #9F6845",
"#. c #816657",
"$. c #8F6955",
"%. c #856B5E",
"&. c #8D715D",
"*. c #A06744",
"=. c #A26B47",
"-. c #A66E49",
";. c #A7704A",
":. c #AA734C",
">. c #B07850",
",. c #917562",
"<. c #997560",
"1. c #9F7A64",
"2. c #907668",
"3. c #977D6E",
"4. c #9B7D6B",
"5. c #A3836C",
"6. c #A8846B",
"7. c #A28676",
"8. c #AA8C74",
"9. c #A68A7A",
"0. c #B1917A",
"q. c #B69983",
"w. c #CCAF9A",
"e. c #D3B59D",
"r. c #E6E6E6",
"t. c #807F74",
/* pixels */
"t.t.t.t.t.t.t.t.t.t.t.t.t.t.t.t.t.t.t.t.t.t.t.t.t.t.t.t.t.t.t.t.t.t.t.t.t.t.t.t.t.t.t.t.t.t.t.t.t.t.t.t.t.t.t.t.t.t.t.t.",
"t.t.t.t.t.t.t.t.t.t.t.t.t.t.t.t.t.t.t.t.t.t.t.t.t.t.t.t.t.t.t.t.t.t.t.t.t.t.t.t.t.t.t.t.t.t.t.t.t.t.t.t.t.t.t.t.t.t.t.t.",
"t.t.t.t.t.t.t.t.t.t.t.t.t.t.t.t.t.t.t.t.t.t.t.t.t.t.t.t.t.t.t.t.t.t.t.t.t.t.t.t.t.t.t.t.t.t.t.t.t.t.t.t.t.t.t.t.t.t.t.t.",
"t.t.t.t.t.t.t.t.t.t.t.t.t.t.t.t.t.t.t.t.t.t.t.t.t.t.t.t.t.t.t.t.t.t.t.t.t.t.t.t.t.t.t.t.t.t.t.t.t.t.t.t.t.t.t.t.t.t.t.t.",
"t.t.t.t.t.t.t.t.t.t.t.t.t.t.t.t.t.t.t.t.t.t.t.t.t.t.t.t.t.t.t.t.t.t.t.t.t.t.t.t.t.t.t.t.t.t.t.t.t.t.t.t.t.t.t.t.t.t.t.t.",
"t.t.t.t.t.t.t.t.t.t.t.t.t.t.t.t.t.t.t.t.t.t.t.t.t.t.t.t.t.t.t.t.t.t.t.t.t.t.t.t.t.t.t.t.t.t.t.t.t.t.t.t.t.t.t.t.t.t.t.t.",
"t.t.t.t.t.t.t.t.t.t.t.t.t.t.t.t.t.t.t.t.t.t.t.t.t.t.t.t.t.t.t.t.t.t.t.t.t.t.t.t.t.t.t.t.t.t.t.t.t.t.t.t.t.t.t.t.t.t.t.t.",
"t.t.t.t.t.t.t.t.t.t.t.t.t.t.t.t.t.t.t.t.t.t.t.t.t.t.t.t.t.t.t.t.t.t.t.t.t.t.t.t.t.t.t.t.t.t.t.t.t.t.t.t.t.t.t.t.t.t.t.t.",
"t.t.t.t.t.t.t.t.t.t.t.t.t.t.t.t.t.t.t.t.t.t.t.t.t.t.t.t.t.t.t.t.t.t.t.t.t.t.t.t.t.t.t.t.t.t.t.t.t.t.t.t.t.t.t.t.t.t.t.t.",
"t.t.t.t.t.t.t.t.t.t.t.t.t.t.t.t.t.t.t.t.t.t.t.t.t.@ o t.t.t.t.t.t.t.t.t.t.t.t.t.t.t.t.t.t.t.t.t.t.t.t.t.t.t.t.t.t.t.t.t.",
"t.t.t.t.t.t.t.t.t.t.t.t.t.t.t.t.t.t.t.t.t.t.t.t.t.o # # t.t.t.t.t.t.t.t.t.t.t.t.t.t.t.t.t.t.t.t.t.t.t.t.t.t.t.t.t.t.t.t.",
"t.t.t.t.t.t.t.t.t.t.t.t.t.t.t.t.t.t.t.t.@ @ t.t.@ @ a u o @ t.@ o @ @ t.t.t.t.t.t.t.t.t.t.t.t.t.t.t.t.t.t.t.t.t.t.t.t.t.",
"t.t.t.t.t.t.t.t.t.t.t.t.t.t.t.t.t.t.t.t.o 0 * X @ $ V V * @ o o & 0 o o o t.t.t.t.t.t.t.t.t.t.t.t.t.t.t.t.t.t.t.t.t.t.t.",
"t.t.t.t.t.t.t.t.t.t.t.t.t.t.t.t.t.t.t.t.@ k s # # 1 V K k @ @ # a k @ # # t.t.t.t.t.t.t.t.t.t.t.t.t.t.t.t.t.t.t.t.t.t.t.",
"t.t.t.t.t.t.t.t.t.t.t.t.t.t.t.@ @ o o @ @ k A i % 7 V K k % * s A a # s $ t.t.t.t.t.t.t.t.t.t.t.t.t.t.t.t.t.t.t.t.t.t.t.",
"t.t.t.t.t.t.t.t.t.t.t.t.t.t.t.@ * y & @ # k K V 1 7 V K V 7 y V K A y C * o t.t.t.t.t.t.t.t.t.t.t.t.t.t.t.t.t.t.t.t.t.t.",
"t.t.t.t.t.t.t.t.t.t.t.t.t.t.t.@ a A k # % C S C 7 7 C S V 7 7 C A A A A 1 o o @ @ t.t.t.t.t.t.t.t.t.t.t.t.t.t.t.t.t.t.t.",
"t.t.t.t.t.t.t.t.t.t.t.t.t.t.t.@ $ s A s 7 V S A V 7 C K V % V A V g K A y # # % @ t.t.t.t.t.t.t.t.t.t.t.t.t.t.t.t.t.t.t.",
"t.t.t.t.t.t.t.t.t.t.t.t.t.t.t.@ X 0 A A g C K A C 7 V D D V J L h u V K i $ $ 7 # t.t.t.t.t.t.t.t.t.t.t.t.t.t.t.t.t.t.t.",
"t.t.t.t.t.t.t.t.t.t.t.t.t.t.t.t.o $ a A A A A A C 7 9 Y ' ` ` [ U c 7 C u 7 % % # t.t.t.t.t.t.t.t.t.t.t.t.t.t.t.t.t.t.t.",
"t.t.t.t.t.t.t.t.t.t.t.t.t.t.t.@ $ % i S S S V g b F ` +.*.*.*.*.+.` F b u % 7 % o o t.t.t.t.t.t.t.t.t.t.t.t.t.t.t.t.t.t.",
"t.t.t.t.t.t.t.t.t.t.t.t.t.t.t.@ $ % y C S S g d G { -.:.:.:.:.:.:.-.{ H h u 7 % # o t.t.t.t.t.t.t.t.t.t.t.t.t.t.t.t.t.t.",
"t.t.t.t.t.t.t.t.t.t.t.t.t.t.t.@ # $ % y C K b n / =.:.:.:.:.:.:.:.:.-.=.[ D 7 7 7 # X t.t.t.t.t.t.t.t.t.t.t.t.t.t.t.t.t.",
"t.t.t.t.t.t.t.t.t.t.t.t.t.t.t.t.X # $ % i V F ~ { ;.:.:.:.:.:.:.:.:.:.:.@.` g y 7 # o t.t.t.t.t.t.t.t.t.t.t.t.t.t.t.t.t.",
"t.t.t.t.t.t.t.t.t.t.t.t.t.t.t.t.o @ o @ % c H ' [ ;.:.:.:.:.:.:.:.:.:.:.:.*.U d y $ @ @ t.t.t.t.t.t.t.t.t.t.t.t.t.t.t.t.",
"t.t.t.t.t.t.t.t.t.t.t.t.t.t.t.t.@ @ o @ @ F ' ' [ ;.:.:.:.:.:.;.:.:.:.;.:.+./ U y % # o t.t.t.t.t.t.t.t.t.t.t.t.t.t.t.t.",
"t.t.t.t.t.t.t.t.t.t.t.t.t.t.t.t.O 0 d r @ d H ' ' +.;.:.:.:.:.:.:.:.:.:.=.{ [ ^ f 7 $ o t.t.t.t.t.t.t.t.t.t.t.t.t.t.t.t.",
"t.t.t.t.t.t.t.t.t.t.t.t.t.t.t.v , j X.` 0 o b ' / ' +.:.:.:.:.:.:.:.;.-.{ ' ' ^ F 5 # @ t.t.t.t.t.t.t.t.t.t.t.t.t.t.t.t.",
"t.t.t.t.t.t.t.t.t.t.t.t.t.t.t.v t | 6.1.Y % g ' ' ' { *.:.:.:.:.;.:.;.} ' / ' ' ~ 2 # o t.t.t.t.t.t.t.t.t.t.t.t.t.t.t.t.",
"t.t.t.t.t.t.t.t.t.t.t.t.t.t.t.v v ( 1.8.] g F ' ' ' / } *.+.*.*.@.@.@.[ ' ' ' ' ' 1 X o t.t.t.t.t.t.t.t.t.t.t.t.t.t.t.t.",
"t.t.t.t.t.t.t.t.t.t.t.t.t.t.t.c c 9 T 4.P Y / ' ' ' ' ' [ ' ' [ ' ' ' ' ' ' ' ' ' q o @ t.t.t.t.t.t.t.t.t.t.t.t.t.t.t.t.",
"t.t.t.t.t.t.t.t.@ . @ . X t.t., , $ q x A ^ ' ' ' ' ' / / / / / ' ' ' ' ' ' ' ' ' b , o t.t.t.t.t.t.t.t.t.t.t.t.t.t.t.t.",
"t.t.t.t.t.t.t.X & z & z w o t.o e ; @ q J ^ ' ' ' ' ' ' ' ' ' ' ' ' ' ' ' ' ' ' ' B < o t.t.t.t.t.t.t.t.t.t.t.t.t.t.t.t.",
"t.t.t.t.t.t.t.. x ,.* 5.W X o @ ! Q 0 ( / / ' ' ' ' ' ' ' ' ' ' ' ' ' ' ' ' ' ' / B < o @ @ @ @ @ O @ t.t.t.t.t.t.t.t.t.",
"t.t.t.t.t.t.t.X x 5.w 9.%.  @ q _ ) B [ ' ' ' ' ' ' ' ' ' ' ' ' ' ' ' / ' ' / ' / B 4 O O + < r r < @ o t.t.t.t.t.t.t.t.",
"t.r.r.t.t.t.o @ Z &.* 7.3.p , n ^ ' [ / ' ' ' ' ' ' ' ' ' ' ' ' ' ' ' { { { [ ' ' N 3 - @ - 6 9 t 6 , @ @ t.t.t.t.t.t.t.",
"t.r.r.r.t.t.o 0 A P & 7.w.4.v ~ / [ / [ ' ' ' ' / ' ' ' ' ' ' ' ' / ' =.-.-.+.' / 6 - - O - ; : # $ 6 , o @ t.t.t.t.t.t.",
"t.r.r.r.t.t.X $ k k # 7.e.0...' / / [ } +.{ ' ' ' ' ' ' ' / G / ' [ +.:.>.:.-.+.[ 6 - - + ; - O X @ r $ o @ t.t.t.t.t.t.",
"t.r.r.r.r.t.X @ & V & 2.q.0.8.X.[ [ X.:.:.{ / ' ' ' / / ' / n ~ ' } :.:.:.:.:.-./ 6 - ; ; - O t.t.# 7 # @ o t.t.t.t.t.t.",
"t.t.t.t.t.t.X o & A # w W 0.8.6.X.} ;.:.:.{ / ' ' ' B H ' / n H ' } :.:.:.:.:.=.B 3 ; ; - O t.t.t.# % 7 # o t.t.t.t.t.t.",
"t.t.t.t.t.t.@ o $ u @ X x E E $.( } >.:.@.[ ' ' ' / N N ~ H v B / } :.:.:.:.:.=.9 ; ; - + @ t.t.t.# 1 7 $ o t.t.t.t.t.t.",
"t.t.t.t.t.t.o @ @ @ @ o @ @ & c c / -.@.[ ' ' ' ' ' N c c c c c G { ;.:.:.:.:.+.3 - - - @ t.t.t.t.t.1 1 $ o t.t.t.t.t.t.",
"t.t.t.t.t.t.t.t.t.t.@ @ o o o + + r c v / ' ' ' ' ' B 5 , , , < 8 H } :.:.>.@.G > + O O t.t.t.t.t.t.t.y $ o t.t.t.t.t.t.",
"t.t.t.t.t.t.t.t.t.t.o @ o o o o o X - 3 G / ' ' / ^ c , o X o + : c Y +.@.=.[ r - O o o t.t.t.t.t.t.t.% # o t.t.t.t.t.t.",
"t.t.t.t.t.t.t.t.t.t.t.t.@ @ @ o @ @ 0 v v ~ ' ' ^ v , @ o @ o @ @ < n ' ' [ G O @ @ @ @ t.t.t.t.t.t.t.@ @ @ t.t.t.t.t.t.",
"t.t.t.t.t.t.t.t.t.t.t.t.t.t.t.t.R P 6 v v B B N 6 < @ o @ @ @ o t.t.t.B B G c + @ @ o o t.t.t.t.t.t.t.t.t.t.t.t.t.t.t.t.",
"t.t.t.t.t.t.t.t.t.t.t.t.t.t.t.t.1.| v v v 8 8 6 - @ @ @ @ o @ t.t.t.t.c c v 9 > O o @ @ t.t.t.t.t.t.t.t.t.t.t.t.t.t.t.t.",
"t.t.t.t.t.t.t.t.t.t.t.t.t.t.t.t.B n v v v 3 > t.t.t.o @ @ o @ t.t.t.t.t.v v v c t.o @ @ t.t.t.t.t.t.t.t.t.t.t.t.t.t.t.t.",
"t.t.t.t.t.t.t.t.t.t.t.t.t.t.t.t.t.c I ..N 4 t.t.t.t.@ @ @ o @ t.t.t.t.t.I T | v t.t.t.t.t.t.t.t.t.t.t.t.t.t.t.t.t.t.t.t.",
"t.t.t.t.t.t.t.t.t.t.t.t.t.t.t.t.t.8 T 5.B t.t.t.t.@ @ o o @ t.t.t.t.t.8.T o.<.v t.t.t.t.t.t.t.t.t.t.t.t.t.t.t.t.t.t.t.t."
};
