/* XPM */
static char *boar004[] = {
/* columns rows colors chars-per-pixel */
"60 50 125 2 ",
"   c #261311",
".  c #2A1614",
"X  c #2D1916",
"o  c #2E1B18",
"O  c #361B15",
"+  c #3C1B14",
"@  c #311C19",
"#  c #381F1A",
"$  c #36221B",
"%  c #3B241C",
"&  c #3E2B1E",
"*  c #3A2621",
"=  c #3E2921",
"-  c #451C12",
";  c #4A1D12",
":  c #432017",
">  c #4D2115",
",  c #41231B",
"<  c #4B251D",
"1  c #412E1F",
"2  c #4D281E",
"3  c #522316",
"4  c #542619",
"5  c #5A2718",
"6  c #542A1E",
"7  c #5C2B1B",
"8  c #43301F",
"9  c #622E1E",
"0  c #66301F",
"q  c #432B22",
"w  c #4B2C21",
"e  c #442F2A",
"r  c #572422",
"t  c #522F22",
"y  c #5C2E20",
"u  c #453122",
"i  c #4A3422",
"p  c #4D3826",
"a  c #47312B",
"s  c #4D3628",
"d  c #4F3928",
"f  c #543120",
"g  c #5B3424",
"h  c #543926",
"j  c #5D3B27",
"k  c #5D3728",
"l  c #533C2A",
"z  c #5C3C28",
"x  c #4E3830",
"c  c #533C33",
"v  c #653322",
"b  c #6A3522",
"n  c #643A27",
"m  c #6D3925",
"M  c #603C2A",
"N  c #6D3E2B",
"B  c #703B27",
"V  c #733E29",
"C  c #57402C",
"Z  c #5A422E",
"A  c #564036",
"S  c #5D4631",
"D  c #5F4832",
"F  c #66452F",
"G  c #6C432D",
"H  c #77402A",
"J  c #7B452D",
"K  c #634731",
"L  c #614932",
"P  c #6C4A32",
"I  c #694F39",
"U  c #764531",
"Y  c #754832",
"T  c #7C4A32",
"R  c #7B4D3A",
"E  c #7E523E",
"W  c #7B6051",
"Q  c #7D6458",
"!  c #872F2E",
"~  c #AB3836",
"^  c #80482F",
"/  c #844D33",
"(  c #884F35",
")  c #834F39",
"_  c #904534",
"`  c #9C4435",
"'  c #855136",
"]  c #895136",
"[  c #81533C",
"{  c #8D5539",
"}  c #8F5B3D",
"|  c #90573A",
" . c #935C3D",
".. c #805744",
"X. c #915E44",
"o. c #8C604A",
"O. c #926046",
"+. c #9C6543",
"@. c #9F6845",
"#. c #816657",
"$. c #8F6955",
"%. c #856B5E",
"&. c #926B56",
"*. c #8D715D",
"=. c #A06744",
"-. c #A26B47",
";. c #A56E49",
":. c #A7704A",
">. c #AA734C",
",. c #B07850",
"<. c #927562",
"1. c #9D7963",
"2. c #907668",
"3. c #977D6E",
"4. c #9B7D6B",
"5. c #A3826C",
"6. c #A8846B",
"7. c #A28676",
"8. c #AB8C74",
"9. c #A68A7A",
"0. c #B1917A",
"q. c #B69983",
"w. c #CCAF9A",
"e. c #D3B59D",
"r. c #807F74",
/* pixels */
"r.r.r.r.r.r.r.r.r.r.r.r.r.r.r.r.r.r.r.r.r.r.r.r.r.r.r.r.r.r.r.r.r.r.r.r.r.r.r.r.r.r.r.r.r.r.r.r.r.r.r.r.r.r.r.r.r.r.r.r.",
"r.r.r.r.r.r.r.r.r.r.r.r.r.r.r.r.r.r.r.r.r.r.r.r.r.r.r.r.r.r.r.r.r.r.r.r.r.r.r.r.r.r.r.r.r.r.r.r.r.r.r.r.r.r.r.r.r.r.r.r.",
"r.r.r.r.r.r.r.r.r.r.r.r.r.r.r.r.r.r.r.r.r.r.r.r.r.r.r.r.r.r.r.r.r.r.r.r.r.r.r.r.r.r.r.r.r.r.r.r.r.r.r.r.r.r.r.r.r.r.r.r.",
"r.r.r.r.r.r.r.r.r.r.r.r.r.r.r.r.r.r.r.r.r.r.r.r.r.r.r.r.r.r.r.r.r.r.r.r.r.r.r.r.r.r.r.r.r.r.r.r.r.r.r.r.r.r.r.r.r.r.r.r.",
"r.r.r.r.r.r.r.r.r.r.r.r.r.r.r.r.r.r.r.r.r.r.r.r.r.r.r.r.r.r.r.r.r.r.r.r.r.r.r.r.r.r.r.r.r.r.r.r.r.r.r.r.r.r.r.r.r.r.r.r.",
"r.r.r.r.r.r.r.r.r.r.r.r.r.r.r.r.r.r.r.r.r.r.r.r.r.r.r.r.r.r.r.r.r.r.r.r.r.r.r.r.r.r.r.r.r.r.r.r.r.r.r.r.r.r.r.r.r.r.r.r.",
"r.r.r.r.r.r.r.r.r.r.r.r.r.r.r.r.r.r.r.r.r.r.r.r.r.r.r.r.r.r.r.r.r.r.r.r.r.r.r.r.r.r.r.r.r.r.r.r.r.r.r.r.r.r.r.r.r.r.r.r.",
"r.r.r.r.r.r.r.r.r.r.r.r.r.r.r.r.r.r.r.r.r.r.r.r.r.r.r.r.r.r.r.r.r.r.r.r.r.r.r.r.r.r.r.r.r.r.r.r.r.r.r.r.r.r.r.r.r.r.r.r.",
"r.r.r.r.r.r.r.r.r.r.r.r.r.r.r.r.r.r.r.r.r.r.r.r.r.r.r.r.r.r.r.r.r.r.r.r.r.r.r.r.r.r.r.r.r.r.r.r.r.r.r.r.r.r.r.r.r.r.r.r.",
"r.r.r.r.r.r.r.r.r.r.r.r.r.r.r.r.r.r.r.r.r.r.r.r.r.@ o r.r.r.r.r.r.r.r.r.r.r.r.r.r.r.r.r.r.r.r.r.r.r.r.r.r.r.r.r.r.r.r.r.",
"r.r.r.r.r.r.r.r.r.r.r.r.r.r.r.r.r.r.r.r.r.r.r.r.r.o $ % r.r.r.r.r.r.r.r.r.r.r.r.r.r.r.r.r.r.r.r.r.r.r.r.r.r.r.r.r.r.r.r.",
"r.r.r.r.r.r.r.r.r.r.r.r.r.r.r.r.r.r.r.r.@ @ r.r.@ @ s i o @ r.@ o @ @ r.r.r.r.r.r.r.r.r.r.r.r.r.r.r.r.r.r.r.r.r.r.r.r.r.",
"r.r.r.r.r.r.r.r.r.r.r.r.r.r.r.r.r.r.r.r.o q = X @ % C C = @ o o * = o o @ r.r.r.r.r.r.r.r.r.r.r.r.r.r.r.r.r.r.r.r.r.r.r.",
"r.r.r.r.r.r.r.r.r.r.r.r.r.r.r.r.r.r.r.r.@ l p $ $ 1 C L l @ @ $ s l @ $ $ r.r.r.r.r.r.r.r.r.r.r.r.r.r.r.r.r.r.r.r.r.r.r.",
"r.r.r.r.r.r.r.r.r.r.r.r.r.r.r.@ @ o o @ @ l S p & 8 C L l & = d S l $ d % r.r.r.r.r.r.r.r.r.r.r.r.r.r.r.r.r.r.r.r.r.r.r.",
"r.r.r.r.r.r.r.r.r.r.r.r.r.r.r.@ = u * @ $ l L C 1 8 C L C u 8 C L C u S = o r.r.r.r.r.r.r.r.r.r.r.r.r.r.r.r.r.r.r.r.r.r.",
"r.r.r.r.r.r.r.r.r.r.r.r.r.r.r.@ s S l $ 8 C L Z 8 8 C L C 8 8 C Z Z S S & @ @ @ @ r.r.r.r.r.r.r.r.r.r.r.r.r.r.r.r.r.r.r.",
"r.r.r.r.r.r.r.r.r.r.r.r.r.r.r.@ % d S l 8 C D Z C 8 C L C 8 C S C C D S 8 $ $ & @ r.r.r.r.r.r.r.r.r.r.r.r.r.r.r.r.r.r.r.",
"r.r.r.r.r.r.r.r.r.r.r.r.r.r.r.@ X q C S p Z L L D 8 z P F C F P C 6 C S p & % & $ r.r.r.r.r.r.r.r.r.r.r.r.r.r.r.r.r.r.r.",
"r.r.r.r.r.r.r.r.r.r.r.r.r.r.r.r.o % s S Z D D Z Z 8 g J ] ' ] ' T 0 8 S p & & & $ r.r.r.r.r.r.r.r.r.r.r.r.r.r.r.r.r.r.r.",
"r.r.r.r.r.r.r.r.r.r.r.r.r.r.r.@ % & p S D D C h n G ] +.=.=.=.=.+.] G n 8 8 8 & @ @ r.r.r.r.r.r.r.r.r.r.r.r.r.r.r.r.r.r.",
"r.r.r.r.r.r.r.r.r.r.r.r.r.r.r.@ % & i Z D D h f H | ;.>.>.>.>.>.>.;.| J M 8 8 1 $ @ r.r.r.r.r.r.r.r.r.r.r.r.r.r.r.r.r.r.",
"r.r.r.r.r.r.r.r.r.r.r.r.r.r.r.@ $ % & u Z D M B ] -.>.>.>.>.>.>.>.>.;.-.| M 8 1 & $ o r.r.r.r.r.r.r.r.r.r.r.r.r.r.r.r.r.",
"r.r.r.r.r.r.r.r.r.r.r.r.r.r.r.r.o $ % & p C G ^ | ;.>.>.>.>.>.>.>.>.>.>.-.' j 8 8 $ o r.r.r.r.r.r.r.r.r.r.r.r.r.r.r.r.r.",
"r.r.r.r.r.r.r.r.r.r.r.r.r.r.r.r.@ @ o @ & v ^ ( { ;.>.>.>.>.>.>.>.>.:.>.>.+.U i u % @ @ r.r.r.r.r.r.r.r.r.r.r.r.r.r.r.r.",
"r.r.r.r.r.r.r.r.r.r.r.r.r.r.r.r.o o o o @ N ( ( | ;.>.>.>.>.>.>.>.>.>.>.>.+.] U u & $ o r.r.r.r.r.r.r.r.r.r.r.r.r.r.r.r.",
"r.r.r.r.r.r.r.r.r.r.r.r.r.r.r.r.# q g t @ f U { ] +.;.>.:.>.>.>.>.>.>.>.-. .] / g 8 % o r.r.r.r.r.r.r.r.r.r.r.r.r.r.r.r.",
"r.r.r.r.r.r.r.r.r.r.r.r.r.r.r.b , k  .[ q o g { ] ] +.>.>.>.>.>.>.>.:.:. .( ] / B 8 $ @ r.r.r.r.r.r.r.r.r.r.r.r.r.r.r.r.",
"r.r.r.r.r.r.r.r.r.r.r.r.r.r.r.b y ..6.1.T % h { ] ] | @.>.>.>.>.>.>.:. .] ] ] ] / 2 @ o r.r.r.r.r.r.r.r.r.r.r.r.r.r.r.r.",
"r.r.r.r.r.r.r.r.r.r.r.r.r.r.r.b b ) 1.8.[ j G ] ] ] ]  .+.@.+.@.+.@.+.{ ] ] ] ] { 2 o @ r.r.r.r.r.r.r.r.r.r.r.r.r.r.r.r.",
"r.r.r.r.r.r.r.r.r.r.r.r.r.r.r.v v v R 4.I T / ] ] ] ] ] ] ] { ] ] ] ] ] ] ] ] ] ] w o o r.r.r.r.r.r.r.r.r.r.r.r.r.r.r.r.",
"r.r.r.r.r.r.r.r.@ . @ . X r.r., , % w c D T ] ] ] ] ] ] ] ] ] ] ] ] ] ] ] ] ] ] ] n % o r.r.r.r.r.r.r.r.r.r.r.r.r.r.r.r.",
"r.r.r.r.r.r.r.o * x * x e o r.o r < @ w K / ] ] ] ] ] ] ] ] ] ] ] ] ( ] ( ( ] ( ] V < o r.r.r.r.r.r.r.r.r.r.r.r.r.r.r.r.",
"r.r.r.r.r.r.r.. c <.= 5.Q X @ @ ~ ! q / ) / ] ] ] ] ] ] ] ] ] ] ] ] ] ] ] ] { ( ( V < X @ @ @ @ @ @ @ r.r.r.r.r.r.r.r.r.",
"r.r.r.r.r.r.r.. c 5.e 9.%.  @ w ` _ N { { ( ( ] ] ] ] ( ] ] ] ] ( | +.+.=.+. .( ] V 5 + @ + < 6 6 6 @ @ r.r.r.r.r.r.r.r.",
"r.r.r.r.r.r.@ @ A *.= 7.3.e q m / ] ] ( ( ( ] ] ] ] ] ] ] ] ] ] | X.>.>.>.,.-.| / m 3 - @ - 7 v y y , @ o r.r.r.r.r.r.r.",
"r.r.r.r.r.r.o q L L * 7.w.4.v ^ ( ] ] ( ] ] ] ] ] ] ] ] ] ] ] (  .>.>.>.>.>.>.=.B 5 ; + O - ; : $ % 7 % o @ r.r.r.r.r.r.",
"r.r.r.r.r.r.o % c l # 7.e.0.X.] { ] { +.+.| ( ] ] ] ] ] / ^ ( ] +.>.>.>.>.>.,.-.B ; ; - + ; - O X @ f % o @ r.r.r.r.r.r.",
"r.r.r.r.r.r.@ o = C * 2.q.0.8.X.] ]  .:.>. .( ] ] ] ] ] ^ m ( ] X.>.>.>.>.>.>.-.m 3 ; ; ; - @ r.r.$ 8 $ $ o r.r.r.r.r.r.",
"r.r.r.r.r.r.@ o * S # e #.0.0.4.X. .;.>.>. .( ( ] ] ] ] ^ b / ] +.>.>.>.>.>.>.-.7 ; - ; - # r.r.r.$ & & $ o r.r.r.r.r.r.",
"r.r.r.r.r.r.@ o % u @ . c W W $.)  .,.>.@.{ ] { ( ( { / V m J (  .-.>.>.>.>.;.' > - ; - + @ r.r.r.$ 1 8 % o r.r.r.r.r.r.",
"r.r.r.r.r.r.@ @ @ @ @ o @ $ % g v / ;.@.{ ] ] ] ] ( ( V v v v U /  .:.>.>.;. .0 ; - ; - @ r.r.r.r.r.1 1 % o r.r.r.r.r.r.",
"r.r.r.r.r.r.r.r.r.r.@ @ o X @ # % 6 b n / ] ( ] ] ] J 9 ; : , 4 v J  .>.+.Y t 3 r.r.r.r.r.r.r.r.r.r.r.u % o r.r.r.r.r.r.",
"r.r.r.r.r.r.r.r.r.r.@ o @ @ @ @ o O + - J ( ] ] ( / B 7 t c @ O 4 B T  ./ f X - r.r.r.r.r.r.r.r.r.r.r.= $ o r.r.r.r.r.r.",
"r.r.r.r.r.r.r.r.r.r.r.r.@ @ @ @ @ @ @ # v / ( ( / m b 0 R <.* o < m b m b 2 o r.r.r.r.r.r.r.r.r.r.r.r.@ @ @ r.r.r.r.r.r.",
"r.r.r.r.r.r.r.r.r.r.r.r.r.r.r.r.r.r.o @ , w y v V b b v V E r.r.7 v 0 9 7 : o r.r.r.r.r.r.r.r.r.r.r.r.r.r.r.r.r.r.r.r.r.",
"r.r.r.r.r.r.r.r.r.r.r.r.r.r.r.r.r.r.r.@ o o O ; 0 9 0 b m R r.r.R U b T 4 O o r.r.r.r.r.r.r.r.r.r.r.r.r.r.r.r.r.r.r.r.r.",
"r.r.r.r.r.r.r.r.r.r.r.r.r.r.r.r.r.r.r.o o o @ # r.> 9 0 R 5.r.r.r.&.V 1.c X @ @ r.r.r.r.r.r.r.r.r.r.r.r.r.r.r.r.r.r.r.r.",
"r.r.r.r.r.r.r.r.r.r.r.r.r.r.r.r.r.r.r.@ @ @ o o r.r.r.r.r.r.r.r.r.r.r.r.e o @ o r.r.r.r.r.r.r.r.r.r.r.r.r.r.r.r.r.r.r.r.",
"r.r.r.r.r.r.r.r.r.r.r.r.r.r.r.r.r.r.r.@ o @ @ @ r.r.r.r.r.r.r.r.r.r.r.r.@ o @ @ r.r.r.r.r.r.r.r.r.r.r.r.r.r.r.r.r.r.r.r."
};
