/* XPM */
static char *boar005[] = {
/* columns rows colors chars-per-pixel */
"60 50 114 2 ",
"   c #291614",
".  c #2D1917",
"X  c #2F1B19",
"o  c #341B16",
"O  c #3C1B14",
"+  c #311D19",
"@  c #3A1F1A",
"#  c #36221C",
"$  c #3A241C",
"%  c #3D2A1D",
"&  c #3B2621",
"*  c #3D2821",
"=  c #44170D",
"-  c #451C12",
";  c #491D11",
":  c #4F2115",
">  c #42231B",
",  c #4B271C",
"<  c #422E1F",
"1  c #4E281D",
"2  c #522316",
"3  c #542719",
"4  c #532A1D",
"5  c #5D2B1C",
"6  c #43301F",
"7  c #432D23",
"8  c #4B2D22",
"9  c #532D21",
"0  c #5C2F21",
"q  c #453122",
"w  c #4B3424",
"e  c #4D3926",
"r  c #4B352A",
"t  c #4F3829",
"y  c #513221",
"u  c #5A3324",
"i  c #553825",
"p  c #5A3A27",
"a  c #52352C",
"s  c #543D2B",
"d  c #5D3C2A",
"f  c #553E35",
"g  c #583F35",
"h  c #702828",
"j  c #653322",
"k  c #6A3522",
"l  c #6D3A26",
"z  c #643B2A",
"x  c #6B3C29",
"c  c #713B27",
"v  c #733D29",
"b  c #663F30",
"n  c #57402C",
"m  c #5A432E",
"M  c #5E4631",
"N  c #64402A",
"B  c #6E442E",
"V  c #74432C",
"C  c #7B452E",
"Z  c #604731",
"A  c #614932",
"S  c #614A3F",
"D  c #734634",
"F  c #754833",
"G  c #7C4C34",
"H  c #7C4D39",
"J  c #725139",
"K  c #654E43",
"L  c #675046",
"P  c #785342",
"I  c #745B47",
"U  c #765C4E",
"Y  c #795C4F",
"T  c #7A6153",
"R  c #8C2F2F",
"E  c #913B32",
"W  c #AD3F38",
"Q  c #844D33",
"!  c #8B4F36",
"~  c #865035",
"^  c #895136",
"/  c #83533D",
"(  c #8D5539",
")  c #935B3C",
"_  c #845A46",
"`  c #8D5A41",
"'  c #895F4B",
"]  c #9B6442",
"[  c #9F6845",
"{  c #866D5F",
"}  c #9F765D",
"|  c #A26B47",
" . c #A56E49",
".. c #A7704A",
"X. c #AA734C",
"o. c #876E61",
"O. c #947460",
"+. c #987762",
"@. c #9F7B63",
"#. c #9A7E6A",
"$. c #A07F69",
"%. c #9F826D",
"&. c #A1816C",
"*. c #A18676",
"=. c #A38877",
"-. c #AC8E77",
";. c #A78B7A",
":. c #B28F79",
">. c #AF9078",
",. c #B1937B",
"<. c #B69B88",
"1. c #C6A891",
"2. c #D6B8A1",
"3. c #807F74",
/* pixels */
"3.3.3.3.3.3.3.3.3.3.3.3.3.3.3.3.3.3.3.3.3.3.3.3.3.3.3.3.3.3.3.3.3.3.3.3.3.3.3.3.3.3.3.3.3.3.3.3.3.3.3.3.3.3.3.3.3.3.3.3.",
"3.3.3.3.3.3.3.3.3.3.3.3.3.3.3.3.3.3.3.3.3.3.3.3.3.3.3.3.3.3.3.3.3.3.3.3.3.3.3.3.3.3.3.3.3.3.3.3.3.3.3.3.3.3.3.3.3.3.3.3.",
"3.3.3.3.3.3.3.3.3.3.3.3.3.3.3.3.3.3.3.3.3.3.3.3.3.3.3.3.3.3.3.3.3.3.3.3.3.3.3.3.3.3.3.3.3.3.3.3.3.3.3.3.3.3.3.3.3.3.3.3.",
"3.3.3.3.3.3.3.3.3.3.3.3.3.3.3.3.3.3.3.3.3.3.3.3.3.3.3.3.3.3.3.3.3.3.3.3.3.3.3.3.3.3.3.3.3.3.3.3.3.3.3.3.3.3.3.3.3.3.3.3.",
"3.3.3.3.3.3.3.3.3.3.3.3.3.3.3.3.3.3.3.3.3.3.3.3.3.3.3.3.3.3.3.3.3.3.3.3.3.3.3.3.3.3.3.3.3.3.3.3.3.3.3.3.3.3.3.3.3.3.3.3.",
"3.3.3.3.3.3.3.3.3.3.3.3.3.3.3.3.3.3.3.3.3.3.3.3.3.3.3.3.3.3.3.3.3.3.3.3.3.3.3.3.3.3.3.3.3.3.3.3.3.3.3.3.3.3.3.3.3.3.3.3.",
"3.3.3.3.3.3.3.3.3.3.3.3.3.3.3.3.3.3.3.3.3.3.3.3.3.3.3.3.3.3.3.3.3.3.3.3.3.3.3.3.3.3.3.3.3.3.3.3.3.3.3.3.3.3.3.3.3.3.3.3.",
"3.3.3.3.3.3.3.3.3.3.3.3.3.3.3.3.3.3.3.3.3.3.3.3.3.3.3.3.3.3.3.3.3.3.3.3.3.3.3.3.3.3.3.3.3.3.3.3.3.3.3.3.3.3.3.3.3.3.3.3.",
"3.3.3.3.3.3.3.3.3.3.3.3.3.3.3.3.3.3.3.3.3.3.3.3.3.+ + 3.3.3.3.3.3.3.3.3.3.3.3.3.3.3.3.3.3.3.3.3.3.3.3.3.3.3.3.3.3.3.3.3.",
"3.3.3.3.3.3.3.3.3.3.3.3.3.3.3.3.3.3.3.3.+ X 3.3.+ X 7 7 . X 3.3.X X + 3.3.3.3.3.3.3.3.3.3.3.3.3.3.3.3.3.3.3.3.3.3.3.3.3.",
"3.3.3.3.3.3.3.3.3.3.3.3.3.3.3.3.3.3.3.3.+ # $ 3.+ # s t # + 3.X # # + 3.3.3.3.3.3.3.3.3.3.3.3.3.3.3.3.3.3.3.3.3.3.3.3.3.",
"3.3.3.3.3.3.3.3.3.3.3.3.3.3.3.3.3.3.3.3.+ r q . + % n M r + + X q r + X + 3.3.3.3.3.3.3.3.3.3.3.3.3.3.3.3.3.3.3.3.3.3.3.",
"3.3.3.3.3.3.3.3.3.3.3.3.3.3.3.3.X X 3.X X s s 7 $ 6 m A s $ $ 7 s s + 7 # 3.3.3.3.3.3.3.3.3.3.3.3.3.3.3.3.3.3.3.3.3.3.3.",
"3.3.3.3.3.3.3.3.3.3.3.3.3.3.3.+ # # # + # s A n 6 6 n A n < 6 n A s * m * . 3.3.3.3.3.3.3.3.3.3.3.3.3.3.3.3.3.3.3.3.3.3.",
"3.3.3.3.3.3.3.3.3.3.3.3.3.3.3.+ r s w + % n A n 6 6 n M n 6 6 n M M s M * X + + + 3.3.3.3.3.3.3.3.3.3.3.3.3.3.3.3.3.3.3.",
"3.3.3.3.3.3.3.3.3.3.3.3.3.3.3.+ 7 m m 7 6 n M m e 6 n M n 6 e m m m A M q + + # + 3.3.3.3.3.3.3.3.3.3.3.3.3.3.3.3.3.3.3.",
"3.3.3.3.3.3.3.3.3.3.3.3.3.3.3.+ + q A M w n M M M 6 n Z m 6 Z A i e M M 6 $ # % # 3.3.3.3.3.3.3.3.3.3.3.3.3.3.3.3.3.3.3.",
"3.3.3.3.3.3.3.3.3.3.3.3.3.3.3.3.X $ s M n M A A M 6 0 V G V G ~ l y w M w 6 % 6 # 3.3.3.3.3.3.3.3.3.3.3.3.3.3.3.3.3.3.3.",
"3.3.3.3.3.3.3.3.3.3.3.3.3.3.3.3.# % w M M M m n m p V ( ) ) ) ] ( V p m 6 6 6 % + X 3.3.3.3.3.3.3.3.3.3.3.3.3.3.3.3.3.3.",
"3.3.3.3.3.3.3.3.3.3.3.3.3.3.3.X $ % w M M M n 4 N ^ ] ..X.......X.] Q l i 6 6 6 # + 3.3.3.3.3.3.3.3.3.3.3.3.3.3.3.3.3.3.",
"3.3.3.3.3.3.3.3.3.3.3.3.3.3.3.+ # % 6 s M M p j Q [ X.X.X.X.X.X.X.X.| ) G i % < % + 3.3.3.3.3.3.3.3.3.3.3.3.3.3.3.3.3.3.",
"3.3.3.3.3.3.3.3.3.3.3.3.3.3.3.+ X # % % n m l V ( ..X.X.X.X.X.X.X.X.X.X.] F w 6 < # X 3.3.3.3.3.3.3.3.3.3.3.3.3.3.3.3.3.",
"3.3.3.3.3.3.3.3.3.3.3.3.3.3.3.3.X # X # 6 u C ^ (  .X.X.X.X.X.X.X.X.X.X...) B 6 < # X + 3.3.3.3.3.3.3.3.3.3.3.3.3.3.3.3.",
"3.3.3.3.3.3.3.3.3.3.3.3.3.3.3.3.X + X X $ x Q ^ ( ..X.X.X.X.X.X.X.X.X.X.X.] Q N 6 % # X 3.3.3.3.3.3.3.3.3.3.3.3.3.3.3.3.",
"3.3.3.3.3.3.3.3.3.3.3.3.3.3.3.3.X + + X + z Q ^ ( [ X.X.X.X.X.X.X.X.X.X...) ^ Q y 6 $ X 3.3.3.3.3.3.3.3.3.3.3.3.3.3.3.3.",
"3.3.3.3.3.3.3.3.3.3.3.3.3.3.3.X X X X + X $ z ( ( ( | X.X.X...X.X.X.X.X.] ( ^ Q k q $ + 3.3.3.3.3.3.3.3.3.3.3.3.3.3.3.3.",
"3.3.3.3.3.3.3.3.3.3.3.3.3.3.3.8 , 9 i i u # i ^ ^ ^ ) ..X.X.X.X.X.X...] ( ! ^ ~ C q + X 3.3.3.3.3.3.3.3.3.3.3.3.3.3.3.3.",
"3.3.3.3.3.3.3.3.3.3.3.3.3.3.3.k j V ~ ( ~ 1 j ( ^ ^ ^ ) ............| ( ~ ^ ^ ^ ^ 8 X + 3.3.3.3.3.3.3.3.3.3.3.3.3.3.3.3.",
"3.3.3.3.3.3.3.3.3.3.3.3.3.3.3.k k k / $.J B G ^ ^ ^ ^ ( ) ) ( ) ( ) ( ( ^ ^ ^ ^ ^ , . X 3.3.3.3.3.3.3.3.3.3.3.3.3.3.3.3.",
"3.3.3.3.3.3.3.3.3.3.3.3.3.3.3.9 4 4 d Y A G ( ^ ^ ^ ^ ^ ^ ^ ^ ^ ! ^ ^ ^ ^ ^ ^ ^ ! u # X 3.3.3.3.3.3.3.3.3.3.3.3.3.3.3.3.",
"3.3.3.3.3.3.3.3.+ & + & $ + 3.+ @ @ o 7 m Q ^ ^ ^ ^ ^ ^ ^ ^ ^ ^ ^ ^ ^ ^ ^ ^ ^ ^ ~ v , X 3.3.3.3.3.3.3.3.3.3.3.3.3.3.3.3.",
"3.3.3.3.3.3.3.  r U & T L . X X R h $ x G Q ^ ^ ^ ^ ^ ^ ^ ^ ^ ^ ^ ^ ^ ^ ~ ^ ~ ^ ^ v , X + 3.3.3.3.3.3.3.3.3.3.3.3.3.3.3.",
"3.3.3.3.3.3.3.  f %.7 ;.o.  X $ W E i ^ ^ ^ ^ ^ ^ ^ ^ ^ ^ ^ ^ ^ ^ ^ ^ ) ) ) ) ^ ^ v 3 + + 3.3.3.3.3.3.3.3.3.3.3.3.3.3.3.",
"3.3.3.3.3.3.+ . f #.* =.o.X @ j Q ! Q ! ^ ^ ^ ^ ^ ^ ^ ^ ^ ^ ^ ^ ^ ^ ( | ....[ ^ ^ v 3 O + + + + + + + 3.3.3.3.3.3.3.3.3.",
"3.3.3.3.3.3.X % M I & *.<.Y 9 v Q ( ( ^ ! ^ ^ ^ ^ ^ ^ ^ ^ ^ ^ ^ ^ ( ] ..X.X. .] C 5 : - + O , 4 9 1 + + 3.3.3.3.3.3.3.3.",
"3.3.3.3.3.3.X 7 M s & *.2.:.H ! ^ ^ ^ ( ) ^ ^ ^ ^ ^ ^ ^ ^ ! Q Q ^ ] X.X.X.X.X. .c 2 = - o - 5 j j j > o 3.3.3.3.3.3.3.3.",
"3.3.3.3.3.3.X + 7 s & *.1.-.@.( ^ ! ( .. .) ! ^ ^ ^ ^ ^ ^ ! c Q ] ..X...X.X.X. .c 2 ; - - ; ; - > k j $ X 3.3.3.3.3.3.3.",
"3.3.3.3.3.3.+ X * M + L #.,.:.+.) ) [ X.X.) ~ ^ ^ ^ C Q ( Q k Q ] X.X.X.X.X.X. .c 2 - ; ; O O o # 4 j > X 3.3.3.3.3.3.3.",
"3.3.3.3.3.3.+ X * s @ . K #.#.$.` ) X... .) ^ ^ ^ ^ c v G Q k C ] X.X.X.X.X.X.] k : ; - - + + X X o u $ X X 3.3.3.3.3.3.",
"3.3.3.3.3.3.+ X + # + X & r a D V ) X...) ^ ^ ^ ^ ^ v 4 9 l k k ( X.X.X.X.X. .( 3 ; - - o + 3.3.3.# 1 $ X X 3.3.3.3.3.3.",
"3.3.3.3.3.3.3.+ + X X + X   + , 1 x ( ] ^ ~ ^ ^ ! v 0 $ o 4 4 3 C | X.X.X...) k : - ; - X X 3.3.3.+ < % + X 3.3.3.3.3.3.",
"3.3.3.3.3.3.3.3.3.3.+ + X + + + + O 5 ^ ^ ^ ^ ! C : @ X + + o O j ) ......) v ; ; 3.3.3.3.3.3.3.3.+ < 6 $ X 3.3.3.3.3.3.",
"3.3.3.3.3.3.3.3.3.3.3.3.+ + X X X . 8 ! ^ ^ ( C 4 o X X + X X + 4 C C C C l 3 - 3.3.3.3.3.3.3.3.3.3.< < $ X 3.3.3.3.3.3.",
"3.3.3.3.3.3.3.3.3.3.3.3.3.X + + X . 8 ^ ^ Q G c 3 g * X + + X X 4 k j j k 3 O - 3.3.3.3.3.3.3.3.3.3.< q $ X 3.3.3.3.3.3.",
"3.3.3.3.3.3.3.3.3.3.3.3.3.3.3.3.3.3.3.3.Q v k k x } f   + 3.3.3.j k k k k 1 X + + + 3.3.3.3.3.3.3.3.3.q $ + 3.3.3.3.3.3.",
"3.3.3.3.3.3.3.3.3.3.3.3.3.3.3.3.3.3.3.3.5 j k j k _ 8   3.3.3.3.3 k k k 5 O X X X + 3.3.3.3.3.3.3.3.3.# + + 3.3.3.3.3.3.",
"3.3.3.3.3.3.3.3.3.3.3.3.3.3.3.3.3.3.3.3.; 4 j c F 0 $ 3.3.3.3.z j k j k 3 O X + + X 3.3.3.3.3.3.3.3.3.+ + + 3.3.3.3.3.3.",
"3.3.3.3.3.3.3.3.3.3.3.3.3.3.3.3.3.3.3.3.3.@ 1 H O.7 3.3.3.3.3.&._ j k k 3.3.3.X + + 3.3.3.3.3.3.3.3.3.3.3.3.3.3.3.3.3.3.",
"3.3.3.3.3.3.3.3.3.3.3.3.3.3.3.3.3.3.3.3.3.X @ a S # 3.3.3.3.3.P z x ' x 3.3.3.3.3.3.3.3.3.3.3.3.3.3.3.3.3.3.3.3.3.3.3.3.",
"3.3.3.3.3.3.3.3.3.3.3.3.3.3.3.3.3.3.3.3.3.+ + . . + 3.3.3.3.3.; = z &.v 3.3.3.3.3.3.3.3.3.3.3.3.3.3.3.3.3.3.3.3.3.3.3.3."
};
