/* XPM */
static char *boar003[] = {
/* columns rows colors chars-per-pixel */
"60 50 123 2 ",
"   c #291614",
".  c #2D1917",
"X  c #2E1B19",
"o  c #341B16",
"O  c #3B1B15",
"+  c #311D19",
"@  c #3A1F1A",
"#  c #36211B",
"$  c #3A241C",
"%  c #3D2A1D",
"&  c #3B2621",
"*  c #3E2920",
"=  c #45190F",
"-  c #431C13",
";  c #481D11",
":  c #462016",
">  c #4C2115",
",  c #41231C",
"<  c #4C271C",
"1  c #412E1F",
"2  c #4E291D",
"3  c #532417",
"4  c #542719",
"5  c #532A1E",
"6  c #5C2B1B",
"7  c #43301F",
"8  c #612E1E",
"9  c #67311F",
"0  c #432D23",
"q  c #4B2C21",
"w  c #5C2F20",
"e  c #453122",
"r  c #4B3424",
"t  c #4D3926",
"y  c #4B352A",
"u  c #4F3829",
"i  c #523222",
"p  c #5B3324",
"a  c #553825",
"s  c #5A3A27",
"d  c #50372E",
"f  c #543D2B",
"g  c #5D3C2A",
"h  c #4D3830",
"j  c #563F36",
"k  c #702828",
"l  c #643422",
"z  c #6A3522",
"x  c #6D3926",
"c  c #623C2B",
"v  c #6B3D29",
"b  c #703A26",
"n  c #723D29",
"m  c #57402C",
"M  c #5A432E",
"N  c #5E4631",
"B  c #64402A",
"V  c #6E442E",
"C  c #73432D",
"Z  c #7A442D",
"A  c #7F482F",
"S  c #604731",
"D  c #614932",
"F  c #654A3E",
"G  c #754532",
"H  c #734830",
"J  c #7C4B33",
"K  c #734C3A",
"L  c #784B38",
"P  c #73533B",
"I  c #7F503C",
"U  c #654E43",
"Y  c #675046",
"T  c #6D5244",
"R  c #745B47",
"E  c #765D4E",
"W  c #795C4F",
"Q  c #7C6357",
"!  c #8C2F2F",
"~  c #913B32",
"^  c #AD3F38",
"/  c #844D33",
"(  c #8B4F36",
")  c #865035",
"_  c #895136",
"`  c #87563C",
"'  c #8D5639",
"]  c #935B3C",
"[  c #845945",
"{  c #8D5A41",
"}  c #895F4B",
"|  c #8C624D",
" . c #9C6543",
".. c #9F6845",
"X. c #94684F",
"o. c #8F6550",
"O. c #8C6855",
"+. c #866D5F",
"@. c #906853",
"#. c #9C755E",
"$. c #A26B47",
"%. c #A56E49",
"&. c #A7704A",
"*. c #AA734C",
"=. c #A17459",
"-. c #876E61",
";. c #9F7B64",
":. c #9A7E6A",
">. c #A07F69",
",. c #9F826D",
"<. c #A5846D",
"1. c #A18676",
"2. c #A58874",
"3. c #AA8B74",
"4. c #A78B7A",
"5. c #B28F79",
"6. c #AF9078",
"7. c #B1937B",
"8. c #B69B88",
"9. c #C6A891",
"0. c #D6B8A1",
"q. c #E6E6E6",
"w. c #807F74",
/* pixels */
"w.w.w.w.w.w.w.w.w.w.w.w.w.w.w.w.w.w.w.w.w.w.w.w.w.w.w.w.w.w.w.w.w.w.w.w.w.w.w.w.w.w.w.w.w.w.w.w.w.w.w.w.w.w.w.w.w.w.w.w.",
"w.w.w.w.w.w.w.w.w.w.w.w.w.w.w.w.w.w.w.w.w.w.w.w.w.w.w.w.w.w.w.w.w.w.w.w.w.w.w.w.w.w.w.w.w.w.w.w.w.w.w.w.w.w.w.w.w.w.w.w.",
"w.w.w.w.w.w.w.w.w.w.w.w.w.w.w.w.w.w.w.w.w.w.w.w.w.w.w.w.w.w.w.w.w.w.w.w.w.w.w.w.w.w.w.w.w.w.w.w.w.w.w.w.w.w.w.w.w.w.w.w.",
"w.w.w.w.w.w.w.w.w.w.w.w.w.w.w.w.w.w.w.w.w.w.w.w.w.w.w.w.w.w.w.w.w.w.w.w.w.w.w.w.w.w.w.w.w.w.w.w.w.w.w.w.w.w.w.w.w.w.w.w.",
"w.w.w.w.w.w.w.w.w.w.w.w.w.w.w.w.w.w.w.w.w.w.w.w.w.w.w.w.w.w.w.w.w.w.w.w.w.w.w.w.w.w.w.w.w.w.w.w.w.w.w.w.w.w.w.w.w.w.w.w.",
"w.w.w.w.w.w.w.w.w.w.w.w.w.w.w.w.w.w.w.w.w.w.w.w.w.w.w.w.w.w.w.w.w.w.w.w.w.w.w.w.w.w.w.w.w.w.w.w.w.w.w.w.w.w.w.w.w.w.w.w.",
"w.w.w.w.w.w.w.w.w.w.w.w.w.w.w.w.w.w.w.w.w.w.w.w.w.w.w.w.w.w.w.w.w.w.w.w.w.w.w.w.w.w.w.w.w.w.w.w.w.w.w.w.w.w.w.w.w.w.w.w.",
"w.w.w.w.w.w.w.w.w.w.w.w.w.w.w.w.w.w.w.w.w.w.w.w.w.w.w.w.w.w.w.w.w.w.w.w.w.w.w.w.w.w.w.w.w.w.w.w.w.w.w.w.w.w.w.w.w.w.w.w.",
"w.w.w.w.w.w.w.w.w.w.w.w.w.w.w.w.w.w.w.w.w.w.w.w.w.+ + w.w.w.w.w.w.w.w.w.w.w.w.w.w.w.w.w.w.w.w.w.w.w.w.w.w.w.w.w.w.w.w.w.",
"w.w.w.w.w.w.w.w.w.w.w.w.w.w.w.w.w.w.w.w.+ X w.w.+ X 0 0 . X w.w.X X + w.w.w.w.w.w.w.w.w.w.w.w.w.w.w.w.w.w.w.w.w.w.w.w.w.",
"w.w.w.w.w.w.w.w.w.w.w.w.w.w.w.w.w.w.w.w.+ # $ w.+ # f u # + w.X # # + w.w.w.w.w.w.w.w.w.w.w.w.w.w.w.w.w.w.w.w.w.w.w.w.w.",
"w.w.w.w.w.w.w.w.w.w.w.w.w.w.w.w.w.w.w.w.+ u e X + % m N y + + X e u + X + w.w.w.w.w.w.w.w.w.w.w.w.w.w.w.w.w.w.w.w.w.w.w.",
"w.w.w.w.w.w.w.w.w.w.w.w.w.w.w.w.X X w.X . f f 0 % 7 m D f $ $ 0 m f + 0 # w.w.w.w.w.w.w.w.w.w.w.w.w.w.w.w.w.w.w.w.w.w.w.",
"w.w.w.w.w.w.w.w.w.w.w.w.w.w.w.+ # # # + # f N m 7 7 m D m 7 7 m D m & M * . w.w.w.w.w.w.w.w.w.w.w.w.w.w.w.w.w.w.w.w.w.w.",
"w.w.w.w.w.w.w.w.w.w.w.w.w.w.w.+ y f y + % m D m 7 % m N m 7 7 m D M m N * X X + + w.w.w.w.w.w.w.w.w.w.w.w.w.w.w.w.w.w.w.",
"w.w.w.w.w.w.w.w.w.w.w.w.w.w.w.+ 0 M M 0 7 m D M t e m N m 7 t M m m D N 0 # X # # w.w.w.w.w.w.w.w.w.w.w.w.w.w.w.w.w.w.w.",
"w.w.w.w.w.w.w.w.w.w.w.w.w.w.w.+ + r N M 7 M D N M 7 m S m 7 D V a r N N t $ # % # w.w.w.w.w.w.w.w.w.w.w.w.w.w.w.w.w.w.w.",
"w.w.w.w.w.w.w.w.w.w.w.w.w.w.w.w.. $ f N m N D D N 7 a C A H J J V i r M t % % 7 # w.w.w.w.w.w.w.w.w.w.w.w.w.w.w.w.w.w.w.",
"w.w.w.w.w.w.w.w.w.w.w.w.w.w.w.w.# % r N S S M M B s C '  .]  .] _ C s B 7 % 7 % # X w.w.w.w.w.w.w.w.w.w.w.w.w.w.w.w.w.w.",
"w.w.w.w.w.w.w.w.w.w.w.w.w.w.w.+ % % r N N N f 7 v )  .&.&.&.&.&.&. .) x a 7 7 7 # + w.w.w.w.w.w.w.w.w.w.w.w.w.w.w.w.w.w.",
"w.w.w.w.w.w.w.w.w.w.w.w.w.w.w.+ # % e t N N s 9 /  .*.*.*.*.*.*.*.*.$.] J a % 1 $ # w.w.w.w.w.w.w.w.w.w.w.w.w.w.w.w.w.w.",
"w.w.w.w.w.w.w.w.w.w.w.w.w.w.w.+ . # % % m N v Z ' *.*.*.*.*.*.*.*.*.*.*. .H r 7 % # X w.w.w.w.w.w.w.w.w.w.w.w.w.w.w.w.w.",
"w.w.w.w.w.w.w.w.w.w.w.w.w.w.w.w.X # + # 7 l Z ) ' %.*.*.*.*.*.*.*.*.*.*.*.] V 7 7 # . + w.w.w.w.w.w.w.w.w.w.w.w.w.w.w.w.",
"w.w.w.w.w.w.w.w.w.w.w.w.w.w.w.w.+ . . X # B / _ ' &.*.*.*.*.*.*.*.*.*.*.*. .J B 7 % # X w.w.w.w.w.w.w.w.w.w.w.w.w.w.w.w.",
"w.w.w.w.w.w.w.w.w.w.w.w.w.w.w.w.+ # , $ o c ) _ ' ..*.*.*.*.*.*.*.*.*.*.&. ._ / i 7 $ X w.w.w.w.w.w.w.w.w.w.w.w.w.w.w.w.",
"w.w.w.w.w.w.w.w.w.w.w.w.w.w.w.l , i J C # # c _ _ ' $.*.*.*.*.*.*.*.*.*.] _ ) ( l r # X w.w.w.w.w.w.w.w.w.w.w.w.w.w.w.w.",
"w.w.w.w.w.w.w.w.w.w.w.w.w.w.w.z 5 K =.X.c o p ' _ _ ] $.*.*.*.*.*.*.*. .' ) _ _ Z 2 # X w.w.w.w.w.w.w.w.w.w.w.w.w.w.w.w.",
"w.w.w.w.w.w.w.w.w.w.w.w.w.w.w.z 9 [ 3.<.` q g _ _ _ _  .&.%.&.&.%.&.$.' _ _ _ _ _ e X + w.w.w.w.w.w.w.w.w.w.w.w.w.w.w.w.",
"w.w.w.w.w.w.w.w.w.w.w.w.w.w.w.z z n | 2.P H J _ _ _ _ ' ] ] ] ] ' ] ' _ _ _ _ _ _ q . X w.w.w.w.w.w.w.w.w.w.w.w.w.w.w.w.",
"w.w.w.w.w.w.w.w.w.w.w.w.w.w.w.i q 4 g E D J ' _ _ _ _ ) _ ) ) ) ( ( ) ' _ _ _ _ _ p # X w.w.w.w.w.w.w.w.w.w.w.w.w.w.w.w.",
"w.w.w.w.w.w.w.w.+ # + & & X w.+ @ @ + 0 M J _ _ _ _ _ _ _ _ _ _ _ _ _ _ _ _ _ _ ) n < X w.w.w.w.w.w.w.w.w.w.w.w.w.w.w.w.",
"w.w.q.q.w.w.w.. y E & Q Y . X + ! k @ v A ) _ _ _ _ _ _ _ _ _ _ _ _ _ _ ) _ ) _ _ n < X X X X X X X + w.w.w.w.w.w.w.w.w.",
"w.q.q.q.w.w.w.  j ,.0 8.Q   X @ ^ ~ p _ _ _ _ _ _ _ _ _ _ _ _ _ _ _ _ ] ] ] ' _ _ n 4 o o o $ , , $ + X w.w.w.w.w.w.w.w.",
"w.q.q.w.w.w.+ . j :.0 1.-.. + l / _ ( ) _ _ _ _ _ _ _ _ _ _ _ _ _ ) ' $.*.*. .' _ n 4 O o - 6 l l 8 @ + w.w.w.w.w.w.w.w.",
"w.w.w.w.w.w.+ & N R & 1.8.W w n ) _ _ _ _ _ _ _ _ _ _ _ _ _ _ _ _ '  .*.*.*.%. ._ 9 > O o ; 3 4 5 z 5 # w.w.w.w.w.w.w.w.",
"w.w.w.w.w.w.X 0 N f # 1.0.5.L _ _ _ _ ' ' ' _ _ ( _ _ _ _ ( / / _ ] *.*.*.*.*.&.] 6 = - O - - o $ 8 z , X w.w.w.w.w.w.w.",
"w.w.w.w.w.w.X + 0 N # 1.9.3.;.' _ _ ] %.%.] ) _ _ ) _ _ _ ( b / _ ] *.*.*.*.*.*.$.9 = ; - ; O + + $ l , X X w.w.w.w.w.w.",
"w.w.w.w.w.w.+ X & f & Y :.8.5.#.{ ] ..*.*.] _ _ _ _ _ _ ) ( z / _ ] *.*.*.*.*.*.*.l = ; - O o w.X + 5 # X # w.w.w.w.w.w.",
"w.w.w.w.w.w.+ X & f # . U :.:.;.{ ] *.*.%.] ( ) _ _ _ _ ) / z A / ] *.*.*.*.*.*.%.l = ; - + w.w.w.# 7 # X X w.w.w.w.w.w.",
"w.w.w.w.w.w.+ X o # + X & y h G n ] *.*.] _ _ ) _ _ _ _ / x z x A ] *.*.*.*.*.*.] 6 - - o w.w.w.w.# % 7 # X w.w.w.w.w.w.",
"w.w.w.w.w.w.w.+ + X X + X . . < 5 v / / ) J / ( _ _ ' A l 5 5 4 z ( ..*.*.*.%. .C 4 = - X w.w.w.w.# 1 7 $ X w.w.w.w.w.w.",
"w.w.w.w.w.w.w.w.w.w.+ + X + + + + O - 4 / n Z _ _ ) ( z - + + - 4 x ' $.*.%. ./ 3 w.w.w.w.w.w.w.w.w.1 1 $ X w.w.w.w.w.w.",
"w.w.w.w.w.w.w.w.w.w.w.w.+ X X X X + o @ z z Z _ _ _ Z 6 O X X + @ 2 n ] ] _ C b 8 w.w.w.w.w.w.w.w.w.w.7 $ X w.w.w.w.w.w.",
"w.w.w.w.w.w.w.w.w.w.w.w.w.+ + + + + + + 5 5 x / J A x 4 O + + + X # w x A n 9 z z 9 w.w.w.w.w.w.w.w.w.% # X w.w.w.w.w.w.",
"w.w.w.w.w.w.w.w.w.w.w.w.w.w.w.w.w.w.w.w.+ + 5 z z z z < + + w.w.w.w.o > 8 z z z x x w.w.w.w.w.w.w.w.w.+ + + w.w.w.w.w.w.",
"w.w.w.w.w.w.w.w.w.w.w.w.w.w.w.w.w.w.w.w.+ X - 6 z z z 4 o + w.w.w.w.+ o > 6 l b O.G w.w.w.w.w.w.w.w.w.w.w.w.w.w.w.w.w.w.",
"w.w.w.w.w.w.w.w.w.w.w.w.w.w.w.w.w.w.w.w.+ X o ; z z z 6 - X w.w.w.w.+ X O l G l O.L w.w.w.w.w.w.w.w.w.w.w.w.w.w.w.w.w.w.",
"w.w.w.w.w.w.w.w.w.w.w.w.w.w.w.w.w.w.w.w.w.+ + , z z z z w + w.w.w.+ + + + T O.> 4 w.w.w.w.w.w.w.w.w.w.w.w.w.w.w.w.w.w.w.",
"w.w.w.w.w.w.w.w.w.w.w.w.w.w.w.w.w.w.w.w.w.w.w.N } x [ L w X w.w.+ X + X X h F w.w.w.w.w.w.w.w.w.w.w.w.w.w.w.w.w.w.w.w.w.",
"w.w.w.w.w.w.w.w.w.w.w.w.w.w.w.w.w.w.w.w.w.w.w.w.2.n ;.| 5 + w.w.+ + + X + X X w.w.w.w.w.w.w.w.w.w.w.w.w.w.w.w.w.w.w.w.w."
};
