/* XPM */
static char *boar002[] = {
/* columns rows colors chars-per-pixel */
"60 50 113 2 ",
"   c #2A1614",
".  c #2D1917",
"X  c #2F1B19",
"o  c #341B17",
"O  c #3C1B14",
"+  c #311C19",
"@  c #391F1A",
"#  c #36221C",
"$  c #3A241C",
"%  c #3D2A1D",
"&  c #3B2621",
"*  c #3E2920",
"=  c #45190F",
"-  c #441C12",
";  c #491D12",
":  c #4E2014",
">  c #42241C",
",  c #4B261C",
"<  c #422E1F",
"1  c #4E281D",
"2  c #532416",
"3  c #552618",
"4  c #532A1E",
"5  c #5C2B1C",
"6  c #43301F",
"7  c #612E1E",
"8  c #432D23",
"9  c #4B2C21",
"0  c #522E22",
"q  c #5C2F20",
"w  c #453122",
"e  c #4B3424",
"r  c #4D3926",
"t  c #4B352A",
"y  c #4F3829",
"u  c #513221",
"i  c #5A3324",
"p  c #553825",
"a  c #5A3A27",
"s  c #50372E",
"d  c #5D3728",
"f  c #543D2B",
"g  c #5D3C2A",
"h  c #563F36",
"j  c #702828",
"k  c #643321",
"l  c #6A3422",
"z  c #6E3A26",
"x  c #643C2B",
"c  c #6B3D29",
"v  c #713A26",
"b  c #733D29",
"n  c #57402C",
"m  c #5A432E",
"M  c #5E4631",
"N  c #5F493F",
"B  c #64402A",
"V  c #6E442E",
"C  c #73422D",
"Z  c #7A442D",
"A  c #604731",
"S  c #614932",
"D  c #744532",
"F  c #734830",
"G  c #7D4B33",
"H  c #774E3C",
"J  c #725139",
"K  c #7F513D",
"L  c #654E43",
"P  c #704F40",
"I  c #675046",
"U  c #745B47",
"Y  c #765C4E",
"T  c #7C5C4D",
"R  c #7A6153",
"E  c #8C2F2F",
"W  c #913B32",
"Q  c #AD3F38",
"!  c #844D33",
"~  c #8B4F36",
"^  c #855035",
"/  c #895136",
"(  c #84523C",
")  c #8D5639",
"_  c #935B3C",
"`  c #8D5A41",
"'  c #895F4B",
"]  c #9C6543",
"[  c #9F6845",
"{  c #866D5F",
"}  c #9A745D",
"|  c #A26A46",
" . c #A56E49",
".. c #A7704A",
"X. c #AA734C",
"o. c #876E61",
"O. c #9F7B63",
"+. c #9A7E6A",
"@. c #A07F69",
"#. c #9F826D",
"$. c #A3826C",
"%. c #A18676",
"&. c #A38877",
"*. c #AC8E77",
"=. c #A78B7A",
"-. c #B28F79",
";. c #AF9078",
":. c #B1947C",
">. c #B69B88",
",. c #C6A891",
"<. c #D6B8A1",
"1. c #E6E6E6",
"2. c #807F74",
/* pixels */
"2.2.2.2.2.2.2.2.2.2.2.2.2.2.2.2.2.2.2.2.2.2.2.2.2.2.2.2.2.2.2.2.2.2.2.2.2.2.2.2.2.2.2.2.2.2.2.2.2.2.2.2.2.2.2.2.2.2.2.2.",
"2.2.2.2.2.2.2.2.2.2.2.2.2.2.2.2.2.2.2.2.2.2.2.2.2.2.2.2.2.2.2.2.2.2.2.2.2.2.2.2.2.2.2.2.2.2.2.2.2.2.2.2.2.2.2.2.2.2.2.2.",
"2.2.2.2.2.2.2.2.2.2.2.2.2.2.2.2.2.2.2.2.2.2.2.2.2.2.2.2.2.2.2.2.2.2.2.2.2.2.2.2.2.2.2.2.2.2.2.2.2.2.2.2.2.2.2.2.2.2.2.2.",
"2.2.2.2.2.2.2.2.2.2.2.2.2.2.2.2.2.2.2.2.2.2.2.2.2.2.2.2.2.2.2.2.2.2.2.2.2.2.2.2.2.2.2.2.2.2.2.2.2.2.2.2.2.2.2.2.2.2.2.2.",
"2.2.2.2.2.2.2.2.2.2.2.2.2.2.2.2.2.2.2.2.2.2.2.2.2.2.2.2.2.2.2.2.2.2.2.2.2.2.2.2.2.2.2.2.2.2.2.2.2.2.2.2.2.2.2.2.2.2.2.2.",
"2.2.2.2.2.2.2.2.2.2.2.2.2.2.2.2.2.2.2.2.2.2.2.2.2.2.2.2.2.2.2.2.2.2.2.2.2.2.2.2.2.2.2.2.2.2.2.2.2.2.2.2.2.2.2.2.2.2.2.2.",
"2.2.2.2.2.2.2.2.2.2.2.2.2.2.2.2.2.2.2.2.2.2.2.2.2.2.2.2.2.2.2.2.2.2.2.2.2.2.2.2.2.2.2.2.2.2.2.2.2.2.2.2.2.2.2.2.2.2.2.2.",
"2.2.2.2.2.2.2.2.2.2.2.2.2.2.2.2.2.2.2.2.2.2.2.2.2.2.2.2.2.2.2.2.2.2.2.2.2.2.2.2.2.2.2.2.2.2.2.2.2.2.2.2.2.2.2.2.2.2.2.2.",
"2.2.2.2.2.2.2.2.2.2.2.2.2.2.2.2.2.2.2.2.2.2.2.2.2.+ + 2.2.2.2.2.2.2.2.2.2.2.2.2.2.2.2.2.2.2.2.2.2.2.2.2.2.2.2.2.2.2.2.2.",
"2.2.2.2.2.2.2.2.2.2.2.2.2.2.2.2.2.2.2.2.+ X 2.2.+ X 8 8 . + 2.2.X X + 2.2.2.2.2.2.2.2.2.2.2.2.2.2.2.2.2.2.2.2.2.2.2.2.2.",
"2.2.2.2.2.2.2.2.2.2.2.2.2.2.2.2.2.2.2.2.+ # $ 2.+ # f y # + 2.X # # + 2.2.2.2.2.2.2.2.2.2.2.2.2.2.2.2.2.2.2.2.2.2.2.2.2.",
"2.2.2.2.2.2.2.2.2.2.2.2.2.2.2.2.2.2.2.2.+ t w X + % n M t + + X w t + X + 2.2.2.2.2.2.2.2.2.2.2.2.2.2.2.2.2.2.2.2.2.2.2.",
"2.2.2.2.2.2.2.2.2.2.2.2.2.2.2.2.X X 2.+ + f f 8 % 6 n S f $ $ 8 f f + 8 # 2.2.2.2.2.2.2.2.2.2.2.2.2.2.2.2.2.2.2.2.2.2.2.",
"2.2.2.2.2.2.2.2.2.2.2.2.2.2.2.+ # # # X + f S n 6 6 n S n < 6 n S f * m * X 2.2.2.2.2.2.2.2.2.2.2.2.2.2.2.2.2.2.2.2.2.2.",
"2.2.2.2.2.2.2.2.2.2.2.2.2.2.2.+ t m e + % n S n 6 6 n M n 6 6 n S M m m * X + + + 2.2.2.2.2.2.2.2.2.2.2.2.2.2.2.2.2.2.2.",
"2.2.2.2.2.2.2.2.2.2.2.2.2.2.2.+ 8 f M 8 6 n M m r 6 n M n 6 r m n n S S 8 + + # + 2.2.2.2.2.2.2.2.2.2.2.2.2.2.2.2.2.2.2.",
"2.2.2.2.2.2.2.2.2.2.2.2.2.2.2.+ X w M M 6 m M M M 6 n S m 6 A S p 6 A A r $ # % o 2.2.2.2.2.2.2.2.2.2.2.2.2.2.2.2.2.2.2.",
"2.2.2.2.2.2.2.2.2.2.2.2.2.2.2.2.X $ f M n M S S M 6 p C G Z G ! V u r m 6 % < < # 2.2.2.2.2.2.2.2.2.2.2.2.2.2.2.2.2.2.2.",
"2.2.2.2.2.2.2.2.2.2.2.2.2.2.2.2.# % e M M M m n B a C / _ ] _ _ / C d m 6 6 6 6 + X 2.2.2.2.2.2.2.2.2.2.2.2.2.2.2.2.2.2.",
"2.2.2.2.2.2.2.2.2.2.2.2.2.2.2.+ % % e M M M n 4 B ^ [ ......X.....[ ^ v p 6 6 6 # + 2.2.2.2.2.2.2.2.2.2.2.2.2.2.2.2.2.2.",
"2.2.2.2.2.2.2.2.2.2.2.2.2.2.2.+ # % w f M M a k ! [ X.X.X.X.X.X.X.X.[ _ G p % < % + 2.2.2.2.2.2.2.2.2.2.2.2.2.2.2.2.2.2.",
"2.2.2.2.2.2.2.2.2.2.2.2.2.2.2.+ . # % % n m c Z ) ..X.X.X.X.X.X.X.X.X.X.] F e < < # X 2.2.2.2.2.2.2.2.2.2.2.2.2.2.2.2.2.",
"2.2.2.2.2.2.2.2.2.2.2.2.2.2.2.2.X + + # 6 i Z ! )  .X.X.X.X.X.X.X.X.X.X.X._ V 6 < # . + 2.2.2.2.2.2.2.2.2.2.2.2.2.2.2.2.",
"2.2.2.2.2.2.2.2.2.2.2.2.2.2.2.2.X + X + $ c ! / ) ..X.X.X.X.X.X.X.X.X.X.X.] ! B w % # X 2.2.2.2.2.2.2.2.2.2.2.2.2.2.2.2.",
"2.2.2.2.2.2.2.2.2.2.2.2.2.2.2.2.X X X X o x ^ / ) [ X.X.X.X.X.X.X.X.X.X..._ / ! u < $ X 2.2.2.2.2.2.2.2.2.2.2.2.2.2.2.2.",
"2.2.2.2.2.2.2.2.2.2.2.2.2.2.2.X + + X X . # x ) / )  .X.X.X.X.X.X.X.X.X.] ) / ! k e $ + 2.2.2.2.2.2.2.2.2.2.2.2.2.2.2.2.",
"2.2.2.2.2.2.2.2.2.2.2.2.2.2.2.9 , 0 a p i # i / / / _ ..X.X.X.X.X.X.X.[ ) ~ ^ ^ Z e + X 2.2.2.2.2.2.2.2.2.2.2.2.2.2.2.2.",
"2.2.2.2.2.2.2.2.2.2.2.2.2.2.2.l l b ^ ) ^ 1 d ) / / / _ ........ ...| ) ^ / / / ^ , X + 2.2.2.2.2.2.2.2.2.2.2.2.2.2.2.2.",
"2.2.2.2.2.2.2.2.2.2.2.2.2.2.2.z l z ( O.J V G / / / / / _ ) _ _ ) _ ) / / / / / / 9 . X 2.2.2.2.2.2.2.2.2.2.2.2.2.2.2.2.",
"2.2.2.2.2.2.2.2.2.2.2.2.2.2.2.0 4 1 x Y S G ) / / / / ^ / / / / ^ ~ / / / / / / / i # X 2.2.2.2.2.2.2.2.2.2.2.2.2.2.2.2.",
"2.2.2.2.2.2.2.2.+ & + & # + 2.+ @ @ + 8 m ! / / / / / / / / / / / ~ / / / / / / ^ b , X 2.2.2.2.2.2.2.2.2.2.2.2.2.2.2.2.",
"2.2.1.2.2.2.2.  t Y & R L X X X E j # c G ^ / / / / / / / / / / / / / / / / / / / b , X + 2.2.2.2.2.2.2.2.2.2.2.2.2.2.2.",
"2.1.1.1.2.2.2.  h #.8 =.o.  X @ Q W i / / / / / / ^ / / / / / / / / ~ ^ / / / / / b 4 o o 2.2.2.2.2.2.2.2.2.2.2.2.2.2.2.",
"1.1.1.1.1.2.  . h +.8 &.o.X @ k ! / ! / / / / / / / / / / / / / / / / / ) / / / / v 2 O X X + + + + + 2.2.2.2.2.2.2.2.2.",
"1.1.1.1.1.2.  % M U & %.>.Y 0 b ~ / / / ~ / / / / / / / / / / / / / / ] [ ] [ _ Z 5 2 - o O 1 4 4 1 + + 2.2.2.2.2.2.2.2.",
"1.1.1.1.1.2.  8 m f & %.<.-.G ~ / / / ) ) ) / / / / / / / / ! ! / / _ ..X.X.X. .Z 2 = - o - 5 k k k > o 2.2.2.2.2.2.2.2.",
"1.1.1.1.2.2.+ + 8 n & %.,.*.O./ ^ / _  . ._ ! / / / / / / ~ v ! / _ ..X.X.X.X.X.[ k = ; - ; ; > > l k $ X 2.2.2.2.2.2.2.",
"1.1.1.1.2.2.. . * n @ I +.>.-.} _ _ [ X.X._ / / / / / / / ! l ! / _ X.X.X.X.X.X.X.k = ; ; O O o o 4 k > X 2.2.2.2.2.2.2.",
"2.1.1.1.1.2.. X & f # . L +.+.@.` _ X.X. ._ / / / / / ~ ! ! l Z ! _ X.X.X.X.X.X.X.k = - - + o . X # i $ X X 2.2.2.2.2.2.",
"2.2.2.2.2.2.. + + & + X & t s D b _ X.X._ / / / / / / Z z v l z Z _ X.X.X.X.X.X.X.k = - o + 2.2.2.# 1 $ X X 2.2.2.2.2.2.",
"2.2.2.2.2.2.2.+ X X X + X   + , 4 c ! ^ ^ / / / / / ) c 1 4 4 4 l ~ | X.X.X.X.X.[ i - - X X 2.2.2.# % % + X 2.2.2.2.2.2.",
"2.2.2.2.2.2.2.2.2.2.+ + X + + + + O - 2 G / / ! / / ~ i X + + - 3 v ~ | X.....| / < 2.2.2.2.2.2.2.+ < 6 $ X 2.2.2.2.2.2.",
"2.2.2.2.2.2.2.2.2.2.2.2.+ X X X X + O ; z ! ~ / / / d # X X X o @ 1 C _ _ / Z Z b 2.2.2.2.2.2.2.2.2.< 6 $ X 2.2.2.2.2.2.",
"2.2.2.2.2.2.2.2.2.2.2.2.2.+ + + + X O ; k Z Z ! Z C > . + + + X X $ l c Z b 7 k l 3 2.2.2.2.2.2.2.2.6 6 $ X 2.2.2.2.2.2.",
"2.2.2.2.2.2.2.2.2.2.2.2.2.2.2.2.2.2.2.: k l z l l 2 o X + + + 2.2.2.2.# q l l l l 2 2.2.2.2.2.2.2.2.2.6 $ + 2.2.2.2.2.2.",
"2.2.2.2.2.2.2.2.2.2.2.2.2.2.2.2.2.2.2.7 l l l 7 2 2.+ + X + X 2.2.2.X X # q z l l 7 2.2.2.2.2.2.2.2.2.# + + 2.2.2.2.2.2.",
"2.2.2.2.2.2.2.2.2.2.2.2.2.2.2.2.2.2.2.l k k l 7 ; 2.+ + X + + 2.2.2.+ X X > 5 l k l 2.2.2.2.2.2.2.2.2.X + + 2.2.2.2.2.2.",
"2.2.2.2.2.2.2.2.2.2.2.2.2.2.2.2.2.2.2 l l l l k 2.2.2.+ + + X + 2.2.+ + X + , l l l 2.2.2.2.2.2.2.2.2.2.2.2.2.2.2.2.2.2.",
"2.2.2.2.2.2.2.2.2.2.2.2.2.2.2.2.2.T H z ' D 5 3 2.2.2.+ + + + X 2.2.2.2.2.N P z ' x 2.2.2.2.2.2.2.2.2.2.2.2.2.2.2.2.2.2.",
"2.2.2.2.2.2.2.2.2.2.2.2.2.2.2.2.2.:.} C $.K 2 ; 2.2.2.+ + + + X 2.2.2.2.2.:.} C %.x 2.2.2.2.2.2.2.2.2.2.2.2.2.2.2.2.2.2."
};
