/* XPM */
static char *boar000[] = {
/* columns rows colors chars-per-pixel */
"60 50 114 2 ",
"   c #2A1614",
".  c #2D1917",
"X  c #2E1B19",
"o  c #351B16",
"O  c #3C1C15",
"+  c #311C19",
"@  c #3A1E1A",
"#  c #36211B",
"$  c #3A241C",
"%  c #3D2A1D",
"&  c #3B2621",
"*  c #3E2920",
"=  c #451C12",
"-  c #4A1E12",
";  c #4E2114",
":  c #41231C",
">  c #4C271C",
",  c #412E1F",
"<  c #4F281D",
"1  c #522316",
"2  c #542619",
"3  c #522B1E",
"4  c #5C2B1B",
"5  c #43301F",
"6  c #612E1D",
"7  c #65301F",
"8  c #432D23",
"9  c #4B2C21",
"0  c #512C20",
"q  c #5E2F20",
"w  c #453122",
"e  c #4B3424",
"r  c #4D3926",
"t  c #4B352A",
"y  c #4F3829",
"u  c #523222",
"i  c #5B3324",
"p  c #553825",
"a  c #5A3A27",
"s  c #50372E",
"d  c #543D2B",
"f  c #5D3C2A",
"g  c #563F36",
"h  c #702828",
"j  c #653321",
"k  c #6A3422",
"l  c #6D3925",
"z  c #623B2B",
"x  c #6B3D2A",
"c  c #713B27",
"v  c #733D29",
"b  c #57402C",
"n  c #5A432E",
"m  c #5E4631",
"M  c #64402A",
"N  c #6E442E",
"B  c #74422C",
"V  c #7B442D",
"C  c #604731",
"Z  c #614932",
"A  c #734432",
"S  c #734830",
"D  c #7C4C33",
"F  c #754D3C",
"G  c #7B4C39",
"H  c #73533B",
"J  c #654E43",
"K  c #675046",
"L  c #745B47",
"P  c #765D4E",
"I  c #795C4F",
"U  c #7C6357",
"Y  c #8C2F2F",
"T  c #913B32",
"R  c #AD3F38",
"E  c #844D33",
"W  c #8B4F36",
"Q  c #855035",
"!  c #895136",
"~  c #87563C",
"^  c #8D5539",
"/  c #935B3D",
"(  c #855A46",
")  c #8D5A41",
"_  c #8B614D",
"`  c #9C6442",
"'  c #9F6845",
"]  c #94684F",
"[  c #866D5F",
"{  c #9F765D",
"}  c #A26B47",
"|  c #A56E49",
" . c #A7704A",
".. c #AA734C",
"X. c #A17459",
"o. c #876E61",
"O. c #9B7761",
"+. c #9F7B64",
"@. c #9A7E6A",
"#. c #A07F69",
"$. c #9F826D",
"%. c #A4836D",
"&. c #A18676",
"*. c #A58874",
"=. c #AA8B75",
"-. c #A78B7A",
";. c #B28F79",
":. c #AF9078",
">. c #B1937B",
",. c #B69B88",
"<. c #C6A891",
"1. c #D6B8A1",
"2. c #E6E6E6",
"3. c #807F74",
/* pixels */
"3.3.3.3.3.3.3.3.3.3.3.3.3.3.3.3.3.3.3.3.3.3.3.3.3.3.3.3.3.3.3.3.3.3.3.3.3.3.3.3.3.3.3.3.3.3.3.3.3.3.3.3.3.3.3.3.3.3.3.3.",
"3.3.3.3.3.3.3.3.3.3.3.3.3.3.3.3.3.3.3.3.3.3.3.3.3.3.3.3.3.3.3.3.3.3.3.3.3.3.3.3.3.3.3.3.3.3.3.3.3.3.3.3.3.3.3.3.3.3.3.3.",
"3.3.3.3.3.3.3.3.3.3.3.3.3.3.3.3.3.3.3.3.3.3.3.3.3.3.3.3.3.3.3.3.3.3.3.3.3.3.3.3.3.3.3.3.3.3.3.3.3.3.3.3.3.3.3.3.3.3.3.3.",
"3.3.3.3.3.3.3.3.3.3.3.3.3.3.3.3.3.3.3.3.3.3.3.3.3.3.3.3.3.3.3.3.3.3.3.3.3.3.3.3.3.3.3.3.3.3.3.3.3.3.3.3.3.3.3.3.3.3.3.3.",
"3.3.3.3.3.3.3.3.3.3.3.3.3.3.3.3.3.3.3.3.3.3.3.3.3.3.3.3.3.3.3.3.3.3.3.3.3.3.3.3.3.3.3.3.3.3.3.3.3.3.3.3.3.3.3.3.3.3.3.3.",
"3.3.3.3.3.3.3.3.3.3.3.3.3.3.3.3.3.3.3.3.3.3.3.3.3.3.3.3.3.3.3.3.3.3.3.3.3.3.3.3.3.3.3.3.3.3.3.3.3.3.3.3.3.3.3.3.3.3.3.3.",
"3.3.3.3.3.3.3.3.3.3.3.3.3.3.3.3.3.3.3.3.3.3.3.3.3.3.3.3.3.3.3.3.3.3.3.3.3.3.3.3.3.3.3.3.3.3.3.3.3.3.3.3.3.3.3.3.3.3.3.3.",
"3.3.3.3.3.3.3.3.3.3.3.3.3.3.3.3.3.3.3.3.3.3.3.3.3.3.3.3.3.3.3.3.3.3.3.3.3.3.3.3.3.3.3.3.3.3.3.3.3.3.3.3.3.3.3.3.3.3.3.3.",
"3.3.3.3.3.3.3.3.3.3.3.3.3.3.3.3.3.3.3.3.3.3.3.3.3.+ + 3.3.3.3.3.3.3.3.3.3.3.3.3.3.3.3.3.3.3.3.3.3.3.3.3.3.3.3.3.3.3.3.3.",
"3.3.3.3.3.3.3.3.3.3.3.3.3.3.3.3.3.3.3.3.+ X 3.3.+ X 8 8 . + 3.3.X X + 3.3.3.3.3.3.3.3.3.3.3.3.3.3.3.3.3.3.3.3.3.3.3.3.3.",
"3.3.3.3.3.3.3.3.3.3.3.3.3.3.3.3.3.3.3.3.+ # $ 3.+ # d y # + 3.X # # + 3.3.3.3.3.3.3.3.3.3.3.3.3.3.3.3.3.3.3.3.3.3.3.3.3.",
"3.3.3.3.3.3.3.3.3.3.3.3.3.3.3.3.3.3.3.3.+ t w . + % b m t + + X w y + + + 3.3.3.3.3.3.3.3.3.3.3.3.3.3.3.3.3.3.3.3.3.3.3.",
"3.3.3.3.3.3.3.3.3.3.3.3.3.3.3.3.X X 3.X X d b 8 % 5 b Z d $ $ 8 b d + 8 # 3.3.3.3.3.3.3.3.3.3.3.3.3.3.3.3.3.3.3.3.3.3.3.",
"3.3.3.3.3.3.3.3.3.3.3.3.3.3.3.+ # $ # + + d Z b 5 5 b Z b 5 5 b Z d & n & X 3.3.3.3.3.3.3.3.3.3.3.3.3.3.3.3.3.3.3.3.3.3.",
"3.3.3.3.3.3.3.3.3.3.3.3.3.3.3.+ t d e X % b Z b % 5 b m b 5 5 b Z n d m 8 . + + + 3.3.3.3.3.3.3.3.3.3.3.3.3.3.3.3.3.3.3.",
"3.3.3.3.3.3.3.3.3.3.3.3.3.3.3.+ 8 b m 8 5 b Z n r w b m b 5 r n n b Z m w + + # + 3.3.3.3.3.3.3.3.3.3.3.3.3.3.3.3.3.3.3.",
"3.3.3.3.3.3.3.3.3.3.3.3.3.3.3.+ + 8 C m e b m Z m 5 b Z n 3 m Z d e n C e $ # % # 3.3.3.3.3.3.3.3.3.3.3.3.3.3.3.3.3.3.3.",
"3.3.3.3.3.3.3.3.3.3.3.3.3.3.3.3.X % d m b m m Z m 5 p B D S D D l u r m e % % , # 3.3.3.3.3.3.3.3.3.3.3.3.3.3.3.3.3.3.3.",
"3.3.3.3.3.3.3.3.3.3.3.3.3.3.3.3.# % e m m m n b n a B ! / / / / ! B a n 5 5 5 % + X 3.3.3.3.3.3.3.3.3.3.3.3.3.3.3.3.3.3.",
"3.3.3.3.3.3.3.3.3.3.3.3.3.3.3.+ % % e m m m b 3 l Q '  ...........' E l p 5 5 5 # + 3.3.3.3.3.3.3.3.3.3.3.3.3.3.3.3.3.3.",
"3.3.3.3.3.3.3.3.3.3.3.3.3.3.3.+ # $ w r m m a 7 E ` ................' / D p % , % + 3.3.3.3.3.3.3.3.3.3.3.3.3.3.3.3.3.3.",
"3.3.3.3.3.3.3.3.3.3.3.3.3.3.3.+ X # % % b n x V !  .....................` S e 5 , # X 3.3.3.3.3.3.3.3.3.3.3.3.3.3.3.3.3.",
"3.3.3.3.3.3.3.3.3.3.3.3.3.3.3.3.X + # # 5 i V Q ^  ..................... ./ N w , # X X 3.3.3.3.3.3.3.3.3.3.3.3.3.3.3.3.",
"3.3.3.3.3.3.3.3.3.3.3.3.3.3.3.3.+ X . . $ x E ! ^  .......................' E z w % # X 3.3.3.3.3.3.3.3.3.3.3.3.3.3.3.3.",
"3.3.3.3.3.3.3.3.3.3.3.3.3.3.3.3.+ @ : % + z E Q ^ } .................... .` ! E u 5 $ X 3.3.3.3.3.3.3.3.3.3.3.3.3.3.3.3.",
"3.3.3.3.3.3.3.3.3.3.3.3.3.3.3.k $ 0 D B # # x ! ! ^ } ...... ...........` ! ^ E k w $ X 3.3.3.3.3.3.3.3.3.3.3.3.3.3.3.3.",
"3.3.3.3.3.3.3.3.3.3.3.3.3.3.3.k 0 F X.] z o i ^ ! ! / } ............ .' ! ! ! E V w # X 3.3.3.3.3.3.3.3.3.3.3.3.3.3.3.3.",
"3.3.3.3.3.3.3.3.3.3.3.3.3.3.3.k 7 ( =.%.~ 9 a ^ ! ! ! `  . . . .| | } ^ E ! ! ! ! 9 X + 3.3.3.3.3.3.3.3.3.3.3.3.3.3.3.3.",
"3.3.3.3.3.3.3.3.3.3.3.3.3.3.3.k k v _ *.H S D ! ! ! ! ^ / / / / / / ^ ! ! ! ! ! ! 9 . X 3.3.3.3.3.3.3.3.3.3.3.3.3.3.3.3.",
"3.3.3.3.3.3.3.3.3.3.3.3.3.3.3.0 3 2 f P Z D ^ ! ! ! ! ! Q Q Q Q Q W ! ! ! ! ! ! ! i o X 3.3.3.3.3.3.3.3.3.3.3.3.3.3.3.3.",
"3.3.3.3.3.3.3.3.+ # + & & + 3.+ @ @ @ & M D ! ! ! ! ! Q ! ! Q ! ! ! ! ! ! ! ! ! ! c > X 3.3.3.3.3.3.3.3.3.3.3.3.3.3.3.3.",
"3.3.3.3.3.3.3.. t P & U J . X X Y h & x D Q ! ! ! ! ! ! ! ! ! ! ! ! ! Q ! ! ! ! ! v 9 X X X X X X X + 3.3.3.3.3.3.3.3.3.",
"3.3.3.3.3.3.3.  g $.8 ,.U   X @ R T i ! ! ! ! ! ! ! ! ! ! ! ! ! ! ! ! E ! ! ! ! ! v 2 o . o $ : : $ o X 3.3.3.3.3.3.3.3.",
"3.3.3.3.3.3.+ . g @.* &.o.. @ j E ! E ! ! ! ! ! ! ! ! ! ! ! ! ! ! ! ! ! ! Q ! ! Q v 1 O o = 4 j j 6 @ X 3.3.3.3.3.3.3.3.",
"3.3.3.3.3.3.X * m L * &.,.I 0 B Q ! ! ! ! W ! ! ! ! ! ! ! ! ! W / ' ' ' ^ W W E V 4 ; = o = 1 2 3 k 3 # 3.3.3.3.3.3.3.3.",
"3.3.3.3.3.3.. 8 n d & &.1.;.G W ! ! ! ^ / ! ! ! ! ! ! ! ! ! E ! ' ......` ! E E l 1 - = @ = = o # 6 l : X 3.3.3.3.3.3.3.",
"3.3.3.2.2.3.  + 8 d & &.<.-.#.^ ! W / | | / W ! ! ! W ! ! E c /  .......| / E l 7 1 = = = - O o + $ j : X X 3.3.3.3.3.3.",
"3.3.3.2.3.3.X X * n # K @.>.;.{ / / ' ..../ Q ! ! ! V E ^ E l ` ..........| ^ j 4 - - - = O + 3.X + 3 $ X # 3.3.3.3.3.3.",
"3.3.3.3.3.3.+ X & d @ . J @.@.#.) / ....../ Q ! ! ! v B E E l / ............/ j - - = - = + 3.3.3.+ % # X X 3.3.3.3.3.3.",
"3.3.3.3.3.3.+ X + & + + & t t A v / ....../ Q ! ! ! E V c c k c / ........} Q j - - - = o 3.3.3.3.# 5 5 # + 3.3.3.3.3.3.",
"3.3.3.3.3.3.3.+ X X X + X   + > 2 x Q Q D ! ! ! ! ! ^ v > 3 3 2 ! ......} ^ c 4 - = O O 3.3.3.3.3.# , 5 $ X 3.3.3.3.3.3.",
"3.3.3.3.3.3.3.3.3.3.+ + + X + + + O = - ; B Q W ! ! ! i X + + = B |  .| / B 4 - = o + + 3.3.3.3.3.3., , $ X 3.3.3.3.3.3.",
"3.3.3.3.3.3.3.3.3.3.3.3.X + X X X + o O = j D ! ! ! V 9 X X X + > B / / V 6 - o O + + + + 3.3.3.3.3.3.5 $ X 3.3.3.3.3.3.",
"3.3.3.3.3.3.3.3.3.3.3.3.3.+ + + + X + O ; 6 v E D B j : X X X X = 4 V E k 1 O + . + + X + 3.3.3.3.3.3.% # X 3.3.3.3.3.3.",
"3.3.3.3.3.3.3.3.3.3.3.3.3.3.3.3.3.3.3.- 7 k k k j - @ o + X 3.3.j j k k 1 - 3.+ X + X + X 3.3.3.3.3.3.+ + + 3.3.3.3.3.3.",
"3.3.3.3.3.3.3.3.3.3.3.3.3.3.3.3.3.3.3.4 7 k j 6 1 O + + + X 3.3.4 k k k : 3.3.3.+ + + + 3.3.3.3.3.3.3.3.3.3.3.3.3.3.3.3.",
"3.3.3.3.3.3.3.3.3.3.3.3.3.3.3.3.3.3.3.G G k x A = + + + + + 3.1 4 k k 6 : 3.3.3.+ X + X 3.3.3.3.3.3.3.3.3.3.3.3.3.3.3.3.",
"3.3.3.3.3.3.3.3.3.3.3.3.3.3.3.3.3.3.3.*.#.z F %.3.+ + X + 3.3.j j k j ; 3.3.3.3.+ + + + 3.3.3.3.3.3.3.3.3.3.3.3.3.3.3.3.",
"3.3.3.3.3.3.3.3.3.3.3.3.3.3.3.3.3.3.3.3.3.3.3.3.+ X + + X 3.3.A G ( j - 3.3.3.3.3.3.3.3.3.3.3.3.3.3.3.3.3.3.3.3.3.3.3.3.",
"3.3.3.3.3.3.3.3.3.3.3.3.3.3.3.3.3.3.3.3.3.3.3.3.+ + X + . 3.=.G _ O.k - 3.3.3.3.3.3.3.3.3.3.3.3.3.3.3.3.3.3.3.3.3.3.3.3."
};
